; generated by PrusaSlicer 2.2.0+win64 on 2020-06-21 at 09:23:47 UTC

; 

; external perimeters extrusion width = 0.45mm
; perimeters extrusion width = 0.45mm
; infill extrusion width = 0.45mm
; solid infill extrusion width = 0.45mm
; top infill extrusion width = 0.40mm
; first layer extrusion width = 0.42mm

M73 P0 R15
M73 Q0 S15
M201 X1000 Y1000 Z200 E5000 ; sets maximum accelerations, mm/sec^2
M203 X200 Y200 Z12 E120 ; sets maximum feedrates, mm/sec
M204 P1250 R1250 T1250 ; sets acceleration (P, T) and retract acceleration (R), mm/sec^2
M205 X8.00 Y8.00 Z0.40 E4.50 ; sets the jerk limits, mm/sec
M205 S0 T0 ; sets the minimum extruding and travel feed rate, mm/sec
M107
M862.3 P "MK3S" ; printer model check
M862.1 P0.4 ; nozzle diameter check
M115 U3.9.0 ; tell printer latest fw version
G90 ; use absolute coordinates
M83 ; extruder relative mode
M104 S240 ; set extruder temp
M140 S85 ; set bed temp
M190 S85 ; wait for bed temp
M109 S240 ; wait for extruder temp
G28 W ; home all without mesh bed level
G80 ; mesh bed leveling
G1 Y-3.0 F1000.0 ; go outside print area
G92 E0.0
G1 X60.0 E9.0 F1000.0 ; intro line
M73 Q0 S15
M73 P0 R15
G1 X100.0 E12.5 F1000.0 ; intro line
G92 E0.0
M221 S95
G21 ; set units to millimeters
G90 ; use absolute coordinates
M83 ; use relative distances for extrusion
M900 K0.12 ; Filament gcode LA 1.5
M900 K45 ; Filament gcode LA 1.0
;BEFORE_LAYER_CHANGE
G92 E0.0
;0.2


G1 E-1.40000 F2100.00000
G1 Z0.200 F10800.000
;AFTER_LAYER_CHANGE
;0.2
G1 Z0.400
G1 X117.787 Y103.585
G1 Z0.200
G1 E1.40000 F2100.00000
M204 S1000
G1 F900
G1 X121.787 Y103.585 E0.12542
G1 X121.787 Y102.787 E0.02502
G1 X125.067 Y102.787 E0.10284
G1 X125.067 Y103.585 E0.02502
G1 X129.906 Y103.585 E0.15171
G1 X129.906 Y103.828 E0.00762
G1 X129.957 Y104.044 E0.00697
G1 X129.957 Y106.930 E0.09047
G1 X129.674 Y107.213 E0.01254
G1 X120.326 Y107.213 E0.29310
G1 X117.787 Y104.674 E0.11258
G1 X117.787 Y103.645 E0.03226
G1 F8640.000
G1 X121.787 Y103.585 E-0.92372
G1 X121.787 Y102.787 E-0.18426
G1 X122.749 Y102.787 E-0.22202
G1 E-0.07000 F2100.00000
G1 Z0.400 F10800.000
G1 X125.444 Y103.208
G1 Z0.200
G1 E1.40000 F2100.00000
G1 F900
G1 X130.283 Y103.208 E0.15171
G1 X130.283 Y103.784 E0.01806
G1 X130.334 Y104.000 E0.00697
G1 X130.334 Y107.086 E0.09676
G1 X129.830 Y107.590 E0.02234
G1 X120.170 Y107.590 E0.30289
G1 X117.410 Y104.830 E0.12238
G1 X117.410 Y103.208 E0.05086
G1 X121.410 Y103.208 E0.12542
G1 X121.410 Y102.410 E0.02502
G1 X125.444 Y102.410 E0.12648
G1 X125.444 Y103.148 E0.02314
G1 X125.621 Y103.567 F10800.000
G1 X124.954 Y103.386
G1 F900
G1 X124.638 Y103.070 E0.01409
G1 X124.101 Y103.070 E0.01695
G1 X127.961 Y106.930 E0.17233
G1 X128.498 Y106.930 E0.01695
G1 X125.436 Y103.868 E0.13671
G1 X125.973 Y103.868 E0.01695
G1 X129.035 Y106.930 E0.13671
G1 X129.565 Y106.922 E0.01671
G1 X126.510 Y103.868 E0.13637
G1 X127.047 Y103.868 E0.01695
G1 X129.674 Y106.495 E0.11729
G1 X129.674 Y105.958 E0.01695
G1 X127.584 Y103.868 E0.09332
G1 X128.121 Y103.868 E0.01695
G1 X129.674 Y105.421 E0.06935
G1 X129.674 Y104.884 E0.01695
G1 X128.658 Y103.868 E0.04538
G1 X129.194 Y103.868 E0.01695
G1 X129.844 Y104.517 E0.02899
G1 F8640.000
G1 X129.194 Y103.868 E-0.21204
G1 X128.658 Y103.868 E-0.12397
G1 X129.674 Y104.884 E-0.33195
G1 X129.674 Y105.421 E-0.12397
G1 X128.121 Y103.868 E-0.50727
G1 X127.987 Y103.868 E-0.03079
G1 E-0.07000 F2100.00000
G1 Z0.400 F10800.000
G1 X127.594 Y107.100
G1 Z0.200
G1 E1.40000 F2100.00000
G1 F900
G1 X123.564 Y103.070 E0.17991
G1 X123.027 Y103.070 E0.01695
G1 X126.888 Y106.930 E0.17233
G1 X126.351 Y106.930 E0.01695
G1 X122.491 Y103.070 E0.17233
G1 X122.070 Y103.070 E0.01328
G1 X122.070 Y103.186 E0.00367
G1 X125.814 Y106.930 E0.16714
G1 X125.277 Y106.930 E0.01695
G1 X122.070 Y103.723 E0.14318
G1 X122.070 Y103.868 E0.00457
G1 X121.678 Y103.868 E0.01238
G1 X124.740 Y106.930 E0.13671
G1 X124.203 Y106.930 E0.01695
G1 X121.141 Y103.868 E0.13671
G1 X120.604 Y103.868 E0.01695
G1 X123.666 Y106.930 E0.13671
G1 X123.129 Y106.930 E0.01695
G1 X120.067 Y103.868 E0.13671
G1 X119.530 Y103.868 E0.01695
G1 X122.592 Y106.930 E0.13671
G1 X122.056 Y106.930 E0.01695
G1 X118.993 Y103.868 E0.13671
G1 X118.456 Y103.868 E0.01695
G1 X121.519 Y106.930 E0.13671
G1 X120.982 Y106.930 E0.01695
G1 X118.070 Y104.018 E0.13000
G1 X118.070 Y104.555 E0.01695
G1 X120.615 Y107.100 E0.11360
;BEFORE_LAYER_CHANGE
G92 E0.0
;0.3


G1 F8640.000
G1 X118.070 Y104.555 E-0.83096
G1 X118.070 Y104.018 E-0.12397
G1 X119.218 Y105.167 E-0.37506
G1 E-0.07000 F2100.00000
G1 Z0.400 F10800.000
;AFTER_LAYER_CHANGE
;0.3
M104 S250 ; set temperature
M140 S90 ; set bed temperature
G1 X124.207 Y103.343
G1 Z0.300
G1 E1.40000 F2100.00000
M204 S800
G1 F900
G1 X124.207 Y107.346 E0.07132
G1 X120.271 Y107.346 E0.07012
G1 X117.654 Y104.730 E0.06593
G1 X117.654 Y103.452 E0.02277
G1 X121.652 Y103.452 E0.07124
G1 X121.654 Y102.654 E0.01422
G1 X125.718 Y102.654 E0.07241
G1 X125.718 Y103.343 E0.01229
G1 X124.267 Y103.343 E0.02586
M204 S1000
G1 F8640.000
G1 X124.207 Y107.346 E-0.92441
G1 X122.450 Y107.346 E-0.40559
G1 E-0.07000 F2100.00000
G1 Z0.500 F10800.000
G1 X125.893 Y103.452
G1 Z0.300
G1 E1.40000 F2100.00000
M204 S800
G1 F900
G1 X130.481 Y103.452 E0.08174
G1 X130.532 Y106.543 E0.05509
G1 X129.729 Y107.346 E0.02023
G1 X125.893 Y107.346 E0.06834
G1 X125.893 Y103.512 E0.06833
M204 S1000
G1 X125.465 Y103.772 F10800.000
M204 S800
G1 F900
G1 X124.635 Y103.772 E0.01478
G1 X124.635 Y107.775 E0.07132
G1 X120.093 Y107.775 E0.08092
G1 X117.225 Y104.907 E0.07226
G1 X117.225 Y103.023 E0.03357
G1 X121.224 Y103.023 E0.07126
G1 X121.226 Y102.225 E0.01422
G1 X126.147 Y102.225 E0.08766
G1 X126.147 Y103.023 E0.01422
G1 X130.904 Y103.023 E0.08476
G1 X130.967 Y106.715 E0.06578
G1 X129.907 Y107.775 E0.02671
G1 X125.465 Y107.775 E0.07914
G1 X125.465 Y103.832 E0.07025
M204 S1000
G1 X125.355 Y103.387 F10800.000
G1 X125.504 Y102.998
G1 F900
G1 X123.992 Y102.998 E0.01642
G1 F8640.000
G1 X125.504 Y102.998 E-0.34899
G1 E-1.05101 F2100.00000
G1 Z0.500 F10800.000
G1 X122.608 Y102.782
G1 Z0.300
G1 E1.40000 F2100.00000
G1 F900
G1 X119.384 Y106.005 E0.08392
G1 X119.697 Y106.319 E0.00815
G1 X123.041 Y102.975 E0.08705
G1 X123.667 Y102.975 E0.01153
G1 X120.010 Y106.632 E0.09520
G1 X120.324 Y106.945 E0.00815
G1 X123.807 Y103.461 E0.09069
G1 X123.885 Y103.461 E0.00144
G1 X123.885 Y104.009 E0.01009
G1 X120.870 Y107.025 E0.07851
G1 X121.496 Y107.025 E0.01153
G1 X123.885 Y104.636 E0.06221
G1 X123.885 Y105.262 E0.01153
G1 X122.122 Y107.025 E0.04591
G1 X122.748 Y107.025 E0.01153
G1 X123.885 Y105.888 E0.02960
G1 X123.885 Y106.514 E0.01153
G1 X123.182 Y107.218 E0.01832
G1 F8640.000
G1 X123.885 Y106.514 E-0.22979
G1 X123.885 Y105.888 E-0.14459
G1 X122.748 Y107.025 E-0.37130
G1 X122.122 Y107.025 E-0.14459
G1 X123.469 Y105.678 E-0.43973
G1 E-0.07000 F2100.00000
G1 Z0.500 F10800.000
G1 X118.935 Y105.829
G1 Z0.300
G1 E1.40000 F2100.00000
G1 F900
G1 X120.991 Y103.773 E0.05352
G1 X120.364 Y103.773 E0.01153
G1 X118.758 Y105.379 E0.04182
G1 X118.445 Y105.066 E0.00815
G1 X119.738 Y103.773 E0.03367
G1 X119.112 Y103.773 E0.01153
G1 X118.132 Y104.753 E0.02552
G1 X117.975 Y104.596 E0.00408
G1 X117.975 Y104.284 E0.00576
G1 X118.679 Y103.580 E0.01831
G1 F8640.000
G1 X117.975 Y104.284 E-0.22971
G1 X117.975 Y104.596 E-0.07226
G1 X118.132 Y104.753 E-0.05114
G1 X119.112 Y103.773 E-0.32006
G1 X119.738 Y103.773 E-0.14459
G1 X118.445 Y105.066 E-0.42231
G1 X118.720 Y105.342 E-0.08993
G1 E-0.07000 F2100.00000
G1 Z0.500 F10800.000
G1 X126.900 Y103.580
G1 Z0.300
G1 E1.40000 F2100.00000
G1 F900
G1 X126.215 Y104.265 E0.01748
G1 X126.215 Y104.879 E0.01107
G1 X127.321 Y103.773 E0.02822
G1 X127.934 Y103.773 E0.01107
G1 X126.215 Y105.492 E0.04388
G1 X126.215 Y106.106 E0.01107
G1 X128.548 Y103.773 E0.05954
G1 X129.162 Y103.773 E0.01107
G1 X126.215 Y106.720 E0.07520
G1 X126.215 Y107.025 E0.00550
G1 X126.523 Y107.025 E0.00557
G1 X129.776 Y103.773 E0.08298
G1 X130.164 Y103.773 E0.00701
G1 X130.167 Y103.995 E0.00401
G1 X127.137 Y107.025 E0.07731
G1 X127.751 Y107.025 E0.01107
G1 X130.175 Y104.601 E0.06186
G1 X130.183 Y105.206 E0.01093
G1 X128.365 Y107.025 E0.04641
G1 X128.978 Y107.025 E0.01107
G1 X130.192 Y105.812 E0.03095
G1 X130.206 Y106.411 E0.01081
G1 X129.399 Y107.218 E0.02059
;BEFORE_LAYER_CHANGE
G92 E0.0
;0.4


G1 F8640.000
G1 X130.206 Y106.411 E-0.26347
G1 X130.192 Y105.812 E-0.13836
G1 X128.978 Y107.025 E-0.39611
G1 X128.365 Y107.025 E-0.14172
G1 X129.560 Y105.830 E-0.39034
G1 E-0.07000 F2100.00000
G1 Z0.500 F10800.000
;AFTER_LAYER_CHANGE
;0.4
G1 X125.973 Y103.343
G1 Z0.400
G1 E1.40000 F2100.00000
M204 S800
G1 F900
G1 X124.022 Y103.343 E0.03475
G1 X124.022 Y107.346 E0.07132
G1 X120.271 Y107.346 E0.06684
G1 X117.654 Y104.730 E0.06593
G1 X117.654 Y103.452 E0.02277
G1 X121.651 Y103.452 E0.07123
G1 X121.654 Y102.654 E0.01422
G1 X125.973 Y102.654 E0.07694
G1 X125.973 Y103.283 E0.01122
M204 S1000
G1 X126.078 Y103.452 F10800.000
M204 S800
G1 F900
G1 X130.704 Y103.452 E0.08242
G1 X130.737 Y105.236 E0.03179
G1 X130.737 Y106.338 E0.01965
G1 X129.729 Y107.346 E0.02540
G1 X126.078 Y107.346 E0.06506
G1 X126.078 Y103.512 E0.06833
M204 S1000
G1 X125.649 Y103.772 F10800.000
M204 S800
G1 F900
G1 X124.451 Y103.772 E0.02135
G1 X124.451 Y107.775 E0.07132
G1 X120.093 Y107.775 E0.07764
G1 X117.226 Y104.907 E0.07226
G1 X117.225 Y103.023 E0.03357
G1 X121.224 Y103.023 E0.07125
G1 X121.227 Y102.225 E0.01422
G1 X126.401 Y102.225 E0.09219
G1 X126.401 Y103.023 E0.01422
G1 X131.125 Y103.023 E0.08416
G1 X131.166 Y105.232 E0.03936
G1 X131.166 Y106.516 E0.02288
G1 X129.907 Y107.775 E0.03172
G1 X125.649 Y107.775 E0.07586
G1 X125.649 Y103.832 E0.07025
M204 S1000
G1 X125.542 Y103.387 F10800.000
G1 X125.758 Y102.998
G1 F900
G1 X123.808 Y102.998 E0.02119
G1 X123.894 Y103.937 F10800.000
G1 F900
G1 X122.932 Y102.975 E0.02620
G1 X122.277 Y102.975 E0.01263
G1 X123.701 Y104.399 E0.03881
G1 X123.701 Y105.055 E0.01263
G1 X121.973 Y103.327 E0.04707
G1 X121.972 Y103.773 E0.00859
G1 X121.764 Y103.773 E0.00400
G1 X123.701 Y105.710 E0.05278
G1 X123.701 Y106.365 E0.01263
G1 X121.109 Y103.773 E0.07063
G1 X120.453 Y103.773 E0.01263
G1 X123.701 Y107.025 E0.08855
G1 X123.050 Y107.025 E0.01254
G1 X119.798 Y103.773 E0.08861
G1 X119.142 Y103.773 E0.01263
G1 X122.395 Y107.025 E0.08861
G1 X121.739 Y107.025 E0.01263
G1 X118.487 Y103.773 E0.08861
G1 X117.975 Y103.773 E0.00986
G1 X117.975 Y103.916 E0.00277
G1 X121.084 Y107.025 E0.08470
G1 X120.428 Y107.025 E0.01263
G1 X117.782 Y104.379 E0.07209
G1 F8640.000
G1 X120.428 Y107.025 E-0.86402
G1 X121.084 Y107.025 E-0.15133
G1 X120.120 Y106.062 E-0.31465
G1 E-0.07000 F2100.00000
G1 Z0.600 F10800.000
G1 X126.206 Y106.327
G1 Z0.400
G1 E1.40000 F2100.00000
G1 F900
G1 X126.905 Y107.025 E0.01808
G1 X127.527 Y107.025 E0.01140
G1 X126.399 Y105.897 E0.02920
G1 X126.399 Y105.274 E0.01140
G1 X128.150 Y107.025 E0.04532
G1 X128.773 Y107.025 E0.01140
G1 X126.399 Y104.652 E0.06144
G1 X126.399 Y104.029 E0.01140
G1 X129.395 Y107.025 E0.07756
G1 X129.596 Y107.025 E0.00368
G1 X129.807 Y106.814 E0.00546
G1 X126.766 Y103.773 E0.07873
G1 X127.388 Y103.773 E0.01140
G1 X130.118 Y106.503 E0.07067
G1 X130.416 Y106.205 E0.00770
G1 X130.416 Y106.178 E0.00050
G1 X128.011 Y103.773 E0.06226
G1 X128.634 Y103.773 E0.01140
G1 X130.416 Y105.555 E0.04614
G1 X130.410 Y104.927 E0.01151
G1 X129.256 Y103.773 E0.02987
G1 X129.879 Y103.773 E0.01140
G1 X130.595 Y104.489 E0.01853
M106 S127.5
;BEFORE_LAYER_CHANGE
G92 E0.0
;0.5


G1 F8640.000
G1 X129.879 Y103.773 E-0.23373
G1 X129.256 Y103.773 E-0.14378
G1 X130.410 Y104.927 E-0.37675
G1 X130.416 Y105.555 E-0.14513
G1 X129.097 Y104.236 E-0.43062
G1 E-0.07000 F2100.00000
G1 Z0.600 F10800.000
;AFTER_LAYER_CHANGE
;0.5
G1 X126.179 Y103.343
G1 Z0.500
G1 E1.40000 F2100.00000
M204 S800
G1 F900
G1 X123.838 Y103.343 E0.04171
G1 X123.838 Y107.346 E0.07132
G1 X120.271 Y107.346 E0.06356
G1 X117.654 Y104.730 E0.06593
G1 X117.654 Y103.452 E0.02278
G1 X121.651 Y103.452 E0.07121
G1 X121.654 Y102.654 E0.01422
G1 X126.179 Y102.654 E0.08062
G1 X126.179 Y103.283 E0.01122
M204 S1000
G1 X126.262 Y103.452 F10800.000
M204 S800
G1 F900
G1 X130.913 Y103.452 E0.08287
G1 X130.920 Y106.156 E0.04818
G1 X129.729 Y107.346 E0.03000
G1 X126.262 Y107.346 E0.06177
G1 X126.262 Y103.512 E0.06833
M204 S1000
G1 X125.834 Y103.772 F10800.000
M204 S800
G1 F900
G1 X124.266 Y103.772 E0.02792
G1 X124.266 Y107.775 E0.07132
G1 X120.093 Y107.775 E0.07435
G1 X117.226 Y104.907 E0.07225
G1 X117.225 Y103.023 E0.03357
G1 X121.224 Y103.023 E0.07125
G1 X121.227 Y102.225 E0.01422
G1 X126.604 Y102.225 E0.09579
G1 X126.608 Y103.023 E0.01422
G1 X131.341 Y103.023 E0.08432
G1 X131.349 Y106.333 E0.05897
G1 X129.907 Y107.775 E0.03634
G1 X125.834 Y107.775 E0.07257
G1 X125.834 Y103.832 E0.07025
M204 S1000
G1 X125.729 Y103.386 F10800.000
G1 X125.965 Y102.998
G1 F900
G1 X123.624 Y102.998 E0.02544
G1 F8640.000
G1 X125.965 Y102.998 E-0.54059
G1 E-0.85941 F2100.00000
G1 Z0.700 F10800.000
G1 X126.391 Y104.491
G1 Z0.500
G1 E1.40000 F2100.00000
G1 F900
G1 X127.109 Y103.773 E0.01899
G1 X127.745 Y103.773 E0.01189
G1 X126.583 Y104.934 E0.03071
G1 X126.583 Y105.570 E0.01189
G1 X128.381 Y103.773 E0.04753
G1 X129.017 Y103.773 E0.01189
G1 X126.583 Y106.207 E0.06435
G1 X126.583 Y106.843 E0.01189
G1 X129.653 Y103.773 E0.08117
G1 X130.289 Y103.773 E0.01189
G1 X127.037 Y107.025 E0.08600
G1 X127.673 Y107.025 E0.01189
G1 X130.593 Y104.105 E0.07722
G1 X130.595 Y104.739 E0.01186
G1 X128.309 Y107.025 E0.06045
G1 X128.945 Y107.025 E0.01189
G1 X130.597 Y105.373 E0.04367
G1 X130.598 Y106.008 E0.01186
G1 X129.388 Y107.218 E0.03200
G1 F8640.000
G1 X130.598 Y106.008 E-0.39513
G1 X130.597 Y105.373 E-0.14648
G1 X128.945 Y107.025 E-0.53932
G1 X128.309 Y107.025 E-0.14686
G1 X128.622 Y106.712 E-0.10220
G1 E-0.07000 F2100.00000
G1 Z0.700 F10800.000
G1 X122.787 Y107.218
G1 Z0.500
G1 E1.40000 F2100.00000
G1 F900
G1 X123.517 Y106.488 E0.01951
G1 X123.517 Y105.845 E0.01217
G1 X122.337 Y107.025 E0.03156
G1 X121.693 Y107.025 E0.01217
G1 X123.517 Y105.202 E0.04877
G1 X123.517 Y104.558 E0.01217
G1 X121.050 Y107.025 E0.06598
G1 X120.406 Y107.025 E0.01217
G1 X123.517 Y103.915 E0.08319
G1 X123.517 Y103.461 E0.00858
G1 X123.327 Y103.461 E0.00359
G1 X120.083 Y106.705 E0.08675
G1 X119.762 Y106.383 E0.00860
G1 X123.170 Y102.975 E0.09116
G1 X122.526 Y102.975 E0.01217
G1 X119.440 Y106.061 E0.08256
G1 X119.118 Y105.740 E0.00860
G1 X121.085 Y103.773 E0.05261
G1 X120.442 Y103.773 E0.01217
G1 X118.797 Y105.418 E0.04400
G1 X118.475 Y105.096 E0.00860
G1 X119.798 Y103.773 E0.03540
G1 X119.155 Y103.773 E0.01217
G1 X118.153 Y104.775 E0.02679
G1 X117.975 Y104.597 E0.00476
G1 X117.975 Y104.309 E0.00544
G1 X118.704 Y103.580 E0.01950
;BEFORE_LAYER_CHANGE
G92 E0.0
;0.6


G1 F8640.000
G1 X117.975 Y104.309 E-0.23807
G1 X117.975 Y104.597 E-0.06640
G1 X118.153 Y104.775 E-0.05808
G1 X119.155 Y103.773 E-0.32709
G1 X119.798 Y103.773 E-0.14856
G1 X118.475 Y105.096 E-0.43213
G1 X118.658 Y105.279 E-0.05967
G1 E-0.07000 F2100.00000
G1 Z0.700 F10800.000
;AFTER_LAYER_CHANGE
;0.6
G1 X123.654 Y103.343
G1 Z0.600
G1 E1.40000 F2100.00000
M204 S800
G1 F900
G1 X123.654 Y107.346 E0.07132
G1 X120.271 Y107.346 E0.06027
G1 X117.654 Y104.730 E0.06593
G1 X117.654 Y103.654 E0.01918
G1 X121.651 Y103.654 E0.07121
G1 X121.655 Y102.654 E0.01782
G1 X126.367 Y102.654 E0.08396
G1 X126.367 Y103.343 E0.01229
G1 X123.714 Y103.343 E0.04728
M204 S1000
G1 F8640.000
G1 X123.654 Y107.346 E-0.92441
G1 X121.897 Y107.346 E-0.40559
G1 E-0.07000 F2100.00000
G1 Z0.800 F10800.000
G1 X126.446 Y103.654
G1 Z0.600
G1 E1.40000 F2100.00000
M204 S800
G1 F900
G1 X131.062 Y103.654 E0.08223
G1 X131.067 Y106.009 E0.04197
G1 X129.729 Y107.346 E0.03370
G1 X126.446 Y107.346 E0.05849
G1 X126.446 Y103.714 E0.06473
M204 S1000
G1 X126.018 Y103.772 F10800.000
M204 S800
G1 F900
G1 X124.082 Y103.772 E0.03449
M73 Q7 S14
G1 X124.082 Y107.775 E0.07132
G1 X120.093 Y107.775 E0.07107
M73 P7 R14
G1 X117.226 Y104.908 E0.07225
G1 X117.225 Y103.225 E0.02998
G1 X121.224 Y103.225 E0.07125
G1 X121.228 Y102.225 E0.01782
G1 X126.796 Y102.225 E0.09920
G1 X126.796 Y103.225 E0.01782
G1 X131.490 Y103.225 E0.08362
G1 X131.496 Y106.186 E0.05276
G1 X129.907 Y107.775 E0.04003
