; generated by PrusaSlicer 2.2.0+win64 on 2020-06-20 at 17:45:40 UTC

; 

; external perimeters extrusion width = 0.45mm
; perimeters extrusion width = 0.45mm
; infill extrusion width = 0.45mm
; solid infill extrusion width = 0.45mm
; top infill extrusion width = 0.40mm
; first layer extrusion width = 0.42mm

M73 P0 R11
M73 Q0 S11
M201 X1000 Y1000 Z200 E5000 ; sets maximum accelerations, mm/sec^2
M203 X200 Y200 Z12 E120 ; sets maximum feedrates, mm/sec
M204 P1250 R1250 T1250 ; sets acceleration (P, T) and retract acceleration (R), mm/sec^2
M205 X8.00 Y8.00 Z0.40 E4.50 ; sets the jerk limits, mm/sec
M205 S0 T0 ; sets the minimum extruding and travel feed rate, mm/sec
M107
M862.3 P "MK3S" ; printer model check
M862.1 P0.4 ; nozzle diameter check
M115 U3.9.0 ; tell printer latest fw version
G90 ; use absolute coordinates
M83 ; extruder relative mode
M104 S240 ; set extruder temp
M140 S85 ; set bed temp
M190 S85 ; wait for bed temp
M109 S240 ; wait for extruder temp
G28 W ; home all without mesh bed level
G80 ; mesh bed leveling
G1 Y-3.0 F1000.0 ; go outside print area
G92 E0.0
G1 X60.0 E9.0 F1000.0 ; intro line
M73 Q0 S11
M73 P0 R11
G1 X100.0 E12.5 F1000.0 ; intro line
G92 E0.0
M221 S95
G21 ; set units to millimeters
G90 ; use absolute coordinates
M83 ; use relative distances for extrusion
M900 K0.12 ; Filament gcode LA 1.5
M900 K45 ; Filament gcode LA 1.0
;BEFORE_LAYER_CHANGE
G92 E0.0
;0.2


G1 E-1.40000 F2100.00000
G1 Z0.200 F10800.000
;AFTER_LAYER_CHANGE
;0.2
G1 Z0.400
G1 X118.765 Y104.137
G1 Z0.200
G1 E1.40000 F2100.00000
M204 S1000
G1 F900
G1 X124.934 Y104.137 E0.19344
G1 X124.934 Y102.537 E0.05017
G1 X128.213 Y102.537 E0.10280
G1 X128.213 Y104.137 E0.05017
G1 X132.063 Y104.137 E0.12071
G1 X132.063 Y104.681 E0.01705
G1 X128.716 Y107.463 E0.13647
G1 X121.284 Y107.463 E0.23300
G1 X118.755 Y105.360 E0.10314
G1 X118.764 Y104.197 E0.03647
G1 F8640.000
G1 X124.524 Y104.141 E-1.33000
G1 E-0.07000 F2100.00000
G1 Z0.400 F10800.000
G1 X128.590 Y103.760
G1 Z0.200
G1 E1.40000 F2100.00000
G1 F900
G1 X132.440 Y103.760 E0.12071
G1 X132.440 Y104.858 E0.03442
G1 X128.852 Y107.840 E0.14629
G1 X121.148 Y107.840 E0.24154
G1 X118.376 Y105.536 E0.11302
G1 X118.391 Y103.760 E0.05569
G1 X124.557 Y103.760 E0.19334
G1 X124.557 Y102.160 E0.05017
G1 X128.590 Y102.160 E0.12645
G1 X128.590 Y103.700 E0.04829
G1 X128.745 Y104.129 F10800.000
G1 F8640.000
G1 X132.440 Y103.760 E-0.88908
G1 X132.440 Y104.858 E-0.25345
G1 X131.816 Y105.377 E-0.18746
G1 E-0.07000 F2100.00000
G1 Z0.400 F10800.000
G1 X127.383 Y102.650
G1 Z0.200
G1 E1.40000 F2100.00000
G1 F900
G1 X127.930 Y103.198 E0.02487
G1 X127.930 Y103.744 E0.01755
G1 X127.006 Y102.820 E0.04198
G1 X126.460 Y102.820 E0.01755
G1 X129.818 Y106.179 E0.15258
G1 X130.117 Y105.931 E0.01246
G1 X128.606 Y104.420 E0.06863
G1 X129.152 Y104.420 E0.01755
G1 X130.415 Y105.683 E0.05736
G1 X130.713 Y105.435 E0.01246
G1 X129.699 Y104.420 E0.04610
G1 X130.245 Y104.420 E0.01755
G1 X131.012 Y105.187 E0.03483
G1 X131.310 Y104.939 E0.01246
G1 X130.791 Y104.420 E0.02357
G1 X131.338 Y104.420 E0.01755
G1 X131.729 Y104.811 E0.01778
G1 F8640.000
G1 X131.338 Y104.420 E-0.12779
G1 X130.791 Y104.420 E-0.12615
G1 X131.310 Y104.939 E-0.16942
G1 X131.012 Y105.187 E-0.08958
G1 X130.245 Y104.420 E-0.25040
G1 X129.699 Y104.420 E-0.12615
G1 X130.713 Y105.435 E-0.33137
G1 X130.415 Y105.683 E-0.08958
G1 X130.355 Y105.623 E-0.01956
G1 E-0.07000 F2100.00000
G1 Z0.400 F10800.000
G1 X129.641 Y106.547
G1 Z0.200
G1 E1.40000 F2100.00000
G1 F900
G1 X125.913 Y102.820 E0.16931
G1 X125.367 Y102.820 E0.01755
G1 X129.222 Y106.675 E0.17511
G1 X128.923 Y106.923 E0.01246
G1 X125.217 Y103.216 E0.16837
G1 X125.217 Y103.763 E0.01755
G1 X128.625 Y107.170 E0.15481
G1 X128.613 Y107.180 E0.00048
G1 X128.088 Y107.180 E0.01687
G1 X125.217 Y104.309 E0.13043
G1 X125.217 Y104.420 E0.00357
G1 X124.782 Y104.420 E0.01398
G1 X127.542 Y107.180 E0.12539
G1 X126.996 Y107.180 E0.01755
G1 X124.235 Y104.420 E0.12539
G1 X123.689 Y104.420 E0.01755
G1 X126.449 Y107.180 E0.12539
G1 X125.903 Y107.180 E0.01755
G1 X123.143 Y104.420 E0.12539
G1 X122.596 Y104.420 E0.01755
G1 X125.357 Y107.180 E0.12539
G1 X124.810 Y107.180 E0.01755
G1 X122.050 Y104.420 E0.12539
G1 X121.504 Y104.420 E0.01755
G1 X124.264 Y107.180 E0.12539
G1 X123.718 Y107.180 E0.01755
G1 X120.958 Y104.420 E0.12539
G1 X120.411 Y104.420 E0.01755
G1 X123.171 Y107.180 E0.12539
G1 X122.625 Y107.180 E0.01755
G1 X119.865 Y104.420 E0.12539
G1 X119.319 Y104.420 E0.01755
G1 X122.079 Y107.180 E0.12539
G1 X121.532 Y107.180 E0.01755
G1 X118.875 Y104.522 E0.12073
;BEFORE_LAYER_CHANGE
G92 E0.0
;0.35


G1 F8640.000
G1 X121.532 Y107.180 E-0.86788
G1 X122.079 Y107.180 E-0.12615
G1 X121.050 Y106.151 E-0.33597
G1 E-0.07000 F2100.00000
G1 Z0.400 F10800.000
;AFTER_LAYER_CHANGE
;0.35
M104 S250 ; set temperature
M140 S90 ; set bed temperature
G1 X128.357 Y103.993
G1 Z0.350
G1 E1.40000 F2100.00000
M204 S800
G1 F900
G1 X132.207 Y103.993 E0.10031
G1 X132.207 Y104.748 E0.01969
G1 X128.768 Y107.607 E0.11653
G1 X121.232 Y107.607 E0.19634
G1 X118.355 Y105.215 E0.09750
G1 X118.355 Y103.993 E0.03186
G1 X124.199 Y103.993 E0.15226
G1 X124.199 Y102.393 E0.04169
G1 X128.357 Y102.393 E0.10835
G1 X128.357 Y103.933 E0.04013
M204 S1000
G1 X128.775 Y103.575 F10800.000
M204 S800
G1 F900
G1 X132.625 Y103.575 E0.10031
G1 X132.625 Y104.944 E0.03568
G1 X128.919 Y108.025 E0.12557
G1 X121.081 Y108.025 E0.20421
G1 X117.937 Y105.411 E0.10654
G1 X117.938 Y103.575 E0.04785
G1 X123.781 Y103.575 E0.15225
G1 X123.781 Y101.975 E0.04169
G1 X128.775 Y101.975 E0.13012
G1 X128.775 Y103.515 E0.04013
M204 S1000
G1 X128.938 Y103.940 F10800.000
G1 F8640.000
G1 X132.625 Y103.575 E-0.88908
G1 X132.625 Y104.944 E-0.31621
G1 X132.210 Y105.290 E-0.12471
G1 E-0.07000 F2100.00000
G1 Z0.550 F10800.000
G1 X125.084 Y102.518
G1 Z0.350
G1 E1.40000 F2100.00000
G1 F900
G1 X124.512 Y103.090 E0.02116
G1 X124.512 Y103.683 E0.01554
G1 X125.489 Y102.706 E0.03617
G1 X126.083 Y102.706 E0.01554
G1 X121.495 Y107.294 E0.16981
G1 X122.089 Y107.294 E0.01554
G1 X126.677 Y102.706 E0.16981
G1 X127.270 Y102.706 E0.01554
G1 X122.682 Y107.294 E0.16981
G1 X123.276 Y107.294 E0.01554
G1 X127.864 Y102.706 E0.16981
G1 X128.044 Y102.706 E0.00472
G1 X128.044 Y103.120 E0.01082
G1 X123.870 Y107.294 E0.15451
G1 X124.463 Y107.294 E0.01554
G1 X128.044 Y103.713 E0.13254
G1 X128.044 Y104.306 E0.01552
G1 X125.057 Y107.294 E0.11059
G1 X125.650 Y107.294 E0.01554
G1 X128.638 Y104.306 E0.11059
G1 X129.231 Y104.306 E0.01554
G1 X126.244 Y107.294 E0.11059
G1 X126.837 Y107.294 E0.01554
G1 X129.825 Y104.306 E0.11059
G1 X130.418 Y104.306 E0.01554
G1 X127.431 Y107.294 E0.11059
G1 X128.024 Y107.294 E0.01554
G1 X131.012 Y104.306 E0.11059
G1 X131.606 Y104.306 E0.01554
G1 X128.430 Y107.482 E0.11755
G1 F8640.000
G1 X131.606 Y104.306 E-1.03701
G1 X131.012 Y104.306 E-0.13705
G1 X130.535 Y104.784 E-0.15594
G1 E-0.07000 F2100.00000
G1 Z0.550 F10800.000
G1 X120.970 Y107.226
G1 Z0.350
G1 E1.40000 F2100.00000
G1 F900
G1 X123.889 Y104.306 E0.10808
G1 X123.296 Y104.306 E0.01554
G1 X120.779 Y106.823 E0.09316
G1 X120.455 Y106.554 E0.01103
G1 X122.702 Y104.306 E0.08319
G1 X122.109 Y104.306 E0.01554
G1 X120.131 Y106.284 E0.07322
G1 X119.807 Y106.015 E0.01103
G1 X121.515 Y104.306 E0.06325
G1 X120.922 Y104.306 E0.01554
G1 X119.482 Y105.745 E0.05327
G1 X119.158 Y105.476 E0.01103
G1 X120.328 Y104.306 E0.04330
G1 X119.735 Y104.306 E0.01554
G1 X118.834 Y105.207 E0.03333
G1 X118.668 Y105.068 E0.00565
G1 X118.668 Y104.779 E0.00758
G1 X119.329 Y104.118 E0.02446
;BEFORE_LAYER_CHANGE
G92 E0.0
;0.5


G1 F8640.000
G1 X118.668 Y104.779 E-0.21579
G1 X118.668 Y105.068 E-0.06685
G1 X118.834 Y105.207 E-0.04987
G1 X119.735 Y104.306 E-0.29402
G1 X120.328 Y104.306 E-0.13705
G1 X119.158 Y105.476 E-0.38199
G1 X119.482 Y105.745 E-0.09732
G1 X119.749 Y105.479 E-0.08711
G1 E-0.07000 F2100.00000
G1 Z0.550 F10800.000
;AFTER_LAYER_CHANGE
;0.5
G1 X128.357 Y103.993
G1 Z0.500
G1 E1.40000 F2100.00000
M204 S800
G1 F900
G1 X132.207 Y103.993 E0.10031
G1 X132.207 Y104.748 E0.01969
G1 X128.768 Y107.607 E0.11653
G1 X121.232 Y107.607 E0.19634
G1 X118.201 Y105.088 E0.10269
G1 X118.204 Y103.993 E0.02853
G1 X123.868 Y103.993 E0.14757
G1 X123.868 Y102.393 E0.04169
G1 X128.357 Y102.393 E0.11698
G1 X128.357 Y103.933 E0.04013
M204 S1000
G1 X128.775 Y103.575 F10800.000
M204 S800
G1 F900
G1 X132.625 Y103.575 E0.10031
G1 X132.625 Y104.944 E0.03568
G1 X128.919 Y108.025 E0.12557
G1 X121.081 Y108.025 E0.20421
G1 X117.783 Y105.284 E0.11175
G1 X117.787 Y103.575 E0.04452
G1 X123.450 Y103.575 E0.14754
G1 X123.450 Y101.975 E0.04169
G1 X128.775 Y101.975 E0.13875
G1 X128.775 Y103.515 E0.04013
M204 S1000
G1 X128.940 Y103.939 F10800.000
G1 X128.232 Y103.604
G1 F900
G1 X127.334 Y102.706 E0.03439
G1 X127.948 Y102.706 E0.01663
G1 X128.232 Y102.990 E0.01087
G1 F8640.000
G1 X127.948 Y102.706 E-0.09266
G1 X127.334 Y102.706 E-0.14180
G1 X128.232 Y103.604 E-0.29320
G1 E-0.87234 F2100.00000
G1 Z0.700 F10800.000
G1 X128.746 Y104.118
G1 Z0.500
G1 E1.40000 F2100.00000
G1 F900
G1 X130.439 Y105.811 E0.06483
G1 X130.774 Y105.532 E0.01181
G1 X129.548 Y104.306 E0.04695
G1 X130.162 Y104.306 E0.01663
G1 X131.109 Y105.253 E0.03628
G1 X131.445 Y104.975 E0.01181
G1 X130.776 Y104.306 E0.02560
G1 X131.390 Y104.306 E0.01663
G1 X131.914 Y104.829 E0.02004
G1 F8640.000
G1 X131.390 Y104.306 E-0.17087
G1 X130.776 Y104.306 E-0.14180
G1 X131.445 Y104.975 E-0.21829
G1 X131.109 Y105.253 E-0.10069
G1 X130.162 Y104.306 E-0.30931
G1 X129.548 Y104.306 E-0.14180
G1 X130.305 Y105.063 E-0.24724
G1 E-0.07000 F2100.00000
G1 Z0.700 F10800.000
G1 X130.237 Y106.223
G1 Z0.500
G1 E1.40000 F2100.00000
G1 F900
G1 X126.720 Y102.706 E0.13469
G1 X126.106 Y102.706 E0.01663
G1 X129.768 Y106.368 E0.14025
G1 X129.433 Y106.647 E0.01181
G1 X125.492 Y102.706 E0.15093
G1 X124.878 Y102.706 E0.01663
G1 X129.097 Y106.926 E0.16160
G1 X128.762 Y107.205 E0.01181
G1 X124.263 Y102.706 E0.17228
G1 X124.181 Y102.706 E0.00223
G1 X124.181 Y103.238 E0.01440
G1 X128.237 Y107.294 E0.15533
G1 X127.623 Y107.294 E0.01663
G1 X124.181 Y103.852 E0.13181
G1 X124.181 Y104.306 E0.01230
G1 X124.021 Y104.306 E0.00433
G1 X127.009 Y107.294 E0.11442
G1 X126.395 Y107.294 E0.01663
G1 X123.407 Y104.306 E0.11442
G1 X122.793 Y104.306 E0.01663
G1 X125.781 Y107.294 E0.11442
G1 X125.166 Y107.294 E0.01663
G1 X122.179 Y104.306 E0.11442
G1 X121.565 Y104.306 E0.01663
G1 X124.552 Y107.294 E0.11442
G1 X123.938 Y107.294 E0.01663
G1 X120.951 Y104.306 E0.11442
G1 X120.336 Y104.306 E0.01663
G1 X123.324 Y107.294 E0.11442
G1 X122.710 Y107.294 E0.01663
G1 X119.722 Y104.306 E0.11442
G1 X119.108 Y104.306 E0.01663
G1 X122.096 Y107.294 E0.11442
G1 X121.482 Y107.294 E0.01663
G1 X118.517 Y104.329 E0.11356
G1 X118.515 Y104.941 E0.01659
G1 X119.963 Y106.390 E0.05547
M106 S127.5
;BEFORE_LAYER_CHANGE
G92 E0.0
;0.65


G1 F8640.000
G1 X118.515 Y104.941 E-0.47297
G1 X118.517 Y104.329 E-0.14145
G1 X120.708 Y106.520 E-0.71559
G1 E-0.07000 F2100.00000
G1 Z0.700 F10800.000
;AFTER_LAYER_CHANGE
;0.65
G1 X128.357 Y103.993
G1 Z0.650
G1 E1.40000 F2100.00000
M204 S800
G1 F900
G1 X132.207 Y103.993 E0.10031
G1 X132.207 Y104.748 E0.01969
G1 X128.768 Y107.607 E0.11653
G1 X121.232 Y107.607 E0.19634
G1 X118.060 Y104.971 E0.10747
G1 X118.057 Y103.993 E0.02548
G1 X123.584 Y103.993 E0.14401
G1 X123.584 Y102.393 E0.04169
G1 X128.357 Y102.393 E0.12436
G1 X128.357 Y103.933 E0.04013
M204 S1000
G1 X128.775 Y103.575 F10800.000
M204 S800
G1 F900
G1 X132.625 Y103.575 E0.10031
G1 X132.625 Y104.944 E0.03568
G1 X128.919 Y108.025 E0.12557
G1 X121.081 Y108.025 E0.20421
G1 X117.643 Y105.167 E0.11650
G1 X117.638 Y103.575 E0.04148
G1 X123.166 Y103.575 E0.14404
G1 X123.166 Y101.975 E0.04169
G1 X128.775 Y101.975 E0.14613
G1 X128.775 Y103.515 E0.04013
M204 S1000
G1 X128.942 Y103.938 F10800.000
G1 F8640.000
G1 X132.625 Y103.575 E-0.88908
G1 X132.625 Y104.944 E-0.31621
G1 X132.210 Y105.290 E-0.12471
G1 E-0.07000 F2100.00000
G1 Z0.850 F10800.000
G1 X128.411 Y107.482
G1 Z0.650
G1 E1.40000 F2100.00000
G1 F900
G1 X131.587 Y104.306 E0.12000
G1 X130.981 Y104.306 E0.01619
G1 X127.993 Y107.294 E0.11290
G1 X127.387 Y107.294 E0.01619
G1 X130.375 Y104.306 E0.11290
G1 X129.769 Y104.306 E0.01619
G1 X126.781 Y107.294 E0.11290
G1 X126.176 Y107.294 E0.01619
G1 X129.163 Y104.306 E0.11290
G1 X128.557 Y104.306 E0.01619
G1 X125.570 Y107.294 E0.11290
G1 X124.964 Y107.294 E0.01619
G1 X128.044 Y104.214 E0.11640
G1 X128.044 Y103.608 E0.01619
G1 X124.358 Y107.294 E0.13929
G1 X123.752 Y107.294 E0.01619
G1 X128.044 Y103.002 E0.16219
G1 X128.044 Y102.706 E0.00790
G1 X127.733 Y102.706 E0.00829
G1 X123.146 Y107.294 E0.17336
G1 X122.540 Y107.294 E0.01619
G1 X127.128 Y102.706 E0.17336
G1 X126.522 Y102.706 E0.01619
G1 X121.934 Y107.294 E0.17336
G1 X121.336 Y107.286 E0.01598
G1 X125.916 Y102.706 E0.17306
G1 X125.310 Y102.706 E0.01619
G1 X121.005 Y107.011 E0.16267
G1 X120.674 Y106.736 E0.01150
G1 X123.104 Y104.306 E0.09181
G1 X122.498 Y104.306 E0.01619
G1 X120.343 Y106.461 E0.08142
G1 X120.012 Y106.186 E0.01150
G1 X121.892 Y104.306 E0.07103
G1 X121.286 Y104.306 E0.01619
G1 X119.681 Y105.911 E0.06063
G1 X119.350 Y105.636 E0.01150
G1 X120.680 Y104.306 E0.05024
G1 X120.074 Y104.306 E0.01619
G1 X119.020 Y105.361 E0.03985
G1 X118.689 Y105.086 E0.01150
G1 X119.468 Y104.306 E0.02945
G1 X118.862 Y104.306 E0.01619
G1 X118.224 Y104.944 E0.02410
G1 F8640.000
G1 X118.862 Y104.306 E-0.20830
G1 X119.468 Y104.306 E-0.13991
G1 X118.689 Y105.086 E-0.25451
G1 X119.020 Y105.361 E-0.09935
G1 X120.074 Y104.306 E-0.34432
G1 X120.680 Y104.306 E-0.13991
G1 X120.240 Y104.746 E-0.14369
G1 E-0.07000 F2100.00000
G1 Z0.850 F10800.000
G1 X123.710 Y103.700
G1 Z0.650
G1 E1.40000 F2100.00000
G1 F900
G1 X124.704 Y102.706 E0.03757
G1 X124.098 Y102.706 E0.01619
G1 X123.710 Y103.094 E0.01467
;BEFORE_LAYER_CHANGE
G92 E0.0
;0.8


G1 F8640.000
G1 X124.098 Y102.706 E-0.12676
G1 X124.704 Y102.706 E-0.13991
G1 X123.710 Y103.700 E-0.32463
G1 E-0.80870 F2100.00000
G1 Z0.850 F10800.000
;AFTER_LAYER_CHANGE
;0.8
G1 X128.357 Y103.993
G1 Z0.800
G1 E1.40000 F2100.00000
M204 S800
G1 F900
G1 X132.207 Y103.993 E0.10031
G1 X132.207 Y104.748 E0.01969
G1 X128.768 Y107.607 E0.11653
G1 X121.232 Y107.607 E0.19634
G1 X117.956 Y104.884 E0.11102
G1 X117.958 Y103.993 E0.02321
G1 X123.360 Y103.993 E0.14075
G1 X123.360 Y102.393 E0.04169
G1 X128.357 Y102.393 E0.13021
M73 Q9 S10
G1 X128.357 Y103.933 E0.04013
M204 S1000
G1 X128.775 Y103.575 F10800.000
M204 S800
G1 F900
G1 X132.625 Y103.575 E0.10031
M73 P9 R10
G1 X132.625 Y104.944 E0.03568
G1 X128.919 Y108.025 E0.12557
G1 X121.081 Y108.025 E0.20421
G1 X117.537 Y105.079 E0.12007
G1 X117.541 Y103.575 E0.03920
G1 X122.942 Y103.575 E0.14073
G1 X122.942 Y101.975 E0.04169
G1 X128.775 Y101.975 E0.15198
G1 X128.775 Y103.515 E0.04013
M204 S1000
G1 X128.943 Y103.938 F10800.000
G1 F8640.000
G1 X132.625 Y103.575 E-0.88908
G1 X132.625 Y104.944 E-0.31621
G1 X132.210 Y105.290 E-0.12471
G1 E-0.07000 F2100.00000
G1 Z1.000 F10800.000
G1 X127.272 Y102.518
G1 Z0.800
G1 E1.40000 F2100.00000
G1 F900
G1 X128.044 Y103.290 E0.02846
G1 X128.044 Y103.881 E0.01541
G1 X126.869 Y102.706 E0.04332
G1 X126.278 Y102.706 E0.01541
G1 X129.862 Y106.290 E0.13215
G1 X130.185 Y106.022 E0.01094
G1 X128.469 Y104.306 E0.06326
G1 X129.060 Y104.306 E0.01541
G1 X130.507 Y105.754 E0.05337
G1 X130.830 Y105.485 E0.01094
G1 X129.651 Y104.306 E0.04348
G1 X130.242 Y104.306 E0.01541
G1 X131.153 Y105.217 E0.03358
G1 X131.476 Y104.949 E0.01094
G1 X130.834 Y104.306 E0.02369
G1 X131.425 Y104.306 E0.01541
G1 X131.932 Y104.814 E0.01872
G1 F8640.000
G1 X131.425 Y104.306 E-0.16577
G1 X130.834 Y104.306 E-0.13651
G1 X131.476 Y104.949 E-0.20980
G1 X131.153 Y105.217 E-0.09694
G1 X130.242 Y104.306 E-0.29743
G1 X129.651 Y104.306 E-0.13651
G1 X130.530 Y105.185 E-0.28703
G1 E-0.07000 F2100.00000
G1 Z1.000 F10800.000
G1 X129.672 Y106.692
G1 Z0.800
G1 E1.40000 F2100.00000
G1 F900
G1 X125.686 Y102.706 E0.14696
G1 X125.095 Y102.706 E0.01541
G1 X129.216 Y106.827 E0.15194
G1 X128.893 Y107.095 E0.01094
G1 X124.504 Y102.706 E0.16183
G1 X123.913 Y102.706 E0.01541
G1 X128.500 Y107.294 E0.16914
G1 X127.909 Y107.294 E0.01541
G1 X123.673 Y103.058 E0.15618
G1 X123.673 Y103.649 E0.01541
