; generated by PrusaSlicer 2.2.0+win64 on 2020-06-23 at 12:49:13 UTC

; 

; external perimeters extrusion width = 0.45mm
; perimeters extrusion width = 0.45mm
; infill extrusion width = 0.45mm
; solid infill extrusion width = 0.45mm
; top infill extrusion width = 0.40mm
; first layer extrusion width = 0.42mm

M73 P0 R20
M73 Q0 S20
M201 X1000 Y1000 Z200 E5000 ; sets maximum accelerations, mm/sec^2
M203 X200 Y200 Z12 E120 ; sets maximum feedrates, mm/sec
M204 P1250 R1250 T1250 ; sets acceleration (P, T) and retract acceleration (R), mm/sec^2
M205 X8.00 Y8.00 Z0.40 E4.50 ; sets the jerk limits, mm/sec
M205 S0 T0 ; sets the minimum extruding and travel feed rate, mm/sec
M107
M862.3 P "MK3S" ; printer model check
M862.1 P0.4 ; nozzle diameter check
M115 U3.9.0 ; tell printer latest fw version
G90 ; use absolute coordinates
M83 ; extruder relative mode
M104 S240 ; set extruder temp
M140 S85 ; set bed temp
M190 S85 ; wait for bed temp
M109 S240 ; wait for extruder temp
G28 W ; home all without mesh bed level
G80 ; mesh bed leveling
G1 Y-3.0 F1000.0 ; go outside print area
G92 E0.0
G1 X60.0 E9.0 F1000.0 ; intro line
M73 Q0 S20
M73 P0 R20
G1 X100.0 E12.5 F1000.0 ; intro line
G92 E0.0
M221 S95
G21 ; set units to millimeters
G90 ; use absolute coordinates
M83 ; use relative distances for extrusion
M900 K0.12 ; Filament gcode LA 1.5
M900 K45 ; Filament gcode LA 1.0
;BEFORE_LAYER_CHANGE
G92 E0.0
;0.2


G1 E-1.40000 F2100.00000
G1 Z0.200 F10800.000
;AFTER_LAYER_CHANGE
;0.2
G1 Z0.400
G1 X115.607 Y102.670
G1 Z0.200
G1 E1.40000 F2100.00000
M204 S1000
G1 F1157
G1 X116.022 Y102.204 E0.01957
G1 X120.078 Y98.656 E0.16897
G1 X121.006 Y98.131 E0.03342
G1 X121.978 Y97.950 E0.03099
G1 X127.944 Y97.949 E0.18709
G1 X128.941 Y98.113 E0.03166
G1 X129.836 Y98.588 E0.03180
G1 X133.990 Y102.215 E0.17289
G1 X134.622 Y103.035 E0.03247
G1 X134.864 Y103.625 E0.01998
G1 X134.981 Y104.251 E0.01998
G1 X134.975 Y107.283 E0.09505
G1 X134.866 Y107.836 E0.01766
G1 X134.659 Y108.364 E0.01779
G1 X134.360 Y108.846 E0.01779
G1 X133.978 Y109.266 E0.01779
G1 X133.276 Y109.753 E0.02678
G1 X129.293 Y111.744 E0.13961
G1 X128.651 Y111.969 E0.02134
G1 X127.980 Y112.051 E0.02120
G1 X122.029 Y112.051 E0.18657
G1 X121.349 Y111.970 E0.02148
G1 X120.707 Y111.744 E0.02134
G1 X116.639 Y109.708 E0.14264
G1 X115.834 Y109.078 E0.03207
G1 X115.331 Y108.344 E0.02787
G1 X115.056 Y107.504 E0.02773
G1 X115.010 Y104.423 E0.09662
G1 X115.089 Y103.804 E0.01957
G1 X115.290 Y103.213 E0.01957
G1 X115.576 Y102.721 E0.01782
G1 F8640.000
G1 X116.022 Y102.204 E-0.15771
G1 X119.843 Y98.861 E-1.17229
G1 E-0.07000 F2100.00000
G1 Z0.400 F10800.000
G1 X134.308 Y108.223
G1 Z0.200
G1 E1.40000 F2100.00000
G1 F1157
G1 X133.681 Y109.026 E0.03195
G1 X133.098 Y109.420 E0.02205
G1 X129.135 Y111.401 E0.13892
G1 X128.552 Y111.605 E0.01937
G1 X127.971 Y111.674 E0.01835
G1 X122.023 Y111.674 E0.18648
G1 X121.422 Y111.599 E0.01899
G1 X120.856 Y111.397 E0.01886
G1 X116.817 Y109.376 E0.14159
G1 X116.072 Y108.779 E0.02993
G1 X115.645 Y108.126 E0.02447
G1 X115.419 Y107.384 E0.02434
G1 X115.388 Y104.403 E0.09345
G1 X115.466 Y103.852 E0.01745
G1 X115.652 Y103.328 E0.01745
G1 X115.941 Y102.852 E0.01745
G1 X116.319 Y102.444 E0.01745
G1 X120.312 Y98.952 E0.16631
G1 X121.140 Y98.484 E0.02980
G1 X121.995 Y98.327 E0.02727
G1 X127.944 Y98.326 E0.18653
G1 X128.830 Y98.474 E0.02816
G1 X129.621 Y98.898 E0.02816
G1 X133.729 Y102.487 E0.17101
G1 X134.288 Y103.210 E0.02866
G1 X134.503 Y103.736 E0.01784
G1 X134.606 Y104.296 E0.01784
G1 X134.599 Y107.246 E0.09252
G1 X134.325 Y108.165 E0.03007
G1 X133.966 Y108.056 F10800.000
G1 F1157
G1 X133.390 Y108.779 E0.02899
G1 X132.950 Y109.072 E0.01657
G1 X129.000 Y111.048 E0.13848
G1 X128.455 Y111.241 E0.01811
G1 X127.960 Y111.297 E0.01562
G1 X122.018 Y111.297 E0.18632
G1 X121.502 Y111.231 E0.01633
G1 X121.008 Y111.052 E0.01645
G1 X116.999 Y109.046 E0.14056
G1 X116.322 Y108.492 E0.02743
G1 X115.936 Y107.852 E0.02343
G1 X115.769 Y107.123 E0.02343
G1 X115.767 Y104.373 E0.08624
G1 X115.977 Y103.524 E0.02743
G1 X116.516 Y102.774 E0.02896
G1 X120.529 Y99.261 E0.16722
G1 X121.163 Y98.879 E0.02319
G1 X121.883 Y98.710 E0.02319
G1 X127.944 Y98.703 E0.19004
G1 X128.714 Y98.832 E0.02449
G1 X129.401 Y99.205 E0.02449
G1 X133.468 Y102.759 E0.16936
G1 X133.950 Y103.378 E0.02461
G1 X134.141 Y103.842 E0.01574
G1 X134.231 Y104.340 E0.01585
G1 X134.224 Y107.207 E0.08990
G1 X133.983 Y107.999 E0.02594
G1 F8640.000
G1 X133.390 Y108.779 E-0.22644
G1 X132.950 Y109.072 E-0.12200
G1 X129.148 Y110.974 E-0.98156
G1 E-0.07000 F2100.00000
G1 Z0.400 F10800.000
G1 X131.073 Y106.173
G1 Z0.200
G1 E1.40000 F2100.00000
G1 F1157
G1 X127.153 Y106.173 E0.12291
G1 X127.153 Y108.133 E0.06145
G1 X122.847 Y108.133 E0.13501
G1 X122.847 Y106.173 E0.06145
G1 X118.927 Y106.173 E0.12291
G1 X118.927 Y104.867 E0.04094
G1 X122.356 Y101.867 E0.14285
G1 X127.644 Y101.867 E0.16582
G1 X131.073 Y104.867 E0.14285
G1 X131.073 Y106.113 E0.03906
G1 F8640.000
G1 X127.153 Y106.173 E-0.90524
G1 X127.153 Y108.012 E-0.42475
G1 E-0.07000 F2100.00000
G1 Z0.400 F10800.000
G1 X127.530 Y106.550
G1 Z0.200
G1 E1.40000 F2100.00000
G1 F1157
G1 X127.530 Y108.510 E0.06145
G1 X122.470 Y108.510 E0.15865
G1 X122.470 Y106.550 E0.06145
G1 X118.550 Y106.550 E0.12291
G1 X118.550 Y104.696 E0.05813
G1 X122.214 Y101.490 E0.15265
G1 X127.786 Y101.490 E0.17470
G1 X131.450 Y104.696 E0.15265
G1 X131.450 Y106.550 E0.05813
G1 X127.590 Y106.550 E0.12103
G1 X127.134 Y106.609 F10800.000
G1 F8640.000
G1 X127.530 Y108.510 E-0.45278
G1 X123.731 Y108.510 E-0.87722
G1 E-0.07000 F2100.00000
G1 Z0.400 F10800.000
G1 X130.960 Y105.712
G1 Z0.200
G1 E1.40000 F2100.00000
G1 F1157
G1 X127.398 Y102.150 E0.16197
G1 X126.851 Y102.150 E0.01759
G1 X130.591 Y105.890 E0.17009
G1 X130.045 Y105.890 E0.01759
G1 X126.304 Y102.150 E0.17009
G1 X125.757 Y102.150 E0.01759
G1 X129.498 Y105.890 E0.17009
G1 X128.951 Y105.890 E0.01759
G1 X125.210 Y102.150 E0.17009
G1 X124.664 Y102.150 E0.01759
G1 X128.404 Y105.890 E0.17009
G1 X127.857 Y105.890 E0.01759
G1 X124.117 Y102.150 E0.17009
G1 X123.570 Y102.150 E0.01759
G1 X127.310 Y105.890 E0.17009
G1 X126.870 Y105.890 E0.01414
G1 X126.870 Y105.997 E0.00344
G1 X123.023 Y102.150 E0.17496
G1 X122.476 Y102.150 E0.01759
G1 X126.870 Y106.544 E0.19983
G1 X126.870 Y107.091 E0.01759
G1 X122.178 Y102.399 E0.21339
G1 X121.886 Y102.654 E0.01246
G1 X126.870 Y107.638 E0.22666
G1 X126.870 Y107.850 E0.00682
G1 X126.535 Y107.850 E0.01076
G1 X121.594 Y102.909 E0.22470
G1 X121.303 Y103.164 E0.01246
G1 X125.988 Y107.850 E0.21309
G1 X125.442 Y107.850 E0.01759
G1 X121.011 Y103.420 E0.20149
G1 X120.719 Y103.675 E0.01246
G1 X124.895 Y107.850 E0.18988
G1 X124.348 Y107.850 E0.01759
G1 X123.130 Y106.632 E0.05538
G1 X123.130 Y107.179 E0.01759
G1 X123.801 Y107.850 E0.03051
G1 X123.254 Y107.850 E0.01759
G1 X122.960 Y107.556 E0.01336
G1 F8640.000
G1 X123.254 Y107.850 E-0.09590
G1 X123.801 Y107.850 E-0.12629
G1 X123.130 Y107.179 E-0.21908
G1 X123.130 Y106.632 E-0.12629
G1 X124.348 Y107.850 E-0.39768
G1 X124.895 Y107.850 E-0.12629
G1 X124.164 Y107.120 E-0.23848
G1 E-0.07000 F2100.00000
G1 Z0.400 F10800.000
G1 X122.557 Y106.060
G1 Z0.200
G1 E1.40000 F2100.00000
G1 F1157
G1 X120.428 Y103.930 E0.09686
G1 X120.136 Y104.185 E0.01246
G1 X121.841 Y105.890 E0.07753
G1 X121.294 Y105.890 E0.01759
G1 X119.844 Y104.440 E0.06593
G1 X119.553 Y104.696 E0.01246
G1 X120.747 Y105.890 E0.05432
G1 X120.200 Y105.890 E0.01759
G1 X119.261 Y104.951 E0.04271
G1 X119.210 Y104.995 E0.00218
G1 X119.210 Y105.447 E0.01452
G1 X119.823 Y106.060 E0.02787
;BEFORE_LAYER_CHANGE
G92 E0.0
;0.35


G1 F8640.000
G1 X119.210 Y105.447 E-0.20015
G1 X119.210 Y104.995 E-0.10423
G1 X119.261 Y104.951 E-0.01563
G1 X120.200 Y105.890 E-0.30670
G1 X120.747 Y105.890 E-0.12629
G1 X119.553 Y104.696 E-0.39004
G1 X119.844 Y104.440 E-0.08950
G1 X120.143 Y104.739 E-0.09747
G1 E-0.07000 F2100.00000
G1 Z0.400 F10800.000
;AFTER_LAYER_CHANGE
;0.35
M104 S250 ; set temperature
M140 S90 ; set bed temperature
G1 X121.006 Y98.131
G1 Z0.350
G1 E1.40000 F2100.00000
G1 F1089
G1 X121.978 Y97.950 E0.02390
G1 X127.944 Y97.949 E0.14431
G1 X128.941 Y98.113 E0.02442
G1 X129.836 Y98.588 E0.02453
G1 X133.990 Y102.215 E0.13336
G1 X134.622 Y103.035 E0.02505
G1 X134.864 Y103.625 E0.01541
G1 X134.981 Y104.251 E0.01541
G1 X134.975 Y107.283 E0.07332
G1 X134.866 Y107.836 E0.01362
G1 X134.659 Y108.364 E0.01373
G1 X134.360 Y108.846 E0.01373
G1 X133.978 Y109.266 E0.01373
G1 X133.276 Y109.753 E0.02066
G1 X129.293 Y111.744 E0.10769
G1 X128.651 Y111.969 E0.01646
G1 X127.980 Y112.051 E0.01636
G1 X122.029 Y112.051 E0.14391
G1 X121.349 Y111.970 E0.01657
G1 X120.707 Y111.744 E0.01646
G1 X116.639 Y109.708 E0.11002
G1 X115.834 Y109.078 E0.02473
G1 X115.331 Y108.344 E0.02150
G1 X115.056 Y107.504 E0.02139
G1 X115.010 Y104.423 E0.07452
G1 X115.089 Y103.804 E0.01509
G1 X115.290 Y103.213 E0.01509
G1 X115.607 Y102.670 E0.01520
G1 X116.022 Y102.204 E0.01509
G1 X120.078 Y98.656 E0.13033
G1 X120.954 Y98.161 E0.02433
G1 X121.137 Y98.486 F10800.000
G1 F1089
G1 X121.995 Y98.327 E0.02110
G1 X127.944 Y98.326 E0.14388
G1 X128.830 Y98.474 E0.02172
G1 X129.621 Y98.898 E0.02172
G1 X133.729 Y102.487 E0.13191
G1 X134.288 Y103.210 E0.02211
G1 X134.503 Y103.736 E0.01376
G1 X134.606 Y104.296 E0.01376
G1 X134.599 Y107.246 E0.07136
G1 X134.308 Y108.223 E0.02465
G1 X133.681 Y109.026 E0.02465
G1 X133.098 Y109.420 E0.01701
G1 X129.135 Y111.401 E0.10716
G1 X128.552 Y111.605 E0.01494
G1 X127.971 Y111.674 E0.01415
G1 X122.023 Y111.674 E0.14384
G1 X121.422 Y111.599 E0.01465
G1 X120.856 Y111.397 E0.01455
G1 X116.817 Y109.376 E0.10921
G1 X116.072 Y108.779 E0.02309
G1 X115.645 Y108.126 E0.01888
G1 X115.419 Y107.384 E0.01878
G1 X115.388 Y104.403 E0.07208
G1 X115.466 Y103.852 E0.01346
G1 X115.652 Y103.328 E0.01346
G1 X115.941 Y102.852 E0.01346
G1 X116.319 Y102.444 E0.01346
G1 X120.312 Y98.952 E0.12828
G1 X121.085 Y98.515 E0.02147
G1 X121.163 Y98.879 F10800.000
G1 F1089
G1 X121.883 Y98.710 E0.01789
G1 X127.944 Y98.703 E0.14659
G1 X128.714 Y98.832 E0.01889
G1 X129.401 Y99.205 E0.01889
G1 X133.468 Y102.759 E0.13063
G1 X133.950 Y103.378 E0.01898
G1 X134.141 Y103.842 E0.01214
G1 X134.231 Y104.340 E0.01223
G1 X134.224 Y107.207 E0.06934
G1 X133.961 Y108.073 E0.02188
G1 X133.390 Y108.779 E0.02197
G1 X132.950 Y109.072 E0.01278
G1 X129.000 Y111.048 E0.10682
G1 X128.455 Y111.241 E0.01397
G1 X127.960 Y111.297 E0.01205
G1 X122.018 Y111.297 E0.14371
G1 X121.502 Y111.231 E0.01260
G1 X121.008 Y111.052 E0.01269
G1 X116.999 Y109.046 E0.10842
G1 X116.322 Y108.492 E0.02116
G1 X115.936 Y107.852 E0.01807
G1 X115.769 Y107.123 E0.01807
G1 X115.767 Y104.373 E0.06652
G1 X115.977 Y103.524 E0.02116
G1 X116.516 Y102.774 E0.02233
G1 X120.529 Y99.261 E0.12898
G1 X121.111 Y98.910 E0.01644
G1 F8640.000
G1 X121.883 Y98.710 E-0.18404
G1 X126.846 Y98.704 E-1.14596
G1 E-0.07000 F2100.00000
G1 Z0.550 F10800.000
G1 X127.297 Y106.317
G1 Z0.350
G1 E1.40000 F2100.00000
M204 S800
G1 F1089
G1 X127.297 Y108.277 E0.05107
G1 X122.703 Y108.277 E0.11971
G1 X122.703 Y106.317 E0.05107
G1 X118.783 Y106.317 E0.10214
G1 X118.783 Y104.802 E0.03949
G1 X122.302 Y101.723 E0.12183
G1 X127.698 Y101.723 E0.14062
G1 X131.217 Y104.802 E0.12183
G1 X131.217 Y106.317 E0.03949
G1 X127.357 Y106.317 E0.10058
M204 S1000
G1 X127.715 Y106.735 F10800.000
M204 S800
G1 F1089
G1 X127.715 Y108.695 E0.05107
G1 X122.285 Y108.695 E0.14148
G1 X122.285 Y106.735 E0.05107
G1 X118.365 Y106.735 E0.10214
G1 X118.365 Y104.612 E0.05531
G1 X122.145 Y101.305 E0.13086
G1 X127.855 Y101.305 E0.14880
G1 X131.635 Y104.612 E0.13086
G1 X131.635 Y106.735 E0.05531
G1 X127.775 Y106.735 E0.10058
M204 S1000
G1 X127.320 Y106.801 F10800.000
G1 F8640.000
G1 X127.715 Y108.695 E-0.45278
G1 X123.916 Y108.695 E-0.87722
G1 E-0.07000 F2100.00000
G1 Z0.550 F10800.000
G1 X126.394 Y108.152
G1 Z0.350
G1 E1.40000 F2100.00000
G1 F1089
G1 X126.984 Y107.562 E0.02272
G1 X126.984 Y106.944 E0.01682
G1 X125.964 Y107.964 E0.03927
G1 X125.347 Y107.964 E0.01682
G1 X129.551 Y103.760 E0.16194
G1 X129.880 Y104.048 E0.01192
G1 X127.924 Y106.004 E0.07534
G1 X128.542 Y106.004 E0.01682
G1 X130.209 Y104.336 E0.06423
G1 X130.539 Y104.625 E0.01192
G1 X129.160 Y106.004 E0.05313
G1 X129.777 Y106.004 E0.01682
G1 X130.868 Y104.913 E0.04203
G1 X130.904 Y104.944 E0.00128
G1 X130.904 Y105.495 E0.01501
G1 X130.207 Y106.192 E0.02684
G1 F8640.000
G1 X130.904 Y105.495 E-0.22754
G1 X130.904 Y104.944 E-0.12726
G1 X130.868 Y104.913 E-0.01089
G1 X129.777 Y106.004 E-0.35626
G1 X129.160 Y106.004 E-0.14263
G1 X130.539 Y104.625 E-0.45039
G1 X130.490 Y104.582 E-0.01503
G1 E-0.07000 F2100.00000
G1 Z0.550 F10800.000
G1 X124.541 Y108.152
G1 Z0.350
G1 E1.40000 F2100.00000
G1 F1089
G1 X129.221 Y103.472 E0.18029
G1 X128.892 Y103.183 E0.01192
G1 X124.111 Y107.964 E0.18415
G1 X123.494 Y107.964 E0.01682
G1 X128.562 Y102.895 E0.19525
G1 X128.233 Y102.607 E0.01192
G1 X123.016 Y107.824 E0.20095
G1 X123.016 Y107.206 E0.01682
G1 X127.903 Y102.319 E0.18826
G1 X127.568 Y102.036 E0.01194
G1 X123.016 Y106.588 E0.17535
G1 X123.016 Y106.004 E0.01592
G1 X122.983 Y106.004 E0.00091
G1 X126.950 Y102.036 E0.15284
G1 X126.333 Y102.036 E0.01682
G1 X122.365 Y106.004 E0.15284
G1 X121.747 Y106.004 E0.01682
G1 X125.715 Y102.036 E0.15284
G1 X125.097 Y102.036 E0.01682
G1 X121.130 Y106.004 E0.15284
G1 X120.512 Y106.004 E0.01682
G1 X124.480 Y102.036 E0.15284
G1 X123.862 Y102.036 E0.01682
G1 X119.894 Y106.004 E0.15284
G1 X119.277 Y106.004 E0.01682
G1 X123.244 Y102.036 E0.15284
G1 X122.627 Y102.036 E0.01682
G1 X119.096 Y105.567 E0.13600
G1 X119.096 Y104.949 E0.01682
G1 X121.135 Y102.910 E0.07855
;BEFORE_LAYER_CHANGE
G92 E0.0
;0.5


G1 F8640.000
G1 X119.096 Y104.949 E-0.66592
G1 X119.096 Y105.567 E-0.14263
G1 X120.693 Y103.970 E-0.52146
G1 E-0.07000 F2100.00000
G1 Z0.550 F10800.000
;AFTER_LAYER_CHANGE
;0.5
G1 X121.006 Y98.131
G1 Z0.500
G1 E1.40000 F2100.00000
G1 F1093
G1 X121.978 Y97.950 E0.02390
G1 X127.944 Y97.949 E0.14431
G1 X128.941 Y98.113 E0.02442
G1 X129.836 Y98.588 E0.02453
G1 X133.990 Y102.215 E0.13336
G1 X134.622 Y103.035 E0.02505
G1 X134.864 Y103.625 E0.01541
G1 X134.981 Y104.251 E0.01541
G1 X134.975 Y107.283 E0.07332
G1 X134.866 Y107.836 E0.01362
G1 X134.659 Y108.364 E0.01373
G1 X134.360 Y108.846 E0.01373
G1 X133.978 Y109.266 E0.01373
G1 X133.276 Y109.753 E0.02066
G1 X129.293 Y111.744 E0.10769
G1 X128.651 Y111.969 E0.01646
G1 X127.980 Y112.051 E0.01636
G1 X122.029 Y112.051 E0.14391
G1 X121.349 Y111.970 E0.01657
G1 X120.707 Y111.744 E0.01646
G1 X116.639 Y109.708 E0.11002
G1 X115.834 Y109.078 E0.02473
G1 X115.331 Y108.344 E0.02150
G1 X115.056 Y107.504 E0.02139
G1 X115.010 Y104.423 E0.07452
G1 X115.089 Y103.804 E0.01509
G1 X115.290 Y103.213 E0.01509
G1 X115.607 Y102.670 E0.01520
G1 X116.022 Y102.204 E0.01509
G1 X120.078 Y98.656 E0.13033
G1 X120.954 Y98.161 E0.02433
G1 X121.137 Y98.486 F10800.000
G1 F1093
G1 X121.995 Y98.327 E0.02110
G1 X127.944 Y98.326 E0.14388
G1 X128.830 Y98.474 E0.02172
G1 X129.621 Y98.898 E0.02172
G1 X133.729 Y102.487 E0.13191
G1 X134.288 Y103.210 E0.02211
G1 X134.503 Y103.736 E0.01376
G1 X134.606 Y104.296 E0.01376
G1 X134.599 Y107.246 E0.07136
G1 X134.308 Y108.223 E0.02465
G1 X133.681 Y109.026 E0.02465
G1 X133.098 Y109.420 E0.01701
G1 X129.135 Y111.401 E0.10716
G1 X128.552 Y111.605 E0.01494
G1 X127.971 Y111.674 E0.01415
G1 X122.023 Y111.674 E0.14384
G1 X121.422 Y111.599 E0.01465
G1 X120.856 Y111.397 E0.01455
G1 X116.817 Y109.376 E0.10921
G1 X116.072 Y108.779 E0.02309
G1 X115.645 Y108.126 E0.01888
G1 X115.419 Y107.384 E0.01878
G1 X115.388 Y104.403 E0.07208
G1 X115.466 Y103.852 E0.01346
G1 X115.652 Y103.328 E0.01346
G1 X115.941 Y102.852 E0.01346
G1 X116.319 Y102.444 E0.01346
G1 X120.312 Y98.952 E0.12828
G1 X121.085 Y98.515 E0.02147
G1 X121.163 Y98.879 F10800.000
G1 F1093
G1 X121.883 Y98.710 E0.01789
G1 X127.944 Y98.703 E0.14659
G1 X128.714 Y98.832 E0.01889
G1 X129.401 Y99.205 E0.01889
G1 X133.468 Y102.759 E0.13063
G1 X133.950 Y103.378 E0.01898
G1 X134.141 Y103.842 E0.01214
G1 X134.231 Y104.340 E0.01223
G1 X134.224 Y107.207 E0.06934
G1 X133.961 Y108.073 E0.02188
G1 X133.390 Y108.779 E0.02197
G1 X132.950 Y109.072 E0.01278
G1 X129.000 Y111.048 E0.10682
