; generated by PrusaSlicer 2.2.0+win64 on 2020-06-30 at 09:44:24 UTC

; 

; external perimeters extrusion width = 0.45mm
; perimeters extrusion width = 0.45mm
; infill extrusion width = 0.45mm
; solid infill extrusion width = 0.45mm
; top infill extrusion width = 0.40mm
; first layer extrusion width = 0.42mm

M73 P0 R17
M73 Q0 S17
M201 X1000 Y1000 Z200 E5000 ; sets maximum accelerations, mm/sec^2
M203 X200 Y200 Z12 E120 ; sets maximum feedrates, mm/sec
M204 P1250 R1250 T1250 ; sets acceleration (P, T) and retract acceleration (R), mm/sec^2
M205 X8.00 Y8.00 Z0.40 E4.50 ; sets the jerk limits, mm/sec
M205 S0 T0 ; sets the minimum extruding and travel feed rate, mm/sec
M107
M862.3 P "MK3S" ; printer model check
M862.1 P0.4 ; nozzle diameter check
M115 U3.9.0 ; tell printer latest fw version
G90 ; use absolute coordinates
M83 ; extruder relative mode
M104 S240 ; set extruder temp
M140 S85 ; set bed temp
M190 S85 ; wait for bed temp
M109 S240 ; wait for extruder temp
G28 W ; home all without mesh bed level
G80 ; mesh bed leveling
G1 Y-3.0 F1000.0 ; go outside print area
G92 E0.0
G1 X60.0 E9.0 F1000.0 ; intro line
M73 Q0 S17
M73 P0 R17
G1 X100.0 E12.5 F1000.0 ; intro line
G92 E0.0
M221 S95
G21 ; set units to millimeters
G90 ; use absolute coordinates
M83 ; use relative distances for extrusion
M900 K0.12 ; Filament gcode LA 1.5
M900 K45 ; Filament gcode LA 1.0
;BEFORE_LAYER_CHANGE
G92 E0.0
;0.2


G1 E-1.40000 F2100.00000
G1 Z0.200 F10800.000
;AFTER_LAYER_CHANGE
;0.2
G1 Z0.400
G1 X111.812 Y101.293
G1 Z0.200
G1 E1.40000 F2100.00000
M204 S1000
G1 F1200.000
G1 X112.264 Y100.666 E0.02422
G1 X123.613 Y89.316 E0.50328
G1 X124.162 Y88.895 E0.02167
G1 X125.017 Y88.572 E0.02866
G1 X129.021 Y87.936 E0.12712
G1 X135.754 Y87.927 E0.21111
G1 X136.755 Y88.117 E0.03195
G1 X137.616 Y88.655 E0.03183
G1 X138.223 Y89.469 E0.03183
G1 X138.495 Y90.451 E0.03195
G1 X138.504 Y119.323 E0.90528
G1 X138.447 Y119.877 E0.01745
G1 X138.177 Y120.622 E0.02485
G1 X137.708 Y121.256 E0.02473
G1 X137.079 Y121.732 E0.02473
G1 X136.341 Y122.009 E0.02473
G1 X135.755 Y122.073 E0.01848
G1 X129.225 Y122.073 E0.20473
G1 X128.692 Y122.016 E0.01681
G1 X124.691 Y120.892 E0.13031
G1 X123.827 Y120.424 E0.03082
G1 X112.158 Y108.767 E0.51716
G1 X111.711 Y108.044 E0.02663
G1 X111.507 Y107.220 E0.02663
G1 X111.496 Y102.549 E0.14644
G1 X111.553 Y102.016 E0.01681
G1 X111.792 Y101.349 E0.02221
G1 X111.924 Y102.086 F10800.000
G1 F1200.000
G1 X112.149 Y101.461 E0.02083
G1 X112.539 Y100.923 E0.02083
G1 X123.876 Y89.586 E0.50270
G1 X124.359 Y89.217 E0.01906
G1 X125.098 Y88.941 E0.02473
G1 X129.059 Y88.311 E0.12574
G1 X135.754 Y88.304 E0.20992
G1 X136.621 Y88.469 E0.02767
G1 X137.370 Y88.941 E0.02778
G1 X137.893 Y89.652 E0.02767
G1 X138.121 Y90.505 E0.02767
G1 X138.076 Y119.807 E0.91876
G1 X137.836 Y120.459 E0.02178
G1 X137.420 Y121.010 E0.02166
G1 X136.864 Y121.419 E0.02166
G1 X136.209 Y121.652 E0.02178
G1 X129.250 Y121.696 E0.21820
G1 X128.762 Y121.646 E0.01538
G1 X124.819 Y120.537 E0.12841
G1 X124.059 Y120.127 E0.02708
G1 X112.450 Y108.528 E0.51455
G1 X112.058 Y107.896 E0.02331
G1 X111.881 Y107.170 E0.02343
G1 X111.923 Y102.146 E0.15754
G1 F8640.000
G1 X112.149 Y101.461 E-0.16654
G1 X112.539 Y100.923 E-0.15341
G1 X115.632 Y97.830 E-1.01005
G1 E-0.07000 F2100.00000
G1 Z0.400 F10800.000
G1 X128.463 Y96.788
G1 Z0.200
G1 E1.40000 F2100.00000
G1 F1200.000
G1 X128.463 Y99.492 E0.08480
G1 X127.935 Y99.497 E0.01656
G1 X127.430 Y99.557 E0.01593
G1 X126.935 Y99.671 E0.01593
G1 X126.747 Y99.735 E0.00622
G1 X126.508 Y99.655 E0.00791
G1 X125.953 Y99.538 E0.01778
G1 X125.388 Y99.488 E0.01778
G1 X124.822 Y99.505 E0.01778
G1 X124.261 Y99.590 E0.01778
G1 X123.714 Y99.739 E0.01778
G1 X123.188 Y99.953 E0.01778
G1 X122.692 Y100.227 E0.01778
G1 X122.231 Y100.558 E0.01778
G1 X121.829 Y100.926 E0.01712
G1 X121.444 Y101.369 E0.01840
G1 X121.126 Y101.841 E0.01782
G1 X120.867 Y102.345 E0.01778
G1 X120.670 Y102.877 E0.01778
G1 X120.537 Y103.428 E0.01778
G1 X120.470 Y103.991 E0.01778
G1 X120.470 Y104.558 E0.01778
G1 X120.537 Y105.121 E0.01778
G1 X120.670 Y105.673 E0.01778
G1 X120.860 Y106.184 E0.01712
G1 X121.126 Y106.708 E0.01840
G1 X121.443 Y107.179 E0.01782
G1 X121.813 Y107.609 E0.01778
G1 X122.231 Y107.992 E0.01778
G1 X122.675 Y108.310 E0.01712
G1 X123.187 Y108.596 E0.01840
G1 X123.714 Y108.810 E0.01782
G1 X124.240 Y108.954 E0.01712
G1 X124.820 Y109.044 E0.01840
G1 X125.388 Y109.061 E0.01782
G1 X125.953 Y109.011 E0.01778
G1 X126.508 Y108.895 E0.01778
G1 X126.747 Y108.814 E0.00791
G1 X126.935 Y108.879 E0.00622
G1 X127.430 Y108.992 E0.01593
G1 X127.935 Y109.053 E0.01593
G1 X128.463 Y109.057 E0.01656
G1 X128.463 Y112.162 E0.09734
G1 X134.963 Y112.162 E0.20380
G1 X134.963 Y118.532 E0.19974
G1 X130.037 Y118.532 E0.15445
G1 X130.037 Y117.488 E0.03275
G1 X125.875 Y117.488 E0.13050
G1 X115.037 Y106.650 E0.48057
G1 X115.037 Y102.900 E0.11758
G1 X125.875 Y92.062 E0.48057
G1 X130.037 Y92.062 E0.13050
G1 X130.037 Y91.468 E0.01862
G1 X134.963 Y91.468 E0.15445
G1 X134.963 Y96.788 E0.16680
G1 X128.523 Y96.788 E0.20192
G1 X128.840 Y97.165 F10800.000
G1 F1200.000
G1 X128.840 Y99.906 E0.08596
G1 X128.428 Y99.868 E0.01298
G1 X127.960 Y99.874 E0.01468
G1 X127.495 Y99.929 E0.01468
G1 X127.039 Y100.034 E0.01468
G1 X126.749 Y100.133 E0.00962
G1 X126.409 Y100.019 E0.01124
G1 X125.898 Y99.912 E0.01638
G1 X125.377 Y99.866 E0.01638
G1 X124.855 Y99.882 E0.01638
G1 X124.339 Y99.959 E0.01638
G1 X123.835 Y100.097 E0.01638
G1 X123.351 Y100.294 E0.01638
G1 X122.894 Y100.546 E0.01638
G1 X122.469 Y100.851 E0.01638
G1 X122.099 Y101.190 E0.01574
G1 X121.744 Y101.599 E0.01699
G1 X121.452 Y102.033 E0.01639
G1 X121.213 Y102.497 E0.01638
G1 X121.031 Y102.987 E0.01638
G1 X120.909 Y103.495 E0.01638
G1 X120.847 Y104.014 E0.01638
G1 X120.847 Y104.536 E0.01638
G1 X120.909 Y105.055 E0.01638
G1 X121.031 Y105.562 E0.01638
G1 X121.206 Y106.033 E0.01574
G1 X121.451 Y106.516 E0.01699
G1 X121.743 Y106.950 E0.01639
G1 X122.084 Y107.346 E0.01638
G1 X122.469 Y107.699 E0.01638
G1 X122.877 Y107.992 E0.01574
G1 X123.351 Y108.256 E0.01699
G1 X123.835 Y108.452 E0.01639
G1 X124.319 Y108.585 E0.01574
G1 X124.855 Y108.668 E0.01699
G1 X125.377 Y108.684 E0.01639
G1 X125.898 Y108.638 E0.01638
G1 X126.409 Y108.530 E0.01638
G1 X126.749 Y108.416 E0.01124
G1 X127.039 Y108.516 E0.00962
G1 X127.495 Y108.620 E0.01468
G1 X127.960 Y108.676 E0.01468
G1 X128.428 Y108.682 E0.01468
G1 X128.840 Y108.643 E0.01298
G1 X128.840 Y111.785 E0.09850
G1 X135.340 Y111.785 E0.20380
G1 X135.340 Y118.909 E0.22338
G1 X129.660 Y118.909 E0.17809
G1 X129.660 Y117.865 E0.03275
G1 X125.719 Y117.865 E0.12357
G1 X114.660 Y106.806 E0.49037
G1 X114.660 Y102.744 E0.12737
G1 X125.719 Y91.685 E0.49037
G1 X129.660 Y91.685 E0.12357
G1 X129.660 Y91.091 E0.01862
G1 X135.340 Y91.091 E0.17809
G1 X135.340 Y97.165 E0.19044
G1 X128.900 Y97.165 E0.20192
G1 X128.452 Y97.264 F10800.000
G1 F8640.000
G1 X128.840 Y99.906 E-0.63320
G1 X128.428 Y99.868 E-0.09560
G1 X127.960 Y99.874 E-0.10808
G1 X127.495 Y99.929 E-0.10808
G1 X127.039 Y100.034 E-0.10809
G1 X126.749 Y100.133 E-0.07081
G1 X126.409 Y100.019 E-0.08276
G1 X125.898 Y99.912 E-0.12061
G1 X125.886 Y99.911 E-0.00277
G1 E-0.07000 F2100.00000
G1 Z0.400 F10800.000
G1 X134.850 Y92.346
G1 Z0.200
G1 E1.40000 F2100.00000
G1 F1200.000
G1 X134.254 Y91.751 E0.02650
G1 X133.719 Y91.751 E0.01684
G1 X134.680 Y92.712 E0.04276
G1 X134.680 Y93.247 E0.01684
G1 X133.184 Y91.751 E0.06657
G1 X132.649 Y91.751 E0.01684
G1 X134.680 Y93.782 E0.09039
G1 X134.680 Y94.317 E0.01684
G1 X132.114 Y91.751 E0.11420
G1 X131.579 Y91.751 E0.01684
G1 X134.680 Y94.852 E0.13802
G1 X134.680 Y95.387 E0.01684
G1 X131.043 Y91.751 E0.16183
G1 X130.508 Y91.751 E0.01684
G1 X134.680 Y95.923 E0.18565
G1 X134.680 Y96.458 E0.01684
G1 X130.320 Y92.098 E0.19403
G1 X130.320 Y92.345 E0.00777
G1 X130.032 Y92.345 E0.00907
G1 X134.192 Y96.505 E0.18513
G1 X133.657 Y96.505 E0.01684
G1 X129.497 Y92.345 E0.18513
G1 X128.961 Y92.345 E0.01684
G1 X133.122 Y96.505 E0.18513
G1 X132.587 Y96.505 E0.01684
G1 X128.426 Y92.345 E0.18513
G1 X127.891 Y92.345 E0.01684
G1 X132.051 Y96.505 E0.18513
G1 X131.516 Y96.505 E0.01684
G1 X127.356 Y92.345 E0.18513
G1 X126.821 Y92.345 E0.01684
G1 X130.981 Y96.505 E0.18513
G1 X130.446 Y96.505 E0.01684
G1 X126.286 Y92.345 E0.18513
G1 X125.992 Y92.345 E0.00923
G1 X125.871 Y92.465 E0.00538
G1 X129.911 Y96.505 E0.17975
G1 X129.376 Y96.505 E0.01684
G1 X125.604 Y92.733 E0.16784
G1 X125.336 Y93.001 E0.01191
G1 X128.840 Y96.505 E0.15594
G1 X128.305 Y96.505 E0.01684
G1 X125.069 Y93.268 E0.14403
G1 X124.801 Y93.536 E0.01191
G1 X128.180 Y96.915 E0.15037
G1 X128.180 Y97.450 E0.01684
G1 X124.533 Y93.803 E0.16228
G1 X124.266 Y94.071 E0.01191
G1 X128.180 Y97.985 E0.17418
G1 X128.180 Y98.520 E0.01684
G1 X123.998 Y94.338 E0.18609
G1 X123.731 Y94.606 E0.01191
G1 X128.180 Y99.056 E0.19800
G1 X128.180 Y99.212 E0.00492
G1 X127.816 Y99.226 E0.01148
G1 X123.463 Y94.874 E0.19369
G1 X123.195 Y95.141 E0.01191
G1 X127.342 Y99.287 E0.18450
G1 X126.906 Y99.387 E0.01406
G1 X122.928 Y95.409 E0.17703
G1 X122.660 Y95.676 E0.01191
G1 X126.307 Y99.323 E0.16229
G1 X125.995 Y99.258 E0.01005
G1 X125.679 Y99.230 E0.00999
G1 X122.393 Y95.944 E0.14622
G1 X122.125 Y96.212 E0.01191
G1 X125.127 Y99.213 E0.13357
G1 X124.796 Y99.223 E0.01041
G1 X124.627 Y99.249 E0.00538
G1 X121.858 Y96.479 E0.12324
G1 X121.590 Y96.747 E0.01191
G1 X124.166 Y99.322 E0.11461
G1 X123.746 Y99.437 E0.01371
G1 X121.322 Y97.014 E0.10783
G1 X121.055 Y97.282 E0.01191
G1 X123.353 Y99.580 E0.10229
G1 X122.982 Y99.744 E0.01278
G1 X120.787 Y97.549 E0.09765
G1 X120.520 Y97.817 E0.01191
G1 X122.637 Y99.934 E0.09421
G1 X122.316 Y100.149 E0.01214
G1 X120.252 Y98.085 E0.09184
G1 X119.984 Y98.352 E0.01191
G1 X122.010 Y100.377 E0.09011
G1 X121.730 Y100.633 E0.01192
G1 X119.717 Y98.620 E0.08959
G1 X119.449 Y98.887 E0.01191
G1 X121.470 Y100.908 E0.08991
G1 X121.221 Y101.194 E0.01194
G1 X119.182 Y99.155 E0.09075
G1 X118.914 Y99.423 E0.01191
G1 X121.005 Y101.514 E0.09306
G1 X120.805 Y101.848 E0.01227
G1 X118.647 Y99.690 E0.09603
G1 X118.379 Y99.958 E0.01191
G1 X120.623 Y102.202 E0.09986
G1 X120.475 Y102.589 E0.01304
G1 X118.111 Y100.225 E0.10519
G1 X117.844 Y100.493 E0.01191
G1 X120.350 Y102.999 E0.11151
G1 X120.251 Y103.436 E0.01409
G1 X117.576 Y100.760 E0.11904
G1 X117.309 Y101.028 E0.01191
G1 X120.194 Y103.914 E0.12841
G1 X120.187 Y104.442 E0.01661
G1 X117.041 Y101.296 E0.14000
G1 X116.773 Y101.563 E0.01191
G1 X120.241 Y105.031 E0.15432
G1 X120.258 Y105.171 E0.00444
G1 X120.389 Y105.714 E0.01757
G1 X116.506 Y101.831 E0.17280
G1 X116.238 Y102.098 E0.01191
G1 X120.768 Y106.628 E0.20157
G1 X120.881 Y106.851 E0.00786
G1 X121.218 Y107.351 E0.01896
G1 X121.610 Y107.806 E0.01890
G1 X122.053 Y108.212 E0.01890
G1 X122.523 Y108.549 E0.01822
G1 X122.899 Y108.759 E0.01356
G1 X132.389 Y118.249 E0.42229
G1 X131.854 Y118.249 E0.01684
G1 X115.971 Y102.366 E0.70680
G1 X115.703 Y102.634 E0.01191
G1 X131.319 Y118.249 E0.69489
G1 X130.784 Y118.249 E0.01684
G1 X130.150 Y117.616 E0.02819
G1 X129.909 Y117.375 F10800.000
G1 F1200.000
G1 X115.436 Y102.901 E0.64405
G1 X115.320 Y103.017 E0.00515
G1 X115.320 Y103.321 E0.00956
G1 X129.204 Y117.205 E0.61784
G1 X128.669 Y117.205 E0.01684
G1 X115.320 Y103.856 E0.59402
G1 X115.320 Y104.391 E0.01684
G1 X128.134 Y117.205 E0.57021
G1 X127.599 Y117.205 E0.01684
G1 X115.320 Y104.926 E0.54639
G1 X115.320 Y105.461 E0.01684
G1 X127.063 Y117.205 E0.52258
G1 X126.528 Y117.205 E0.01684
G1 X115.320 Y105.996 E0.49876
G1 X115.320 Y106.532 E0.01684
G1 X126.163 Y117.375 E0.48250
G1 F8640.000
G1 X122.090 Y113.302 E-1.33000
G1 E-0.07000 F2100.00000
G1 Z0.400 F10800.000
G1 X133.094 Y118.419
G1 Z0.200
G1 E1.40000 F2100.00000
G1 F1200.000
G1 X123.803 Y109.128 E0.41346
G1 X124.181 Y109.231 E0.01235
G1 X124.489 Y109.279 E0.00980
G1 X133.629 Y118.419 E0.40673
G1 F8640.000
G1 X129.556 Y114.346 E-1.33000
G1 E-0.07000 F2100.00000
G1 Z0.400 F10800.000
G1 X134.850 Y112.682
G1 Z0.200
G1 E1.40000 F2100.00000
G1 F1200.000
G1 X134.612 Y112.445 E0.01058
G1 X134.077 Y112.445 E0.01684
G1 X134.680 Y113.048 E0.02685
G1 X134.680 Y113.583 E0.01684
G1 X133.542 Y112.445 E0.05066
G1 X133.006 Y112.445 E0.01684
G1 X134.680 Y114.118 E0.07448
G1 X134.680 Y114.653 E0.01684
G1 X132.471 Y112.445 E0.09829
G1 X131.936 Y112.445 E0.01684
G1 X134.680 Y115.189 E0.12210
G1 X134.680 Y115.724 E0.01684
G1 X131.401 Y112.445 E0.14592
G1 X130.866 Y112.445 E0.01684
G1 X134.680 Y116.259 E0.16973
G1 X134.680 Y116.794 E0.01684
G1 X130.331 Y112.445 E0.19355
G1 X129.796 Y112.445 E0.01684
G1 X134.680 Y117.329 E0.21736
G1 X134.680 Y117.864 E0.01684
G1 X129.260 Y112.445 E0.24118
G1 X128.725 Y112.445 E0.01684
G1 X134.530 Y118.249 E0.25831
G1 X133.995 Y118.249 E0.01684
G1 X125.080 Y109.335 E0.39669
G1 X125.397 Y109.344 E0.00996
G1 X125.606 Y109.326 E0.00663
G1 X128.180 Y111.900 E0.11453
G1 X128.180 Y111.364 E0.01684
G1 X126.088 Y109.272 E0.09311
G1 X126.530 Y109.179 E0.01422
G1 X128.180 Y110.829 E0.07342
G1 X128.180 Y110.294 E0.01684
G1 X127.091 Y109.205 E0.04848
G1 X127.382 Y109.271 E0.00940
G1 X127.735 Y109.313 E0.01118
G1 X128.350 Y109.929 E0.02737
;BEFORE_LAYER_CHANGE
G92 E0.0
;0.35


G1 F8640.000
G1 X127.735 Y109.313 E-0.20088
G1 X127.382 Y109.271 E-0.08204
G1 X127.091 Y109.205 E-0.06898
G1 X128.180 Y110.294 E-0.35577
G1 X128.180 Y110.829 E-0.12357
G1 X126.653 Y109.302 E-0.49876
G1 E-0.07000 F2100.00000
G1 Z0.400 F10800.000
;AFTER_LAYER_CHANGE
;0.35
M104 S250 ; set temperature
M140 S90 ; set bed temperature
G1 X138.223 Y89.469
G1 Z0.350
G1 E1.40000 F2100.00000
G1 F3000.000
G1 X138.495 Y90.451 E0.02465
G1 X138.504 Y119.323 E0.69828
G1 X138.447 Y119.877 E0.01346
G1 X138.177 Y120.622 E0.01917
G1 X137.708 Y121.256 E0.01907
G1 X137.079 Y121.732 E0.01907
G1 X136.341 Y122.009 E0.01907
G1 X135.755 Y122.073 E0.01425
G1 X129.225 Y122.073 E0.15791
G1 X128.692 Y122.016 E0.01297
G1 X124.691 Y120.892 E0.10051
G1 X123.827 Y120.424 E0.02377
G1 X112.158 Y108.767 E0.39891
G1 X111.711 Y108.044 E0.02054
G1 X111.507 Y107.220 E0.02054
G1 X111.496 Y102.549 E0.11296
G1 X111.553 Y102.016 E0.01297
G1 X111.812 Y101.293 E0.01858
G1 X112.264 Y100.666 E0.01868
G1 X123.613 Y89.316 E0.38820
G1 X124.162 Y88.895 E0.01671
G1 X125.017 Y88.572 E0.02211
G1 X129.021 Y87.936 E0.09806
G1 X135.754 Y87.927 E0.16284
M73 Q6 S16
G1 X136.755 Y88.117 E0.02465
G1 X137.616 Y88.655 E0.02455
G1 X138.187 Y89.420 E0.02310
G1 X137.886 Y89.642 F10800.000
G1 F3000.000
G1 X138.121 Y90.505 E0.02162
G1 X138.076 Y119.807 E0.70868
M73 P6 R16
G1 X137.836 Y120.459 E0.01680
G1 X137.420 Y121.010 E0.01671
G1 X136.864 Y121.419 E0.01671
G1 X136.209 Y121.652 E0.01680
G1 X129.250 Y121.696 E0.16831
G1 X128.762 Y121.646 E0.01186
G1 X124.819 Y120.537 E0.09905
G1 X124.059 Y120.127 E0.02089
G1 X112.450 Y108.528 E0.39689
G1 X112.058 Y107.896 E0.01798
G1 X111.881 Y107.170 E0.01807
G1 X111.924 Y102.086 E0.12297
G1 X112.149 Y101.461 E0.01607
G1 X112.539 Y100.923 E0.01607
G1 X123.876 Y89.586 E0.38776
G1 X124.359 Y89.217 E0.01470
G1 X125.098 Y88.941 E0.01907
G1 X129.059 Y88.311 E0.09699
G1 X135.754 Y88.304 E0.16192
G1 X136.621 Y88.469 E0.02134
G1 X137.370 Y88.941 E0.02143
G1 X137.850 Y89.594 E0.01959
G1 F8640.000
G1 X138.121 Y90.505 E-0.21939
G1 X138.113 Y95.315 E-1.11061
G1 E-0.07000 F2100.00000
G1 Z0.550 F10800.000
G1 X135.107 Y91.324
G1 Z0.350
G1 E1.40000 F2100.00000
M204 S800
G1 F2700.000
G1 X135.107 Y96.932 E0.14613
G1 X128.607 Y96.932 E0.16936
G1 X128.607 Y99.651 E0.07084
G1 X128.437 Y99.635 E0.00445
G1 X127.944 Y99.641 E0.01284
G1 X127.455 Y99.700 E0.01284
G1 X126.995 Y99.805 E0.01230
G1 X126.749 Y99.888 E0.00676
G1 X126.470 Y99.794 E0.00768
G1 X125.932 Y99.681 E0.01433
G1 X125.384 Y99.633 E0.01433
G1 X124.835 Y99.649 E0.01433
G1 X124.291 Y99.731 E0.01433
G1 X123.760 Y99.876 E0.01433
G1 X123.251 Y100.083 E0.01433
G1 X122.769 Y100.349 E0.01433
G1 X122.322 Y100.670 E0.01433
G1 X121.917 Y101.041 E0.01433
G1 X121.558 Y101.458 E0.01433
G1 X121.251 Y101.914 E0.01433
G1 X121.000 Y102.403 E0.01433
G1 X120.808 Y102.919 E0.01433
G1 X120.679 Y103.454 E0.01433
G1 X120.614 Y104.000 E0.01433
G1 X120.614 Y104.550 E0.01433
G1 X120.679 Y105.096 E0.01433
G1 X120.808 Y105.630 E0.01433
