; generated by PrusaSlicer 2.2.0+win64 on 2020-06-16 at 14:57:27 UTC

; 

; external perimeters extrusion width = 0.45mm
; perimeters extrusion width = 0.45mm
; infill extrusion width = 0.45mm
; solid infill extrusion width = 0.45mm
; top infill extrusion width = 0.40mm
; support material extrusion width = 0.35mm
; first layer extrusion width = 0.42mm

M73 P0 R50
M73 Q0 S51
M201 X1000 Y1000 Z200 E5000 ; sets maximum accelerations, mm/sec^2
M203 X200 Y200 Z12 E120 ; sets maximum feedrates, mm/sec
M204 P1250 R1250 T1250 ; sets acceleration (P, T) and retract acceleration (R), mm/sec^2
M205 X8.00 Y8.00 Z0.40 E4.50 ; sets the jerk limits, mm/sec
M205 S0 T0 ; sets the minimum extruding and travel feed rate, mm/sec
M107
M862.3 P "MK3S" ; printer model check
M862.1 P0.4 ; nozzle diameter check
M115 U3.9.0 ; tell printer latest fw version
G90 ; use absolute coordinates
M83 ; extruder relative mode
M104 S240 ; set extruder temp
M140 S85 ; set bed temp
M190 S85 ; wait for bed temp
M109 S240 ; wait for extruder temp
G28 W ; home all without mesh bed level
G80 ; mesh bed leveling
G1 Y-3.0 F1000.0 ; go outside print area
G92 E0.0
G1 X60.0 E9.0 F1000.0 ; intro line
M73 Q0 S50
M73 P0 R50
G1 X100.0 E12.5 F1000.0 ; intro line
G92 E0.0
M221 S95
G21 ; set units to millimeters
G90 ; use absolute coordinates
M83 ; use relative distances for extrusion
M900 K0.12 ; Filament gcode LA 1.5
M900 K45 ; Filament gcode LA 1.0
;BEFORE_LAYER_CHANGE
G92 E0.0
;0.2


G1 E-1.40000 F2100.00000
G1 Z0.200 F10800.000
;AFTER_LAYER_CHANGE
;0.2
G1 Z0.400
G1 X146.481 Y116.677
G1 Z0.200
G1 E1.40000 F2100.00000
M204 S1000
G1 F1200.000
G1 X146.447 Y118.254 E0.04943
G1 X146.083 Y119.417 E0.03823
G1 X145.420 Y120.438 E0.03816
G1 X144.576 Y121.240 E0.03651
G1 X143.566 Y121.810 E0.03636
G1 X142.476 Y122.095 E0.03531
G1 X141.451 Y122.115 E0.03217
G1 X141.184 Y122.144 E0.00840
G1 X133.940 Y122.144 E0.22714
G1 X132.404 Y121.730 E0.04986
G1 X131.951 Y121.476 E0.01628
G1 X117.648 Y121.476 E0.44847
G1 X117.137 Y121.760 E0.01833
G1 X115.665 Y122.144 E0.04769
G1 X112.616 Y122.144 E0.09558
G1 X112.012 Y122.118 E0.01898
G1 X111.772 Y122.144 E0.00755
G1 X108.816 Y122.144 E0.09269
G1 X108.563 Y122.117 E0.00797
G1 X107.813 Y122.128 E0.02351
G1 X106.415 Y121.802 E0.04503
G1 X105.194 Y121.058 E0.04482
G1 X104.303 Y120.089 E0.04126
G1 X103.827 Y119.206 E0.03147
G1 X103.550 Y118.232 E0.03174
G1 X103.529 Y116.678 E0.04874
G1 X103.073 Y116.651 E0.01431
G1 X101.982 Y116.298 E0.03594
G1 X101.091 Y115.738 E0.03303
G1 X100.298 Y114.950 E0.03502
G1 X99.597 Y113.775 E0.04293
G1 X99.287 Y112.510 E0.04083
G1 X99.287 Y108.606 E0.12239
G1 X99.692 Y107.081 E0.04949
G1 X100.538 Y105.784 E0.04856
G1 X115.962 Y91.388 E0.66151
G1 X116.646 Y90.901 E0.02633
G1 X118.598 Y90.286 E0.06419
G1 X131.355 Y90.290 E0.39997
G1 X132.706 Y90.605 E0.04349
G1 X133.953 Y91.309 E0.04490
G1 X149.455 Y105.777 E0.66487
G1 X150.244 Y106.943 E0.04415
G1 X150.713 Y108.598 E0.05393
G1 X150.713 Y112.510 E0.12266
G1 X150.403 Y113.775 E0.04083
G1 X149.702 Y114.950 E0.04293
G1 X148.909 Y115.738 E0.03502
G1 X148.018 Y116.298 E0.03303
G1 X146.927 Y116.651 E0.03594
G1 X146.541 Y116.674 E0.01213
G1 X146.109 Y116.309 F10800.000
G1 F1200.000
G1 X146.078 Y118.169 E0.05835
G1 X145.751 Y119.236 E0.03497
G1 X145.143 Y120.182 E0.03527
G1 X144.369 Y120.923 E0.03359
G1 X143.403 Y121.470 E0.03481
G1 X142.406 Y121.724 E0.03227
G1 X141.427 Y121.738 E0.03068
G1 X141.173 Y121.767 E0.00801
G1 X133.965 Y121.767 E0.22600
G1 X132.529 Y121.373 E0.04671
G1 X132.053 Y121.099 E0.01720
G1 X117.547 Y121.099 E0.45484
G1 X117.015 Y121.402 E0.01919
G1 X115.640 Y121.767 E0.04460
G1 X112.620 Y121.767 E0.09468
G1 X111.998 Y121.740 E0.01952
G1 X111.761 Y121.767 E0.00748
G1 X108.827 Y121.767 E0.09202
G1 X108.581 Y121.739 E0.00773
G1 X107.830 Y121.750 E0.02355
G1 X106.583 Y121.463 E0.04014
G1 X105.453 Y120.782 E0.04136
G1 X104.597 Y119.851 E0.03966
G1 X104.183 Y119.081 E0.02742
G1 X103.927 Y118.201 E0.02875
G1 X103.901 Y116.309 E0.05932
G1 X103.162 Y116.283 E0.02318
G1 X102.122 Y115.947 E0.03427
G1 X101.310 Y115.431 E0.03015
G1 X100.608 Y114.735 E0.03100
G1 X99.955 Y113.655 E0.03957
G1 X99.664 Y112.486 E0.03776
G1 X99.664 Y108.631 E0.12090
G1 X100.025 Y107.260 E0.04443
G1 X100.812 Y106.043 E0.04544
G1 X116.209 Y91.673 E0.66037
G1 X116.840 Y91.226 E0.02422
G1 X118.627 Y90.664 E0.05875
G1 X131.332 Y90.667 E0.39837
G1 X132.593 Y90.965 E0.04060
G1 X133.712 Y91.599 E0.04034
G1 X149.183 Y106.039 E0.66354
G1 X149.891 Y107.077 E0.03940
G1 X150.336 Y108.625 E0.05050
G1 X150.336 Y112.486 E0.12108
G1 X150.045 Y113.655 E0.03776
G1 X149.392 Y114.735 E0.03957
G1 X148.690 Y115.431 E0.03100
G1 X147.878 Y115.947 E0.03015
G1 X146.838 Y116.283 E0.03427
G1 X146.169 Y116.307 E0.02100
G1 X145.736 Y115.937 F10800.000
G1 F1200.000
G1 X145.709 Y118.087 E0.06742
G1 X145.419 Y119.056 E0.03172
G1 X144.865 Y119.926 E0.03232
G1 X144.126 Y120.634 E0.03210
G1 X143.242 Y121.128 E0.03175
G1 X142.337 Y121.353 E0.02923
G1 X141.404 Y121.361 E0.02927
G1 X141.162 Y121.389 E0.00763
G1 X133.992 Y121.389 E0.22483
G1 X132.655 Y121.017 E0.04349
G1 X132.158 Y120.722 E0.01813
G1 X117.443 Y120.722 E0.46137
G1 X116.891 Y121.045 E0.02006
G1 X115.615 Y121.389 E0.04146
G1 X112.624 Y121.389 E0.09376
G1 X111.984 Y121.362 E0.02009
G1 X111.750 Y121.389 E0.00740
G1 X108.838 Y121.389 E0.09130
G1 X108.601 Y121.362 E0.00748
G1 X107.848 Y121.373 E0.02360
G1 X106.698 Y121.103 E0.03704
G1 X105.713 Y120.507 E0.03611
G1 X104.891 Y119.614 E0.03807
G1 X104.538 Y118.954 E0.02344
G1 X104.303 Y118.169 E0.02572
G1 X104.273 Y115.937 E0.06997
G1 X103.250 Y115.916 E0.03206
G1 X102.262 Y115.596 E0.03258
G1 X101.532 Y115.125 E0.02724
G1 X100.917 Y114.518 E0.02708
G1 X100.313 Y113.533 E0.03621
G1 X100.041 Y112.462 E0.03465
G1 X100.041 Y108.656 E0.11936
G1 X100.381 Y107.387 E0.04118
G1 X101.086 Y106.304 E0.04054
G1 X116.459 Y91.956 E0.65932
G1 X116.984 Y91.576 E0.02033
G1 X118.657 Y91.041 E0.05505
G1 X131.311 Y91.044 E0.39676
G1 X132.432 Y91.307 E0.03610
G1 X133.471 Y91.891 E0.03738
G1 X148.910 Y106.300 E0.66214
G1 X149.562 Y107.263 E0.03647
G1 X149.959 Y108.651 E0.04527
G1 X149.959 Y112.462 E0.11951
G1 X149.687 Y113.533 E0.03465
G1 X149.083 Y114.518 E0.03621
G1 X148.468 Y115.125 E0.02708
G1 X147.738 Y115.596 E0.02724
G1 X146.750 Y115.916 E0.03258
G1 X145.796 Y115.936 E0.02992
G1 X145.361 Y115.563 F10800.000
G1 F1200.000
G1 X145.340 Y118.005 E0.07658
G1 X145.065 Y118.923 E0.03004
G1 X144.587 Y119.671 E0.02784
G1 X143.920 Y120.317 E0.02911
G1 X143.081 Y120.786 E0.03013
G1 X142.271 Y120.981 E0.02612
G1 X141.380 Y120.984 E0.02794
G1 X141.150 Y121.012 E0.00726
G1 X134.018 Y121.012 E0.22362
G1 X132.785 Y120.662 E0.04021
G1 X132.265 Y120.345 E0.01908
G1 X117.338 Y120.345 E0.46804
G1 X116.765 Y120.689 E0.02094
G1 X115.589 Y121.012 E0.03825
G1 X112.629 Y121.012 E0.09282
G1 X111.969 Y120.984 E0.02070
G1 X111.738 Y121.012 E0.00729
G1 X108.850 Y121.012 E0.09055
G1 X108.622 Y120.985 E0.00721
G1 X107.866 Y120.996 E0.02371
G1 X106.865 Y120.764 E0.03220
G1 X105.971 Y120.232 E0.03262
G1 X105.185 Y119.376 E0.03642
G1 X104.893 Y118.826 E0.01954
G1 X104.680 Y118.136 E0.02265
G1 X104.645 Y115.563 E0.08068
G1 X103.336 Y115.547 E0.04103
G1 X102.443 Y115.265 E0.02937
G1 X101.782 Y114.842 E0.02459
G1 X101.198 Y114.265 E0.02575
G1 X100.671 Y113.410 E0.03149
G1 X100.418 Y112.438 E0.03151
G1 X100.418 Y108.680 E0.11782
G1 X100.714 Y107.566 E0.03614
G1 X101.361 Y106.563 E0.03742
G1 X116.707 Y92.240 E0.65819
G1 X117.180 Y91.899 E0.01828
G1 X118.686 Y91.418 E0.04956
G1 X131.288 Y91.421 E0.39514
G1 X132.318 Y91.667 E0.03320
G1 X133.230 Y92.182 E0.03284
G1 X148.637 Y106.561 E0.66080
G1 X149.208 Y107.398 E0.03176
G1 X149.582 Y108.678 E0.04181
G1 X149.582 Y112.438 E0.11788
G1 X149.329 Y113.410 E0.03151
G1 X148.802 Y114.265 E0.03149
G1 X148.218 Y114.842 E0.02575
G1 X147.557 Y115.265 E0.02459
G1 X146.664 Y115.547 E0.02937
G1 X145.421 Y115.562 E0.03897
G1 X144.985 Y115.190 F10800.000
G1 F1200.000
G1 X144.971 Y117.925 E0.08577
G1 X144.732 Y118.745 E0.02675
G1 X144.306 Y119.418 E0.02498
G1 X143.712 Y120.002 E0.02614
G1 X142.966 Y120.425 E0.02687
G1 X142.205 Y120.609 E0.02455
G1 X141.356 Y120.607 E0.02662
G1 X141.137 Y120.635 E0.00692
G1 X134.045 Y120.635 E0.22237
G1 X132.917 Y120.308 E0.03685
G1 X132.381 Y119.971 E0.01983
G1 X117.230 Y119.968 E0.47505
G1 X116.636 Y120.334 E0.02185
G1 X115.563 Y120.635 E0.03497
G1 X112.645 Y120.635 E0.09148
G1 X112.454 Y120.615 E0.00602
G1 X111.944 Y120.607 E0.01599
G1 X111.725 Y120.635 E0.00692
G1 X108.863 Y120.635 E0.08976
G1 X108.644 Y120.607 E0.00692
G1 X107.882 Y120.618 E0.02387
G1 X107.030 Y120.423 E0.02742
G1 X106.228 Y119.954 E0.02914
G1 X105.505 Y119.176 E0.03329
G1 X105.248 Y118.697 E0.01706
G1 X105.049 Y118.051 E0.02120
G1 X105.018 Y115.190 E0.08970
G1 X103.369 Y115.171 E0.05172
G1 X102.624 Y114.933 E0.02452
G1 X102.032 Y114.559 E0.02193
G1 X101.479 Y114.012 E0.02441
G1 X101.028 Y113.286 E0.02682
G1 X100.795 Y112.413 E0.02832
G1 X100.795 Y108.706 E0.11623
G1 X101.070 Y107.694 E0.03287
G1 X101.635 Y106.823 E0.03255
G1 X116.955 Y92.524 E0.65709
G1 X117.376 Y92.223 E0.01621
G1 X118.715 Y91.795 E0.04408
G1 X131.266 Y91.798 E0.39354
G1 X132.158 Y92.010 E0.02873
G1 X132.990 Y92.473 E0.02987
G1 X148.364 Y106.822 E0.65938
G1 X148.879 Y107.584 E0.02884
G1 X149.205 Y108.705 E0.03659
G1 X149.205 Y112.413 E0.11626
G1 X148.972 Y113.286 E0.02832
G1 X148.521 Y114.012 E0.02682
G1 X147.968 Y114.559 E0.02441
G1 X147.376 Y114.933 E0.02193
G1 X146.631 Y115.171 E0.02452
G1 X145.045 Y115.189 E0.04973
G1 X144.609 Y114.817 F10800.000
G1 F1200.000
G1 X144.601 Y117.849 E0.09504
G1 X144.397 Y118.569 E0.02347
G1 X144.026 Y119.165 E0.02203
G1 X143.466 Y119.715 E0.02460
G1 X142.807 Y120.083 E0.02365
G1 X142.143 Y120.237 E0.02137
G1 X141.332 Y120.230 E0.02544
G1 X141.124 Y120.258 E0.00659
G1 X134.073 Y120.258 E0.22107
G1 X133.051 Y119.955 E0.03342
G1 X132.497 Y119.597 E0.02068
G1 X117.120 Y119.591 E0.48215
G1 X116.505 Y119.979 E0.02280
G1 X115.535 Y120.258 E0.03163
G1 X112.656 Y120.258 E0.09027
G1 X112.479 Y120.238 E0.00560
G1 X111.920 Y120.230 E0.01752
G1 X111.712 Y120.258 E0.00661
G1 X108.876 Y120.258 E0.08891
G1 X108.667 Y120.230 E0.00661
G1 X107.899 Y120.241 E0.02410
G1 X107.192 Y120.082 E0.02272
G1 X106.483 Y119.675 E0.02565
G1 X105.824 Y118.973 E0.03016
G1 X105.603 Y118.567 E0.01452
G1 X105.417 Y117.966 E0.01971
G1 X105.393 Y114.817 E0.09873
G1 X103.402 Y114.794 E0.06244
G1 X102.803 Y114.601 E0.01972
G1 X102.282 Y114.276 E0.01925
G1 X101.759 Y113.759 E0.02305
G1 X101.383 Y113.159 E0.02222
G1 X101.172 Y112.387 E0.02509
G1 X101.172 Y108.732 E0.11459
G1 X101.425 Y107.824 E0.02955
G1 X101.909 Y107.083 E0.02773
G1 X117.203 Y92.808 E0.65598
G1 X117.570 Y92.547 E0.01412
G1 X118.744 Y92.172 E0.03863
G1 X131.245 Y92.175 E0.39194
G1 X131.999 Y92.353 E0.02431
G1 X132.750 Y92.765 E0.02687
G1 X148.092 Y107.084 E0.65799
G1 X148.527 Y107.721 E0.02418
G1 X148.828 Y108.733 E0.03310
G1 X148.828 Y112.387 E0.11457
G1 X148.617 Y113.159 E0.02509
G1 X148.241 Y113.759 E0.02222
G1 X147.718 Y114.276 E0.02305
G1 X147.197 Y114.601 E0.01925
G1 X146.598 Y114.794 E0.01972
G1 X144.669 Y114.817 E0.06050
G1 X144.231 Y114.445 F10800.000
G1 F1200.000
G1 X144.231 Y117.771 E0.10430
G1 X144.042 Y118.440 E0.02179
G1 X143.744 Y118.914 E0.01755
G1 X143.259 Y119.399 E0.02151
G1 X142.649 Y119.739 E0.02191
G1 X142.085 Y119.863 E0.01809
G1 X141.307 Y119.852 E0.02440
G1 X141.109 Y119.881 E0.00626
G1 X134.102 Y119.881 E0.21971
G1 X133.186 Y119.602 E0.03001
G1 X132.826 Y119.371 E0.01341
G1 X132.666 Y119.224 E0.00682
G1 X132.178 Y119.212 E0.01531
G1 X132.071 Y119.226 E0.00339
G1 X117.060 Y119.214 E0.47066
G1 X116.946 Y119.221 E0.00358
G1 X116.781 Y119.373 E0.00704
G1 X116.374 Y119.625 E0.01500
G1 X115.508 Y119.881 E0.02833
G1 X112.669 Y119.881 E0.08901
G1 X112.506 Y119.861 E0.00515
G1 X111.895 Y119.852 E0.01916
G1 X111.697 Y119.881 E0.00626
G1 X108.891 Y119.881 E0.08799
G1 X108.693 Y119.852 E0.00626
G1 X107.915 Y119.863 E0.02440
G1 X107.351 Y119.739 E0.01810
G1 X106.735 Y119.393 E0.02214
G1 X106.141 Y118.768 E0.02703
G1 X105.957 Y118.436 E0.01191
G1 X105.786 Y117.882 E0.01820
G1 X105.769 Y114.445 E0.10777
G1 X103.437 Y114.417 E0.07311
G1 X102.946 Y114.251 E0.01626
G1 X102.532 Y113.993 E0.01528
G1 X102.039 Y113.506 E0.02173
G1 X101.738 Y113.029 E0.01769
G1 X101.549 Y112.360 E0.02179
G1 X101.549 Y108.759 E0.11290
G1 X101.779 Y107.957 E0.02618
G1 X102.182 Y107.344 E0.02299
G1 X117.451 Y93.093 E0.65488
G1 X117.764 Y92.872 E0.01202
G1 X118.773 Y92.549 E0.03322
G1 X131.223 Y92.552 E0.39036
G1 X131.843 Y92.697 E0.01996
G1 X132.511 Y93.058 E0.02381
G1 X147.819 Y107.345 E0.65652
G1 X148.198 Y107.907 E0.02127
G1 X148.451 Y108.760 E0.02789
G1 X148.451 Y112.360 E0.11287
G1 X148.262 Y113.029 E0.02179
G1 X147.961 Y113.506 E0.01769
G1 X147.468 Y113.993 E0.02173
G1 X147.054 Y114.251 E0.01528
G1 X146.563 Y114.417 E0.01626
G1 X144.291 Y114.444 E0.07123
G1 X143.854 Y114.072 F10800.000
G1 F1200.000
G1 X143.854 Y117.743 E0.11511
G1 X143.688 Y118.307 E0.01842
G1 X143.463 Y118.661 E0.01318
G1 X143.012 Y119.112 E0.02000
G1 X142.493 Y119.395 E0.01851
G1 X142.070 Y119.486 E0.01359
G1 X141.279 Y119.475 E0.02479
G1 X141.093 Y119.504 E0.00589
G1 X139.815 Y119.504 E0.04007
G1 X139.706 Y119.488 E0.00346
G1 X139.597 Y119.504 E0.00346
G1 X138.307 Y119.504 E0.04044
G1 X138.198 Y119.488 E0.00346
G1 X138.089 Y119.504 E0.00346
G1 X136.799 Y119.504 E0.04044
G1 X136.689 Y119.488 E0.00346
G1 X136.580 Y119.504 E0.00346
G1 X135.290 Y119.504 E0.04044
G1 X135.181 Y119.488 E0.00346
G1 X135.072 Y119.504 E0.00346
G1 X134.132 Y119.504 E0.02948
G1 X133.327 Y119.251 E0.02645
G1 X133.051 Y119.068 E0.01037
G1 X132.824 Y118.850 E0.00988
G1 X132.153 Y118.835 E0.02102
G1 X132.055 Y118.849 E0.00310
G1 X130.765 Y118.849 E0.04044
G1 X130.656 Y118.833 E0.00346
G1 X130.547 Y118.849 E0.00346
G1 X129.257 Y118.849 E0.04044
G1 X129.148 Y118.833 E0.00346
G1 X129.039 Y118.849 E0.00346
G1 X127.749 Y118.849 E0.04044
G1 X127.640 Y118.833 E0.00346
G1 X127.530 Y118.849 E0.00346
G1 X126.240 Y118.849 E0.04044
G1 X126.131 Y118.833 E0.00346
G1 X126.022 Y118.849 E0.00346
G1 X124.732 Y118.849 E0.04044
G1 X124.623 Y118.833 E0.00346
G1 X124.514 Y118.849 E0.00346
G1 X123.224 Y118.849 E0.04044
G1 X123.115 Y118.833 E0.00346
G1 X123.005 Y118.849 E0.00346
G1 X121.716 Y118.849 E0.04044
G1 X121.606 Y118.833 E0.00346
G1 X121.497 Y118.849 E0.00346
G1 X120.207 Y118.849 E0.04044
G1 X120.098 Y118.833 E0.00346
G1 X119.989 Y118.849 E0.00346
G1 X118.699 Y118.849 E0.04044
G1 X118.590 Y118.833 E0.00346
G1 X118.480 Y118.849 E0.00346
G1 X117.191 Y118.849 E0.04044
G1 X117.089 Y118.834 E0.00322
G1 X116.782 Y118.854 E0.00964
G1 X116.560 Y119.067 E0.00967
G1 X116.237 Y119.273 E0.01198
G1 X115.479 Y119.504 E0.02487
G1 X114.174 Y119.504 E0.04091
G1 X114.065 Y119.488 E0.00346
G1 X113.955 Y119.504 E0.00346
G1 X112.682 Y119.504 E0.03992
G1 X112.535 Y119.484 E0.00467
G1 X111.867 Y119.475 E0.02094
G1 X111.681 Y119.504 E0.00589
G1 X110.403 Y119.504 E0.04007
G1 X110.294 Y119.488 E0.00346
G1 X110.185 Y119.504 E0.00346
G1 X108.907 Y119.504 E0.04007
G1 X108.721 Y119.475 E0.00589
G1 X107.930 Y119.486 E0.02479
G1 X107.507 Y119.395 E0.01359
G1 X106.986 Y119.110 E0.01861
G1 X106.456 Y118.560 E0.02393
G1 X106.311 Y118.304 E0.00923
G1 X106.154 Y117.798 E0.01663
G1 X106.145 Y114.072 E0.11681
G1 X103.475 Y114.041 E0.08374
G1 X103.093 Y113.904 E0.01270
G1 X102.783 Y113.710 E0.01149
G1 X102.319 Y113.252 E0.02042
G1 X102.092 Y112.896 E0.01326
G1 X101.926 Y112.332 E0.01842
G1 X101.926 Y108.787 E0.11114
G1 X102.132 Y108.092 E0.02274
G1 X102.455 Y107.605 E0.01832
G1 X117.698 Y93.378 E0.65377
G1 X117.957 Y93.197 E0.00989
G1 X118.803 Y92.926 E0.02784
G1 X131.202 Y92.929 E0.38877
G1 X131.689 Y93.042 E0.01568
G1 X132.273 Y93.351 E0.02071
G1 X147.545 Y107.605 E0.65500
G1 X147.868 Y108.092 E0.01832
G1 X148.074 Y108.787 E0.02275
G1 X148.074 Y112.332 E0.11114
G1 X147.908 Y112.896 E0.01842
G1 X147.681 Y113.252 E0.01326
G1 X147.217 Y113.710 E0.02042
G1 X146.907 Y113.904 E0.01149
G1 X146.525 Y114.041 E0.01270
G1 X143.914 Y114.071 E0.08188
G1 X143.477 Y113.697 F10800.000
G1 F1200.000
G1 X143.477 Y117.714 E0.12594
