; generated by PrusaSlicer 2.2.0+win64 on 2020-06-27 at 18:12:59 UTC

; 

; external perimeters extrusion width = 0.45mm
; perimeters extrusion width = 0.45mm
; infill extrusion width = 0.45mm
; solid infill extrusion width = 0.45mm
; top infill extrusion width = 0.40mm
; first layer extrusion width = 0.42mm

M73 P0 R42
M73 Q0 S42
M201 X1000 Y1000 Z200 E5000 ; sets maximum accelerations, mm/sec^2
M203 X200 Y200 Z12 E120 ; sets maximum feedrates, mm/sec
M204 P1250 R1250 T1250 ; sets acceleration (P, T) and retract acceleration (R), mm/sec^2
M205 X8.00 Y8.00 Z0.40 E4.50 ; sets the jerk limits, mm/sec
M205 S0 T0 ; sets the minimum extruding and travel feed rate, mm/sec
M107
M862.3 P "MK3S" ; printer model check
M862.1 P0.4 ; nozzle diameter check
M115 U3.9.0 ; tell printer latest fw version
G90 ; use absolute coordinates
M83 ; extruder relative mode
M104 S240 ; set extruder temp
M140 S85 ; set bed temp
M190 S85 ; wait for bed temp
M109 S240 ; wait for extruder temp
G28 W ; home all without mesh bed level
G80 ; mesh bed leveling
G1 Y-3.0 F1000.0 ; go outside print area
G92 E0.0
G1 X60.0 E9.0 F1000.0 ; intro line
M73 Q0 S42
M73 P0 R42
G1 X100.0 E12.5 F1000.0 ; intro line
G92 E0.0
M221 S95
G21 ; set units to millimeters
G90 ; use absolute coordinates
M83 ; use relative distances for extrusion
M900 K0.12 ; Filament gcode LA 1.5
M900 K45 ; Filament gcode LA 1.0
;BEFORE_LAYER_CHANGE
G92 E0.0
;0.2


G1 E-1.40000 F2100.00000
G1 Z0.200 F10800.000
;AFTER_LAYER_CHANGE
;0.2
G1 Z0.400
G1 X90.639 Y85.021
G1 Z0.200
G1 E1.40000 F2100.00000
M204 S1000
G1 F1200.000
G1 X91.155 Y84.540 E0.02213
G1 X91.790 Y84.231 E0.02213
G1 X92.495 Y84.123 E0.02237
G1 X157.504 Y84.123 E2.03830
G1 X158.360 Y84.284 E0.02731
G1 X159.098 Y84.740 E0.02720
G1 X159.625 Y85.434 E0.02731
G1 X159.866 Y86.267 E0.02720
G1 X159.877 Y104.530 E0.57264
G1 X159.809 Y105.066 E0.01692
G1 X159.622 Y105.572 E0.01692
G1 X159.082 Y106.275 E0.02778
G1 X138.167 Y124.708 E0.87411
G1 X137.424 Y125.232 E0.02852
G1 X136.565 Y125.618 E0.02950
G1 X135.830 Y125.806 E0.02380
G1 X135.028 Y125.877 E0.02523
G1 X114.989 Y125.877 E0.62833
G1 X114.110 Y125.795 E0.02767
G1 X113.185 Y125.524 E0.03022
G1 X112.524 Y125.201 E0.02308
G1 X111.837 Y124.712 E0.02642
G1 X90.925 Y106.281 E0.87402
G1 X90.506 Y105.795 E0.02012
G1 X90.232 Y105.211 E0.02024
G1 X90.123 Y104.513 E0.02213
G1 X90.129 Y86.325 E0.57028
G1 X90.287 Y85.633 E0.02225
G1 X90.609 Y85.073 E0.02025
G1 F8640.000
G1 X91.155 Y84.540 E-0.17627
G1 X91.790 Y84.231 E-0.16298
G1 X92.495 Y84.123 E-0.16472
G1 X96.072 Y84.123 E-0.82602
G1 E-0.07000 F2100.00000
G1 Z0.400 F10800.000
G1 X121.266 Y107.421
G1 Z0.200
G1 E1.40000 F2100.00000
G1 F1200.000
G1 X121.780 Y106.887 E0.02323
G1 X122.339 Y106.461 E0.02203
G1 X123.018 Y106.085 E0.02435
G1 X123.718 Y105.834 E0.02330
G1 X124.445 Y105.693 E0.02323
G1 X125.147 Y105.666 E0.02203
G1 X125.919 Y105.749 E0.02435
G1 X126.636 Y105.945 E0.02330
G1 X127.312 Y106.249 E0.02323
G1 X127.934 Y106.651 E0.02323
G1 X128.487 Y107.144 E0.02323
G1 X128.958 Y107.716 E0.02323
G1 X129.337 Y108.353 E0.02323
G1 X129.614 Y109.040 E0.02323
G1 X129.783 Y109.761 E0.02323
G1 X129.839 Y110.500 E0.02323
G1 X129.783 Y111.239 E0.02323
G1 X129.614 Y111.960 E0.02323
G1 X129.337 Y112.647 E0.02323
G1 X128.958 Y113.284 E0.02323
G1 X128.487 Y113.856 E0.02323
G1 X127.934 Y114.349 E0.02323
G1 X127.312 Y114.751 E0.02323
G1 X126.636 Y115.055 E0.02323
G1 X125.921 Y115.251 E0.02323
G1 X125.185 Y115.336 E0.02323
G1 X124.445 Y115.307 E0.02323
G1 X123.718 Y115.166 E0.02323
G1 X123.020 Y114.916 E0.02323
G1 X122.369 Y114.562 E0.02323
G1 X121.780 Y114.113 E0.02323
G1 X121.266 Y113.579 E0.02323
G1 X120.862 Y113.004 E0.02203
G1 X120.512 Y112.311 E0.02435
G1 X120.288 Y111.603 E0.02330
G1 X120.175 Y110.870 E0.02323
G1 X120.175 Y110.130 E0.02323
G1 X120.288 Y109.397 E0.02323
G1 X120.511 Y108.691 E0.02323
G1 X120.840 Y108.027 E0.02323
G1 X121.232 Y107.470 E0.02135
G1 X121.540 Y107.687 F10800.000
G1 F1200.000
G1 X122.032 Y107.169 E0.02238
G1 X122.546 Y106.778 E0.02026
G1 X123.174 Y106.429 E0.02253
G1 X123.818 Y106.198 E0.02144
G1 X124.488 Y106.068 E0.02142
G1 X125.134 Y106.043 E0.02026
G1 X125.849 Y106.120 E0.02253
G1 X126.508 Y106.301 E0.02144
G1 X127.131 Y106.581 E0.02142
G1 X127.704 Y106.952 E0.02142
G1 X128.214 Y107.406 E0.02142
G1 X128.649 Y107.933 E0.02142
G1 X128.998 Y108.520 E0.02142
G1 X129.253 Y109.154 E0.02142
G1 X129.409 Y109.819 E0.02142
G1 X129.461 Y110.500 E0.02142
G1 X129.409 Y111.181 E0.02142
G1 X129.253 Y111.846 E0.02142
G1 X128.998 Y112.480 E0.02142
G1 X128.649 Y113.067 E0.02142
G1 X128.214 Y113.594 E0.02142
G1 X127.704 Y114.048 E0.02142
G1 X127.131 Y114.419 E0.02142
G1 X126.508 Y114.699 E0.02142
G1 X125.849 Y114.880 E0.02142
G1 X125.171 Y114.958 E0.02142
G1 X124.488 Y114.932 E0.02142
G1 X123.818 Y114.802 E0.02142
G1 X123.175 Y114.571 E0.02142
G1 X122.575 Y114.245 E0.02142
G1 X122.032 Y113.831 E0.02142
G1 X121.558 Y113.338 E0.02142
G1 X121.186 Y112.810 E0.02026
G1 X120.862 Y112.168 E0.02253
G1 X120.656 Y111.517 E0.02144
G1 X120.552 Y110.842 E0.02142
G1 X120.552 Y110.158 E0.02142
G1 X120.656 Y109.483 E0.02142
G1 X120.862 Y108.832 E0.02142
G1 X121.165 Y108.220 E0.02142
G1 X121.506 Y107.736 E0.01856
G1 X121.398 Y107.313 F10800.000
G1 F8640.000
G1 X122.032 Y107.169 E-0.17851
G1 X122.546 Y106.778 E-0.14920
G1 X123.174 Y106.429 E-0.16593
G1 X123.818 Y106.198 E-0.15790
G1 X124.488 Y106.068 E-0.15771
G1 X125.134 Y106.043 E-0.14919
G1 X125.849 Y106.120 E-0.16593
G1 X126.508 Y106.301 E-0.15790
G1 X126.697 Y106.386 E-0.04772
G1 E-0.07000 F2100.00000
G1 Z0.400 F10800.000
G1 X105.310 Y97.306
G1 Z0.200
G1 E1.40000 F2100.00000
G1 F1200.000
G1 X104.918 Y97.805 E0.01991
G1 X104.438 Y98.221 E0.01991
G1 X103.888 Y98.539 E0.01991
G1 X103.288 Y98.746 E0.01991
G1 X102.659 Y98.837 E0.01991
G1 X102.025 Y98.807 E0.01991
G1 X101.407 Y98.657 E0.01991
G1 X100.830 Y98.393 E0.01991
G1 X100.312 Y98.025 E0.01991
G1 X99.874 Y97.565 E0.01991
G1 X99.531 Y97.031 E0.01991
G1 X99.295 Y96.441 E0.01991
G1 X99.174 Y95.818 E0.01991
G1 X99.174 Y95.182 E0.01991
G1 X99.295 Y94.559 E0.01991
G1 X99.531 Y93.969 E0.01991
G1 X99.874 Y93.435 E0.01991
G1 X100.312 Y92.975 E0.01991
G1 X100.830 Y92.607 E0.01991
G1 X101.407 Y92.343 E0.01991
G1 X102.025 Y92.193 E0.01991
G1 X102.625 Y92.165 E0.01884
G1 X103.285 Y92.252 E0.02088
G1 X103.888 Y92.461 E0.02001
G1 X104.438 Y92.779 E0.01991
G1 X104.918 Y93.195 E0.01991
G1 X105.310 Y93.694 E0.01991
G1 X105.601 Y94.258 E0.01991
G1 X105.780 Y94.868 E0.01991
G1 X105.841 Y95.500 E0.01991
G1 X105.780 Y96.132 E0.01991
G1 X105.601 Y96.742 E0.01991
G1 X105.338 Y97.253 E0.01803
G1 X105.003 Y97.080 F10800.000
G1 F1200.000
G1 X104.644 Y97.544 E0.01839
G1 X104.218 Y97.913 E0.01766
G1 X103.730 Y98.194 E0.01766
G1 X103.198 Y98.378 E0.01766
G1 X102.641 Y98.459 E0.01766
G1 X102.078 Y98.432 E0.01766
G1 X101.531 Y98.299 E0.01766
G1 X101.019 Y98.065 E0.01766
G1 X100.560 Y97.738 E0.01766
G1 X100.172 Y97.331 E0.01766
G1 X99.867 Y96.857 E0.01766
G1 X99.658 Y96.334 E0.01766
G1 X99.552 Y95.782 E0.01766
G1 X99.552 Y95.218 E0.01766
G1 X99.658 Y94.666 E0.01766
G1 X99.867 Y94.143 E0.01766
G1 X100.172 Y93.669 E0.01766
G1 X100.560 Y93.262 E0.01766
G1 X101.019 Y92.935 E0.01766
G1 X101.531 Y92.701 E0.01766
G1 X102.078 Y92.568 E0.01766
G1 X102.609 Y92.543 E0.01664
G1 X103.197 Y92.621 E0.01862
G1 X103.730 Y92.806 E0.01769
G1 X104.218 Y93.087 E0.01766
G1 X104.644 Y93.456 E0.01766
G1 X104.992 Y93.899 E0.01766
G1 X105.250 Y94.399 E0.01766
G1 X105.408 Y94.939 E0.01766
G1 X105.462 Y95.500 E0.01766
G1 X105.408 Y96.061 E0.01766
G1 X105.250 Y96.601 E0.01766
G1 X105.030 Y97.027 E0.01502
G1 X105.188 Y97.434 F10800.000
G1 F8640.000
G1 X104.644 Y97.544 E-0.14911
G1 X104.218 Y97.913 E-0.13002
G1 X103.730 Y98.194 E-0.13002
G1 X103.198 Y98.378 E-0.13002
G1 X102.641 Y98.459 E-0.13002
G1 X102.078 Y98.432 E-0.13002
G1 X101.531 Y98.299 E-0.13002
G1 X101.019 Y98.065 E-0.13002
G1 X100.560 Y97.738 E-0.13002
G1 X100.172 Y97.331 E-0.13002
G1 X100.147 Y97.292 E-0.01073
G1 E-0.07000 F2100.00000
G1 Z0.400 F10800.000
G1 X144.174 Y95.818
G1 Z0.200
G1 E1.40000 F2100.00000
G1 F1200.000
G1 X144.174 Y95.182 E0.01991
G1 X144.295 Y94.559 E0.01991
G1 X144.531 Y93.969 E0.01991
G1 X144.874 Y93.435 E0.01991
G1 X145.312 Y92.975 E0.01991
G1 X145.830 Y92.607 E0.01991
G1 X146.407 Y92.343 E0.01991
G1 X147.025 Y92.193 E0.01991
G1 X147.625 Y92.165 E0.01884
G1 X148.285 Y92.252 E0.02088
G1 X148.888 Y92.461 E0.02001
G1 X149.438 Y92.779 E0.01991
G1 X149.918 Y93.195 E0.01991
G1 X150.310 Y93.694 E0.01991
G1 X150.601 Y94.258 E0.01991
G1 X150.780 Y94.868 E0.01991
G1 X150.841 Y95.500 E0.01991
G1 X150.780 Y96.132 E0.01991
G1 X150.601 Y96.742 E0.01991
G1 X150.310 Y97.306 E0.01991
G1 X149.918 Y97.805 E0.01991
G1 X149.438 Y98.221 E0.01991
G1 X148.888 Y98.539 E0.01991
G1 X148.288 Y98.746 E0.01991
G1 X147.659 Y98.837 E0.01991
G1 X147.025 Y98.807 E0.01991
G1 X146.407 Y98.657 E0.01991
G1 X145.830 Y98.393 E0.01991
G1 X145.312 Y98.025 E0.01991
G1 X144.874 Y97.565 E0.01991
G1 X144.531 Y97.031 E0.01991
G1 X144.295 Y96.441 E0.01991
G1 X144.186 Y95.876 E0.01803
G1 X144.556 Y95.805 F10800.000
G1 F1200.000
G1 X144.552 Y95.218 E0.01839
G1 X144.658 Y94.666 E0.01766
G1 X144.867 Y94.143 E0.01766
G1 X145.172 Y93.669 E0.01766
G1 X145.560 Y93.262 E0.01766
G1 X146.019 Y92.935 E0.01766
G1 X146.531 Y92.701 E0.01766
G1 X147.078 Y92.568 E0.01766
G1 X147.609 Y92.543 E0.01664
G1 X148.197 Y92.621 E0.01862
G1 X148.730 Y92.806 E0.01769
G1 X149.218 Y93.087 E0.01766
G1 X149.644 Y93.456 E0.01766
G1 X149.992 Y93.899 E0.01766
G1 X150.250 Y94.399 E0.01766
G1 X150.408 Y94.939 E0.01766
G1 X150.462 Y95.500 E0.01766
G1 X150.408 Y96.061 E0.01766
G1 X150.250 Y96.601 E0.01766
G1 X149.992 Y97.101 E0.01766
G1 X149.644 Y97.544 E0.01766
G1 X149.218 Y97.913 E0.01766
G1 X148.730 Y98.194 E0.01766
G1 X148.198 Y98.378 E0.01766
G1 X147.641 Y98.459 E0.01766
G1 X147.078 Y98.432 E0.01766
G1 X146.531 Y98.299 E0.01766
G1 X146.019 Y98.065 E0.01766
G1 X145.560 Y97.738 E0.01766
G1 X145.172 Y97.331 E0.01766
G1 X144.867 Y96.857 E0.01766
G1 X144.658 Y96.334 E0.01766
G1 X144.567 Y95.864 E0.01502
G1 X144.191 Y95.641 F10800.000
G1 F8640.000
G1 X144.552 Y95.218 E-0.14911
G1 X144.658 Y94.666 E-0.13002
G1 X144.867 Y94.143 E-0.13002
G1 X145.172 Y93.669 E-0.13002
G1 X145.560 Y93.262 E-0.13002
G1 X146.019 Y92.935 E-0.13002
G1 X146.531 Y92.701 E-0.13002
G1 X147.078 Y92.568 E-0.13002
G1 X147.609 Y92.543 E-0.12255
G1 X148.197 Y92.621 E-0.13710
G1 X148.243 Y92.637 E-0.01111
G1 E-0.07000 F2100.00000
G1 Z0.400 F10800.000
G1 X136.713 Y103.713
G1 Z0.200
G1 E1.40000 F2100.00000
G1 F1200.000
G1 X136.713 Y120.966 E0.54095
G1 X136.684 Y121.297 E0.01043
G1 X136.607 Y121.585 E0.00935
G1 X136.481 Y121.855 E0.00935
G1 X136.310 Y122.099 E0.00935
G1 X136.099 Y122.310 E0.00935
G1 X135.855 Y122.481 E0.00935
G1 X135.585 Y122.607 E0.00935
G1 X135.297 Y122.684 E0.00935
G1 X134.966 Y122.713 E0.01043
G1 X115.034 Y122.713 E0.62493
G1 X114.703 Y122.684 E0.01043
G1 X114.415 Y122.607 E0.00935
G1 X114.145 Y122.481 E0.00935
G1 X113.901 Y122.310 E0.00935
G1 X113.690 Y122.099 E0.00935
G1 X113.519 Y121.855 E0.00935
G1 X113.393 Y121.585 E0.00935
G1 X113.316 Y121.297 E0.00935
G1 X113.287 Y120.966 E0.01043
G1 X113.287 Y103.713 E0.54095
G1 X93.287 Y103.713 E0.62709
G1 X93.287 Y87.287 E0.51502
G1 X156.713 Y87.287 E1.98867
G1 X156.713 Y103.713 E0.51502
G1 X136.773 Y103.713 E0.62520
G1 X137.090 Y104.090 F10800.000
G1 F1200.000
G1 X137.090 Y120.982 E0.52964
G1 X137.057 Y121.363 E0.01198
G1 X136.962 Y121.714 E0.01141
G1 X136.809 Y122.044 E0.01141
G1 X136.600 Y122.342 E0.01141
G1 X136.342 Y122.600 E0.01141
G1 X136.044 Y122.809 E0.01141
G1 X135.714 Y122.962 E0.01141
G1 X135.363 Y123.057 E0.01141
G1 X134.982 Y123.090 E0.01198
G1 X115.018 Y123.090 E0.62596
G1 X114.637 Y123.057 E0.01198
G1 X114.286 Y122.962 E0.01141
G1 X113.956 Y122.809 E0.01141
G1 X113.658 Y122.600 E0.01141
G1 X113.400 Y122.342 E0.01141
G1 X113.191 Y122.044 E0.01141
G1 X113.038 Y121.714 E0.01141
G1 X112.943 Y121.363 E0.01141
G1 X112.910 Y120.982 E0.01198
G1 X112.910 Y104.090 E0.52964
G1 X92.910 Y104.090 E0.62709
G1 X92.910 Y86.910 E0.53867
G1 X157.090 Y86.910 E2.01232
G1 X157.090 Y104.090 E0.53867
G1 X137.150 Y104.090 E0.62520
G1 X136.701 Y104.184 F10800.000
G1 F8640.000
G1 X137.130 Y109.850 E-1.33000
G1 E-0.07000 F2100.00000
G1 Z0.400 F10800.000
G1 X136.600 Y115.101
G1 Z0.200
G1 E1.40000 F2100.00000
G1 F1200.000
G1 X129.393 Y107.894 E0.31962
G1 X129.591 Y108.227 E0.01214
G1 X129.860 Y108.894 E0.02257
G1 X136.430 Y115.464 E0.29139
G1 X136.430 Y115.998 E0.01673
G1 X130.036 Y109.604 E0.28357
G1 X130.063 Y109.718 E0.00368
G1 X130.100 Y110.201 E0.01519
G1 X136.430 Y116.531 E0.28075
G1 X136.430 Y117.064 E0.01673
G1 X130.105 Y110.739 E0.28054
G1 X130.067 Y111.234 E0.01558
G1 X136.430 Y117.598 E0.28223
G1 X136.430 Y118.131 E0.01673
G1 X129.972 Y111.673 E0.28644
G1 X129.863 Y112.098 E0.01376
G1 X136.430 Y118.665 E0.29125
G1 X136.430 Y119.198 E0.01673
G1 X129.710 Y112.478 E0.29804
G1 X129.547 Y112.848 E0.01268
G1 X136.430 Y119.731 E0.30529
G1 X136.430 Y120.265 E0.01673
G1 X129.348 Y113.182 E0.31411
G1 X129.140 Y113.508 E0.01211
G1 X136.430 Y120.798 E0.32332
G1 X136.392 Y121.294 E0.01558
G1 X128.899 Y113.800 E0.33232
G1 X128.652 Y114.087 E0.01186
G1 X136.249 Y121.684 E0.33691
G1 X136.235 Y121.713 E0.00102
G1 X136.092 Y121.917 E0.00780
G1 X136.020 Y121.989 E0.00319
G1 X128.370 Y114.339 E0.33929
G1 X128.086 Y114.587 E0.01185
G1 X135.725 Y122.227 E0.33881
G1 X135.488 Y122.340 E0.00825
G1 X135.344 Y122.379 E0.00468
G1 X127.762 Y114.797 E0.33626
G1 X127.437 Y115.005 E0.01211
G1 X134.862 Y122.430 E0.32930
G1 X134.328 Y122.430 E0.01673
G1 X127.069 Y115.170 E0.32198
G1 X126.696 Y115.331 E0.01273
G1 X133.795 Y122.430 E0.31484
G1 X133.262 Y122.430 E0.01673
G1 X126.278 Y115.446 E0.30974
G1 X125.975 Y115.529 E0.00983
G1 X125.843 Y115.545 E0.00419
G1 X132.898 Y122.600 E0.31291
G1 X132.364 Y122.600 F10800.000
G1 F1200.000
G1 X125.365 Y115.600 E0.31046
G1 X125.196 Y115.619 E0.00531
G1 X124.837 Y115.605 E0.01128
G1 X131.661 Y122.430 E0.30268
G1 X131.128 Y122.430 E0.01673
G1 X124.257 Y115.559 E0.30474
G1 X123.583 Y115.419 E0.02159
G1 X130.595 Y122.430 E0.31097
G1 X130.061 Y122.430 E0.01673
G1 X122.689 Y115.057 E0.32699
G1 X122.215 Y114.800 E0.01690
G1 X121.592 Y114.325 E0.02460
G1 X121.048 Y113.759 E0.02460
G1 X120.619 Y113.150 E0.02336
G1 X120.453 Y112.822 E0.01152
G1 X113.570 Y105.939 E0.30530
G1 X113.570 Y105.405 E0.01673
G1 X120.095 Y111.930 E0.28940
G1 X120.012 Y111.667 E0.00866
G1 X119.947 Y111.249 E0.01327
G1 X113.570 Y104.872 E0.28284
G1 X113.570 Y104.339 E0.01673
G1 X119.892 Y110.661 E0.28039
M73 Q2 S41
G1 X119.892 Y110.127 E0.01673
G1 X113.400 Y103.635 E0.28792
M73 P2 R41
G1 F8640.000
G1 X117.473 Y107.708 E-1.33000
G1 E-0.07000 F2100.00000
G1 Z0.400 F10800.000
G1 X104.830 Y103.600
G1 Z0.200
G1 E1.40000 F2100.00000
G1 F1200.000
G1 X93.570 Y92.339 E0.49941
G1 X93.570 Y92.873 E0.01673
G1 X104.127 Y103.430 E0.46823
G1 X103.594 Y103.430 E0.01673
G1 X93.570 Y93.406 E0.44458
G1 X93.570 Y93.940 E0.01673
G1 X103.060 Y103.430 E0.42092
G1 X102.527 Y103.430 E0.01673
G1 X93.570 Y94.473 E0.39726
G1 X93.570 Y95.006 E0.01673
G1 X101.994 Y103.430 E0.37361
G1 X101.460 Y103.430 E0.01673
G1 X93.570 Y95.540 E0.34995
G1 X93.570 Y96.073 E0.01673
G1 X100.927 Y103.430 E0.32629
G1 X100.394 Y103.430 E0.01673
G1 X93.570 Y96.606 E0.30264
G1 X93.570 Y97.140 E0.01673
G1 X99.860 Y103.430 E0.27898
G1 X99.327 Y103.430 E0.01673
G1 X93.570 Y97.673 E0.25533
G1 X93.570 Y98.207 E0.01673
G1 X98.793 Y103.430 E0.23167
G1 X98.260 Y103.430 E0.01673
G1 X93.570 Y98.740 E0.20801
G1 X93.570 Y99.273 E0.01673
G1 X97.727 Y103.430 E0.18436
G1 X97.193 Y103.430 E0.01673
G1 X93.570 Y99.807 E0.16070
G1 X93.570 Y100.340 E0.01673
G1 X96.660 Y103.430 E0.13704
G1 X96.126 Y103.430 E0.01673
G1 X93.570 Y100.874 E0.11339
G1 X93.570 Y101.407 E0.01673
G1 X95.593 Y103.430 E0.08973
G1 X95.060 Y103.430 E0.01673
G1 X93.570 Y101.940 E0.06607
G1 X93.570 Y102.474 E0.01673
G1 X94.526 Y103.430 E0.04242
G1 X93.993 Y103.430 E0.01673
G1 X93.400 Y102.837 E0.02629
G1 F8640.000
G1 X93.993 Y103.430 E-0.19355
G1 X94.526 Y103.430 E-0.12316
G1 X93.570 Y102.474 E-0.31231
