; generated by PrusaSlicer 2.2.0+win64 on 2020-06-26 at 19:15:08 UTC

; 

; external perimeters extrusion width = 0.45mm
; perimeters extrusion width = 0.45mm
; infill extrusion width = 0.45mm
; solid infill extrusion width = 0.45mm
; top infill extrusion width = 0.40mm
; first layer extrusion width = 0.42mm

M73 P0 R97
M73 Q0 S98
M201 X1000 Y1000 Z200 E5000 ; sets maximum accelerations, mm/sec^2
M203 X200 Y200 Z12 E120 ; sets maximum feedrates, mm/sec
M204 P1250 R1250 T1250 ; sets acceleration (P, T) and retract acceleration (R), mm/sec^2
M205 X8.00 Y8.00 Z0.40 E4.50 ; sets the jerk limits, mm/sec
M205 S0 T0 ; sets the minimum extruding and travel feed rate, mm/sec
M107
M862.3 P "MK3S" ; printer model check
M862.1 P0.4 ; nozzle diameter check
M115 U3.9.0 ; tell printer latest fw version
G90 ; use absolute coordinates
M83 ; extruder relative mode
M104 S240 ; set extruder temp
M140 S85 ; set bed temp
M190 S85 ; wait for bed temp
M109 S240 ; wait for extruder temp
G28 W ; home all without mesh bed level
G80 ; mesh bed leveling
G1 Y-3.0 F1000.0 ; go outside print area
G92 E0.0
G1 X60.0 E9.0 F1000.0 ; intro line
M73 Q0 S98
M73 P0 R97
G1 X100.0 E12.5 F1000.0 ; intro line
G92 E0.0
M221 S95
G21 ; set units to millimeters
G90 ; use absolute coordinates
M83 ; use relative distances for extrusion
M900 K0.12 ; Filament gcode LA 1.5
M900 K45 ; Filament gcode LA 1.0
;BEFORE_LAYER_CHANGE
G92 E0.0
;0.2


G1 E-1.40000 F2100.00000
G1 Z0.200 F10800.000
;AFTER_LAYER_CHANGE
;0.2
G1 Z0.400
G1 X106.101 Y84.523
G1 Z0.200
G1 E1.40000 F2100.00000
M204 S1000
G1 F1200.000
G1 X107.440 Y83.222 E0.05853
G1 X108.267 Y82.807 E0.02903
G1 X109.491 Y82.509 E0.03948
G1 X140.486 Y82.512 E0.97185
G1 X141.435 Y82.696 E0.03029
G1 X142.343 Y83.087 E0.03101
G1 X143.562 Y84.111 E0.04990
G1 X144.353 Y85.328 E0.04551
G1 X144.713 Y86.711 E0.04481
G1 X144.713 Y123.287 E1.14683
G1 X144.410 Y124.530 E0.04012
G1 X143.899 Y125.477 E0.03373
G1 X142.560 Y126.778 E0.05852
G1 X141.733 Y127.193 E0.02903
G1 X140.510 Y127.491 E0.03948
G1 X109.490 Y127.491 E0.97259
G1 X108.247 Y127.187 E0.04012
G1 X107.300 Y126.677 E0.03373
G1 X106.000 Y125.338 E0.05852
G1 X105.585 Y124.510 E0.02903
G1 X105.287 Y123.287 E0.03948
G1 X105.287 Y86.713 E1.14677
G1 X105.590 Y85.470 E0.04012
G1 X106.072 Y84.575 E0.03185
G1 X106.403 Y84.756 F10800.000
G1 F1200.000
G1 X107.636 Y83.545 E0.05419
G1 X108.380 Y83.168 E0.02615
G1 X109.514 Y82.886 E0.03665
G1 X140.468 Y82.890 E0.97053
G1 X141.341 Y83.062 E0.02791
G1 X142.166 Y83.421 E0.02823
G1 X143.297 Y84.380 E0.04647
G1 X143.996 Y85.454 E0.04018
G1 X144.336 Y86.736 E0.04157
G1 X144.336 Y123.264 E1.14532
G1 X144.050 Y124.415 E0.03719
G1 X143.582 Y125.271 E0.03060
G1 X142.364 Y126.455 E0.05325
G1 X141.620 Y126.832 E0.02615
G1 X140.486 Y127.114 E0.03664
G1 X109.514 Y127.114 E0.97112
G1 X108.363 Y126.828 E0.03719
G1 X107.506 Y126.360 E0.03060
G1 X106.323 Y125.142 E0.05325
G1 X105.945 Y124.398 E0.02615
G1 X105.664 Y123.264 E0.03664
G1 X105.664 Y86.736 E1.14531
G1 X105.950 Y85.585 E0.03719
G1 X106.374 Y84.809 E0.02774
G1 X106.703 Y84.991 F10800.000
G1 F1200.000
G1 X106.734 Y84.936 E0.00197
G1 X107.834 Y83.867 E0.04808
G1 X108.494 Y83.528 E0.02329
G1 X109.538 Y83.263 E0.03376
G1 X140.448 Y83.267 E0.96918
G1 X141.246 Y83.428 E0.02550
G1 X141.988 Y83.755 E0.02545
G1 X143.030 Y84.648 E0.04302
G1 X143.663 Y85.632 E0.03669
G1 X143.959 Y86.760 E0.03655
G1 X143.959 Y123.240 E1.14381
G1 X143.691 Y124.298 E0.03421
G1 X143.266 Y125.064 E0.02747
G1 X142.166 Y126.133 E0.04808
G1 X141.506 Y126.472 E0.02328
G1 X140.462 Y126.737 E0.03376
G1 X109.538 Y126.737 E0.96962
G1 X108.480 Y126.468 E0.03421
G1 X107.714 Y126.044 E0.02747
G1 X106.645 Y124.944 E0.04808
G1 X106.305 Y124.284 E0.02328
G1 X106.041 Y123.240 E0.03376
G1 X106.041 Y86.760 E1.14381
G1 X106.309 Y85.702 E0.03421
G1 X106.674 Y85.043 E0.02362
G1 F8640.000
G1 X106.734 Y84.936 E-0.02835
G1 X107.834 Y83.867 E-0.35410
G1 X108.494 Y83.528 E-0.17149
G1 X109.538 Y83.263 E-0.24865
G1 X111.822 Y83.263 E-0.52742
G1 E-0.07000 F2100.00000
G1 Z0.400 F10800.000
G1 X108.033 Y84.189
G1 Z0.200
G1 E1.40000 F2100.00000
G1 F1200.000
G1 X108.611 Y83.887 E0.02043
G1 X109.562 Y83.640 E0.03083
G1 X140.429 Y83.644 E0.96780
G1 X141.148 Y83.792 E0.02304
G1 X141.808 Y84.087 E0.02266
G1 X142.762 Y84.915 E0.03960
G1 X143.306 Y85.759 E0.03149
G1 X143.582 Y86.785 E0.03331
G1 X143.582 Y123.216 E1.14225
G1 X143.332 Y124.178 E0.03118
G1 X142.951 Y124.855 E0.02435
G1 X141.967 Y125.811 E0.04303
G1 X141.389 Y126.113 E0.02043
G1 X140.438 Y126.360 E0.03082
G1 X109.562 Y126.360 E0.96809
G1 X108.600 Y126.110 E0.03118
G1 X107.923 Y125.729 E0.02435
G1 X106.966 Y124.745 E0.04303
G1 X106.665 Y124.167 E0.02043
G1 X106.418 Y123.216 E0.03082
G1 X106.418 Y86.784 E1.14227
G1 X106.668 Y85.822 E0.03118
G1 X107.049 Y85.145 E0.02435
G1 X107.990 Y84.230 E0.04115
G1 X108.234 Y84.509 F10800.000
G1 F1200.000
G1 X108.729 Y84.245 E0.01759
G1 X109.587 Y84.017 E0.02784
G1 X140.410 Y84.021 E0.96641
G1 X141.013 Y84.145 E0.01932
G1 X141.628 Y84.420 E0.02110
G1 X142.492 Y85.179 E0.03609
G1 X142.972 Y85.936 E0.02809
G1 X143.205 Y86.810 E0.02835
G1 X143.205 Y123.190 E1.14070
G1 X142.975 Y124.056 E0.02809
G1 X142.638 Y124.644 E0.02125
G1 X141.766 Y125.491 E0.03811
G1 X141.271 Y125.755 E0.01759
G1 X140.413 Y125.983 E0.02783
G1 X109.587 Y125.983 E0.96651
G1 X108.721 Y125.752 E0.02809
G1 X108.133 Y125.416 E0.02125
G1 X107.286 Y124.544 E0.03811
G1 X107.023 Y124.048 E0.01759
G1 X106.795 Y123.190 E0.02783
G1 X106.795 Y86.810 E1.14069
G1 X107.025 Y85.944 E0.02809
G1 X107.362 Y85.356 E0.02125
G1 X108.191 Y84.550 E0.03623
G1 X108.437 Y84.827 F10800.000
G1 F1200.000
G1 X108.851 Y84.603 E0.01477
G1 X109.613 Y84.394 E0.02477
G1 X140.389 Y84.398 E0.96496
G1 X140.914 Y84.509 E0.01681
G1 X141.445 Y84.751 E0.01829
G1 X142.222 Y85.443 E0.03263
G1 X142.616 Y86.064 E0.02306
G1 X142.828 Y86.836 E0.02510
G1 X142.828 Y123.164 E1.13907
G1 X142.618 Y123.931 E0.02493
G1 X142.326 Y124.431 E0.01816
G1 X141.563 Y125.173 E0.03335
G1 X141.149 Y125.397 E0.01477
G1 X140.387 Y125.606 E0.02477
G1 X109.613 Y125.606 E0.96489
G1 X108.846 Y125.396 E0.02493
G1 X108.346 Y125.104 E0.01816
G1 X107.605 Y124.341 E0.03335
G1 X107.380 Y123.926 E0.01477
G1 X107.172 Y123.164 E0.02477
G1 X107.172 Y86.836 E1.13907
G1 X107.382 Y86.069 E0.02493
G1 X107.674 Y85.569 E0.01816
G1 X108.394 Y84.869 E0.03147
G1 X108.642 Y85.144 F10800.000
G1 F1200.000
G1 X108.976 Y84.959 E0.01198
G1 X109.640 Y84.771 E0.02163
G1 X140.368 Y84.775 E0.96345
G1 X140.811 Y84.873 E0.01423
G1 X141.259 Y85.080 E0.01548
G1 X141.950 Y85.705 E0.02920
G1 X142.262 Y86.194 E0.01818
G1 X142.451 Y86.862 E0.02179
G1 X142.451 Y123.138 E1.13738
G1 X142.263 Y123.803 E0.02169
G1 X142.016 Y124.216 E0.01509
G1 X141.358 Y124.856 E0.02877
G1 X141.024 Y125.041 E0.01198
G1 X140.360 Y125.229 E0.02162
G1 X109.640 Y125.229 E0.96320
G1 X108.975 Y125.040 E0.02169
G1 X108.562 Y124.793 E0.01509
G1 X107.922 Y124.135 E0.02877
G1 X107.737 Y123.801 E0.01198
G1 X107.549 Y123.138 E0.02162
G1 X107.549 Y86.862 E1.13738
G1 X107.737 Y86.197 E0.02169
G1 X107.984 Y85.784 E0.01509
G1 X108.599 Y85.186 E0.02689
G1 F8640.000
G1 X108.976 Y84.959 E-0.10164
G1 X109.640 Y84.771 E-0.15927
G1 X114.270 Y84.772 E-1.06909
G1 E-0.07000 F2100.00000
G1 Z0.400 F10800.000
G1 X109.668 Y85.148
G1 Z0.200
G1 E1.40000 F2100.00000
G1 F1200.000
G1 X140.346 Y85.152 E0.96187
M73 Q1 S97
G1 X140.705 Y85.235 E0.01157
G1 X141.071 Y85.408 E0.01268
G1 X141.676 Y85.965 E0.02580
G1 X141.908 Y86.327 E0.01347
G1 X142.074 Y86.890 E0.01841
G1 X142.074 Y123.110 E1.13563
M73 P1 R96
G1 X141.909 Y123.671 E0.01834
G1 X141.708 Y123.998 E0.01204
G1 X141.149 Y124.541 E0.02442
G1 X140.894 Y124.686 E0.00921
G1 X140.332 Y124.852 E0.01838
G1 X109.668 Y124.852 E0.96144
G1 X109.107 Y124.687 E0.01834
G1 X108.780 Y124.485 E0.01204
G1 X108.237 Y123.927 E0.02442
G1 X108.091 Y123.672 E0.00921
G1 X107.926 Y123.110 E0.01838
G1 X107.926 Y86.890 E1.13563
G1 X108.091 Y86.329 E0.01834
G1 X108.292 Y86.002 E0.01204
G1 X108.851 Y85.459 E0.02442
G1 X109.106 Y85.314 E0.00921
G1 X109.611 Y85.165 E0.01650
G1 X109.698 Y85.525 F10800.000
G1 F1200.000
G1 X140.324 Y85.529 E0.96027
G1 X140.562 Y85.584 E0.00767
G1 X140.882 Y85.736 E0.01109
G1 X141.401 Y86.224 E0.02233
G1 X141.556 Y86.464 E0.00898
G1 X141.697 Y86.920 E0.01495
G1 X141.697 Y123.080 E1.13377
G1 X141.556 Y123.535 E0.01494
G1 X141.426 Y123.746 E0.00775
G1 X140.936 Y124.229 E0.02159
G1 X140.759 Y124.333 E0.00643
G1 X140.302 Y124.475 E0.01500
G1 X109.698 Y124.475 E0.95959
G1 X109.242 Y124.334 E0.01494
G1 X109.032 Y124.204 E0.00775
G1 X108.549 Y123.714 E0.02159
G1 X108.444 Y123.537 E0.00643
G1 X108.303 Y123.080 E0.01500
G1 X108.303 Y86.920 E1.13377
G1 X108.444 Y86.465 E0.01494
G1 X108.574 Y86.254 E0.00775
G1 X109.064 Y85.771 E0.02159
G1 X109.241 Y85.667 E0.00643
G1 X109.640 Y85.543 E0.01312
G1 X109.383 Y86.016 F10800.000
G1 F1200.000
G1 X109.729 Y85.903 E0.01144
G1 X140.302 Y85.906 E0.95858
G1 X140.419 Y85.934 E0.00377
G1 X140.692 Y86.063 E0.00947
G1 X141.123 Y86.479 E0.01880
G1 X141.207 Y86.607 E0.00479
G1 X141.320 Y86.952 E0.01136
G1 X141.320 Y123.048 E1.13179
G1 X141.206 Y123.395 E0.01144
G1 X141.144 Y123.495 E0.00369
G1 X140.717 Y123.922 E0.01893
G1 X140.617 Y123.984 E0.00369
G1 X140.271 Y124.097 E0.01144
G1 X109.729 Y124.097 E0.95760
G1 X109.383 Y123.984 E0.01144
G1 X109.283 Y123.922 E0.00369
G1 X108.856 Y123.495 E0.01893
G1 X108.794 Y123.395 E0.00369
G1 X108.680 Y123.048 E0.01144
G1 X108.680 Y86.952 E1.13179
G1 X108.794 Y86.605 E0.01144
G1 X108.856 Y86.505 E0.00369
G1 X109.332 Y86.048 E0.02069
G1 X109.537 Y86.361 F10800.000
G1 F1200.000
G1 X109.764 Y86.280 E0.00757
G1 X140.250 Y86.280 E0.95585
G1 X140.500 Y86.389 E0.00856
G1 X140.843 Y86.732 E0.01522
G1 X140.943 Y86.987 E0.00856
G1 X140.943 Y123.013 E1.12959
G1 X140.843 Y123.268 E0.00856
G1 X140.490 Y123.621 E0.01566
G1 X140.236 Y123.720 E0.00856
G1 X109.764 Y123.720 E0.95540
G1 X109.510 Y123.621 E0.00856
G1 X109.157 Y123.268 E0.01566
G1 X109.057 Y123.013 E0.00856
G1 X109.057 Y86.987 E1.12959
G1 X109.157 Y86.732 E0.00856
G1 X109.491 Y86.399 E0.01480
G1 X109.737 Y86.685 F10800.000
G1 F1200.000
G1 X109.806 Y86.657 E0.00235
G1 X140.194 Y86.657 E0.95278
G1 X140.263 Y86.685 E0.00235
G1 X140.537 Y86.959 E0.01215
G1 X140.566 Y87.029 E0.00235
G1 X140.566 Y122.971 E1.12696
G1 X140.537 Y123.041 E0.00235
G1 X140.263 Y123.315 E0.01215
G1 X140.194 Y123.343 E0.00235
G1 X109.806 Y123.343 E0.95278
G1 X109.737 Y123.315 E0.00235
G1 X109.463 Y123.041 E0.01215
G1 X109.434 Y122.971 E0.00235
G1 X109.434 Y87.029 E1.12696
G1 X109.463 Y86.959 E0.00235
G1 X109.695 Y86.728 E0.01027
G1 X109.922 Y87.034 F10800.000
G1 F1200.000
G1 X140.078 Y87.034 E0.94553
G1 X140.189 Y87.144 E0.00490
G1 X140.189 Y122.856 E1.11971
G1 X140.078 Y122.966 E0.00490
G1 X109.922 Y122.966 E0.94553
G1 X109.811 Y122.856 E0.00490
G1 X109.811 Y87.144 E1.11971
G1 X109.879 Y87.076 E0.00302
G1 F8640.000
G1 X115.639 Y87.068 E-1.33000
G1 E-0.07000 F2100.00000
G1 Z0.400 F10800.000
G1 X110.787 Y88.008
G1 Z0.200
G1 E1.40000 F2100.00000
G1 F1200.000
G1 X113.016 Y88.005 E0.06988
G1 X113.556 Y87.976 E0.01696
G1 X114.282 Y87.864 E0.02302
G1 X114.224 Y88.377 E0.01617
G1 X114.213 Y89.400 E0.03208
G1 X114.214 Y121.098 E0.99388
G1 X114.224 Y121.626 E0.01656
G1 X114.282 Y122.136 E0.01608
G1 X113.556 Y122.024 E0.02302
G1 X113.016 Y121.995 E0.01696
G1 X110.787 Y121.992 E0.06988
G1 X110.787 Y88.068 E1.06364
G1 X110.410 Y87.632 F10800.000
G1 F1200.000
G1 X113.006 Y87.627 E0.08139
G1 X113.520 Y87.601 E0.01615
G1 X114.035 Y87.529 E0.01630
G1 X114.521 Y87.432 E0.01552
G1 X114.780 Y87.432 E0.00813
G1 X114.659 Y87.878 E0.01448
G1 X114.601 Y88.400 E0.01646
G1 X114.590 Y89.402 E0.03142
G1 X114.591 Y121.094 E0.99370
G1 X114.601 Y121.601 E0.01590
G1 X114.659 Y122.122 E0.01642
G1 X114.780 Y122.568 E0.01448
G1 X114.521 Y122.568 E0.00813
G1 X114.035 Y122.471 E0.01552
G1 X113.520 Y122.399 E0.01630
G1 X113.006 Y122.373 E0.01615
G1 X110.410 Y122.368 E0.08139
G1 X110.410 Y87.692 E1.08724
G1 X110.761 Y87.823 F10800.000
G1 F8640.000
G1 X113.006 Y87.627 E-0.59953
G1 X113.520 Y87.601 E-0.11894
G1 X114.035 Y87.529 E-0.12006
G1 X114.521 Y87.432 E-0.11431
G1 X114.780 Y87.432 E-0.05985
G1 X114.659 Y87.878 E-0.10663
G1 X114.601 Y88.400 E-0.12118
G1 X114.597 Y88.787 E-0.08950
G1 E-0.07000 F2100.00000
G1 Z0.400 F10800.000
G1 X135.718 Y87.864
G1 Z0.200
G1 E1.40000 F2100.00000
G1 F1200.000
G1 X136.444 Y87.976 E0.02302
G1 X136.984 Y88.005 E0.01696
G1 X139.213 Y88.008 E0.06988
G1 X139.213 Y121.992 E1.06552
G1 X136.984 Y121.995 E0.06988
G1 X136.444 Y122.024 E0.01696
G1 X135.718 Y122.136 E0.02302
G1 X135.776 Y121.623 E0.01617
G1 X135.787 Y120.600 E0.03208
G1 X135.786 Y88.902 E0.99388
G1 X135.776 Y88.374 E0.01656
G1 X135.725 Y87.924 E0.01420
G1 X135.220 Y87.432 F10800.000
G1 F1200.000
G1 X135.479 Y87.432 E0.00813
G1 X135.965 Y87.529 E0.01552
G1 X136.480 Y87.601 E0.01630
G1 X136.994 Y87.627 E0.01615
G1 X139.590 Y87.632 E0.08139
G1 X139.590 Y122.368 E1.08913
G1 X136.994 Y122.373 E0.08139
G1 X136.480 Y122.399 E0.01615
G1 X135.965 Y122.471 E0.01630
G1 X135.479 Y122.568 E0.01552
G1 X135.220 Y122.568 E0.00813
G1 X135.341 Y122.122 E0.01448
G1 X135.399 Y121.600 E0.01646
G1 X135.410 Y120.598 E0.03142
G1 X135.409 Y88.906 E0.99370
G1 X135.399 Y88.399 E0.01590
G1 X135.341 Y87.878 E0.01642
G1 X135.236 Y87.490 E0.01260
G1 X135.452 Y87.548 F10800.000
G1 F8640.000
G1 X135.479 Y87.432 E-0.05781
G1 X135.965 Y87.529 E-0.11431
G1 X136.480 Y87.601 E-0.12006
G1 X136.994 Y87.627 E-0.11894
G1 X139.590 Y87.632 E-0.59934
G1 X139.590 Y89.016 E-0.31954
G1 E-0.07000 F2100.00000
G1 Z0.400 F10800.000
G1 X139.100 Y88.893
G1 Z0.200
G1 E1.40000 F2100.00000
G1 F1200.000
G1 X138.497 Y88.290 E0.02703
G1 X137.957 Y88.289 E0.01713
G1 X138.930 Y89.262 E0.04365
G1 X138.930 Y89.802 E0.01710
G1 X137.417 Y88.288 E0.06788
G1 X136.871 Y88.282 E0.01730
G1 X138.930 Y90.341 E0.09235
G1 X138.930 Y90.880 E0.01710
G1 X136.290 Y88.240 E0.11839
G1 X136.041 Y88.206 E0.00797
G1 X136.062 Y88.552 E0.01100
G1 X138.930 Y91.420 E0.12862
G1 X138.930 Y91.959 E0.01710
G1 X136.069 Y89.098 E0.12830
G1 X136.069 Y89.637 E0.01710
G1 X138.930 Y92.498 E0.12830
G1 X138.930 Y93.038 E0.01710
G1 X136.069 Y90.177 E0.12830
G1 X136.069 Y90.716 E0.01710
G1 X138.930 Y93.577 E0.12830
G1 X138.930 Y94.116 E0.01710
G1 X136.069 Y91.255 E0.12830
G1 X136.069 Y91.795 E0.01710
G1 X138.930 Y94.656 E0.12830
G1 X138.930 Y95.195 E0.01710
G1 X136.069 Y92.334 E0.12830
G1 X136.069 Y92.874 E0.01710
G1 X138.930 Y95.734 E0.12830
M73 Q2 S96
G1 X138.930 Y96.274 E0.01710
G1 X136.069 Y93.413 E0.12830
G1 X136.069 Y93.952 E0.01710
G1 X138.930 Y96.813 E0.12830
G1 X138.930 Y97.352 E0.01710
G1 X136.069 Y94.492 E0.12830
G1 X136.069 Y95.031 E0.01710
G1 X138.930 Y97.892 E0.12830
G1 X138.930 Y98.431 E0.01710
G1 X136.069 Y95.570 E0.12830
G1 X136.069 Y96.110 E0.01710
G1 X138.930 Y98.970 E0.12829
G1 X138.930 Y99.510 E0.01710
G1 X136.069 Y96.649 E0.12829
G1 X136.069 Y97.188 E0.01710
G1 X138.930 Y100.049 E0.12829
M73 P2 R95
G1 X138.930 Y100.588 E0.01710
G1 X136.069 Y97.728 E0.12829
G1 X136.069 Y98.267 E0.01710
G1 X138.930 Y101.128 E0.12829
G1 X138.930 Y101.667 E0.01710
G1 X136.069 Y98.806 E0.12829
G1 X136.069 Y99.346 E0.01710
G1 X138.930 Y102.206 E0.12829
G1 X138.930 Y102.746 E0.01710
G1 X136.069 Y99.885 E0.12829
G1 X136.069 Y100.424 E0.01710
G1 X138.930 Y103.285 E0.12829
G1 X138.930 Y103.824 E0.01710
G1 X136.069 Y100.964 E0.12829
G1 X136.069 Y101.503 E0.01710
G1 X138.930 Y104.364 E0.12829
G1 X138.930 Y104.903 E0.01710
G1 X136.069 Y102.042 E0.12829
G1 X136.069 Y102.582 E0.01710
G1 X138.930 Y105.442 E0.12829
G1 X138.930 Y105.982 E0.01710
G1 X136.069 Y103.121 E0.12829
G1 X136.070 Y103.661 E0.01710
G1 X138.930 Y106.521 E0.12829
G1 X138.930 Y107.060 E0.01710
G1 X136.070 Y104.200 E0.12829
G1 X136.070 Y104.739 E0.01710
G1 X138.930 Y107.600 E0.12829
G1 X138.930 Y108.139 E0.01710
G1 X136.070 Y105.279 E0.12829
G1 X136.070 Y105.818 E0.01710
G1 X138.930 Y108.678 E0.12829
G1 X138.930 Y109.218 E0.01710
G1 X136.070 Y106.357 E0.12829
G1 X136.070 Y106.897 E0.01710
G1 X138.930 Y109.757 E0.12828
G1 X138.930 Y110.297 E0.01710
G1 X136.070 Y107.436 E0.12828
G1 X136.070 Y107.975 E0.01710
