; generated by PrusaSlicer 2.2.0+win64 on 2020-06-25 at 18:53:07 UTC

; 

; external perimeters extrusion width = 0.45mm
; perimeters extrusion width = 0.45mm
; infill extrusion width = 0.45mm
; solid infill extrusion width = 0.45mm
; top infill extrusion width = 0.40mm
; first layer extrusion width = 0.42mm

M73 P0 R83
M73 Q0 S84
M201 X1000 Y1000 Z200 E5000 ; sets maximum accelerations, mm/sec^2
M203 X200 Y200 Z12 E120 ; sets maximum feedrates, mm/sec
M204 P1250 R1250 T1250 ; sets acceleration (P, T) and retract acceleration (R), mm/sec^2
M205 X8.00 Y8.00 Z0.40 E4.50 ; sets the jerk limits, mm/sec
M205 S0 T0 ; sets the minimum extruding and travel feed rate, mm/sec
M107
M862.3 P "MK3S" ; printer model check
M862.1 P0.4 ; nozzle diameter check
M115 U3.9.0 ; tell printer latest fw version
G90 ; use absolute coordinates
M83 ; extruder relative mode
M104 S240 ; set extruder temp
M140 S85 ; set bed temp
M190 S85 ; wait for bed temp
M109 S240 ; wait for extruder temp
G28 W ; home all without mesh bed level
G80 ; mesh bed leveling
G1 Y-3.0 F1000.0 ; go outside print area
G92 E0.0
G1 X60.0 E9.0 F1000.0 ; intro line
M73 Q0 S84
M73 P0 R83
G1 X100.0 E12.5 F1000.0 ; intro line
G92 E0.0
M221 S95
G21 ; set units to millimeters
G90 ; use absolute coordinates
M83 ; use relative distances for extrusion
M900 K0.12 ; Filament gcode LA 1.5
M900 K45 ; Filament gcode LA 1.0
;BEFORE_LAYER_CHANGE
G92 E0.0
;0.2


G1 E-1.40000 F2100.00000
G1 Z0.200 F10800.000
;AFTER_LAYER_CHANGE
;0.2
G1 Z0.400
G1 X107.540 Y85.929
G1 Z0.200
G1 E1.40000 F2100.00000
M204 S1000
G1 F1200.000
G1 X109.454 Y85.286 E0.06331
G1 X140.486 Y85.290 E0.97301
G1 X141.435 Y85.474 E0.03029
G1 X142.343 Y85.865 E0.03101
G1 X143.562 Y86.888 E0.04990
G1 X144.353 Y88.106 E0.04551
G1 X144.713 Y89.489 E0.04481
G1 X144.713 Y120.510 E0.97265
G1 X144.382 Y121.827 E0.04257
G1 X143.655 Y123.011 E0.04355
G1 X143.051 Y123.615 E0.02678
G1 X142.460 Y124.071 E0.02340
G1 X140.547 Y124.713 E0.06330
G1 X109.490 Y124.713 E0.97376
G1 X108.173 Y124.382 E0.04257
G1 X106.989 Y123.655 E0.04355
G1 X106.385 Y123.051 E0.02678
G1 X105.929 Y122.460 E0.02340
G1 X105.287 Y120.547 E0.06330
G1 X105.287 Y89.490 E0.97376
G1 X105.618 Y88.173 E0.04257
G1 X106.345 Y86.989 E0.04355
G1 X106.949 Y86.385 E0.02678
G1 X107.492 Y85.966 E0.02152
G1 X107.722 Y86.265 F10800.000
G1 F1200.000
G1 X109.484 Y85.664 E0.05839
G1 X140.468 Y85.667 E0.97146
G1 X141.341 Y85.840 E0.02791
G1 X142.166 Y86.199 E0.02823
G1 X143.297 Y87.158 E0.04647
G1 X143.996 Y88.232 E0.04018
G1 X144.336 Y89.513 E0.04157
G1 X144.336 Y120.486 E0.97112
G1 X144.024 Y121.705 E0.03946
G1 X143.373 Y122.759 E0.03885
G1 X142.794 Y123.339 E0.02571
G1 X142.256 Y123.752 E0.02127
G1 X140.516 Y124.336 E0.05754
G1 X109.514 Y124.336 E0.97204
G1 X108.295 Y124.024 E0.03946
G1 X107.241 Y123.373 E0.03885
G1 X106.661 Y122.794 E0.02571
G1 X106.248 Y122.256 E0.02127
G1 X105.664 Y120.516 E0.05754
G1 X105.664 Y89.514 E0.97204
G1 X105.976 Y88.295 E0.03946
G1 X106.627 Y87.241 E0.03885
G1 X107.206 Y86.661 E0.02571
G1 X107.674 Y86.302 E0.01849
G1 X107.903 Y86.601 F10800.000
G1 F1200.000
G1 X107.948 Y86.566 E0.00179
G1 X109.515 Y86.041 E0.05180
G1 X140.448 Y86.044 E0.96991
G1 X141.246 Y86.205 E0.02550
G1 X141.988 Y86.533 E0.02545
G1 X143.030 Y87.426 E0.04302
G1 X143.663 Y88.410 E0.03669
G1 X143.959 Y89.538 E0.03655
G1 X143.959 Y120.462 E0.96963
G1 X143.687 Y121.533 E0.03463
G1 X143.091 Y122.509 E0.03586
G1 X142.536 Y123.063 E0.02460
G1 X142.052 Y123.434 E0.01912
G1 X140.485 Y123.959 E0.05179
G1 X109.538 Y123.959 E0.97035
G1 X108.467 Y123.687 E0.03463
G1 X107.491 Y123.091 E0.03586
G1 X106.937 Y122.536 E0.02460
G1 X106.566 Y122.052 E0.01912
G1 X106.041 Y120.485 E0.05179
G1 X106.041 Y89.538 E0.97035
G1 X106.313 Y88.467 E0.03463
G1 X106.909 Y87.491 E0.03586
G1 X107.464 Y86.937 E0.02460
G1 X107.855 Y86.637 E0.01544
G1 X108.152 Y86.885 F10800.000
G1 F1200.000
G1 X109.545 Y86.418 E0.04608
G1 X140.429 Y86.421 E0.96833
G1 X141.148 Y86.570 E0.02304
G1 X141.808 Y86.865 E0.02266
G1 X142.762 Y87.692 E0.03960
G1 X143.306 Y88.537 E0.03149
G1 X143.582 Y89.563 E0.03331
G1 X143.582 Y120.438 E0.96807
G1 X143.329 Y121.410 E0.03149
G1 X142.808 Y122.258 E0.03119
G1 X142.278 Y122.788 E0.02350
G1 X141.848 Y123.115 E0.01695
G1 X140.455 Y123.582 E0.04607
G1 X109.562 Y123.582 E0.96862
G1 X108.590 Y123.329 E0.03149
G1 X107.742 Y122.808 E0.03119
G1 X107.212 Y122.278 E0.02350
G1 X106.885 Y121.848 E0.01695
G1 X106.418 Y120.455 E0.04607
G1 X106.418 Y89.562 E0.96862
G1 X106.671 Y88.590 E0.03149
G1 X107.191 Y87.742 E0.03119
G1 X107.722 Y87.212 E0.02350
G1 X108.104 Y86.921 E0.01507
G1 X108.331 Y87.222 F10800.000
G1 F1200.000
G1 X109.576 Y86.795 E0.04125
G1 X140.410 Y86.798 E0.96677
G1 X141.013 Y86.923 E0.01932
G1 X141.628 Y87.197 E0.02110
G1 X142.492 Y87.957 E0.03609
G1 X142.972 Y88.714 E0.02809
G1 X143.205 Y89.587 E0.02835
G1 X143.205 Y120.413 E0.96651
G1 X142.973 Y121.285 E0.02831
G1 X142.527 Y122.006 E0.02658
G1 X142.021 Y122.512 E0.02241
G1 X141.645 Y122.796 E0.01477
G1 X140.424 Y123.205 E0.04038
G1 X109.587 Y123.205 E0.96688
G1 X108.715 Y122.973 E0.02831
G1 X107.994 Y122.527 E0.02658
G1 X107.488 Y122.021 E0.02241
G1 X107.204 Y121.645 E0.01477
G1 X106.795 Y120.424 E0.04038
G1 X106.795 Y89.587 E0.96688
G1 X107.027 Y88.715 E0.02831
G1 X107.473 Y87.994 E0.02658
G1 X107.979 Y87.488 E0.02241
G1 X108.283 Y87.258 E0.01198
G1 F8640.000
G1 X109.576 Y86.795 E-0.31699
G1 X113.963 Y86.795 E-1.01301
G1 E-0.07000 F2100.00000
G1 Z0.400 F10800.000
G1 X109.606 Y87.172
G1 Z0.200
G1 E1.40000 F2100.00000
G1 F1200.000
G1 X140.389 Y87.176 E0.96518
G1 X140.914 Y87.287 E0.01681
G1 X141.445 Y87.528 E0.01829
G1 X142.222 Y88.221 E0.03263
G1 X142.616 Y88.841 E0.02306
G1 X142.828 Y89.613 E0.02510
G1 X142.828 Y120.387 E0.96489
G1 X142.617 Y121.158 E0.02508
G1 X142.245 Y121.755 E0.02203
G1 X141.764 Y122.235 E0.02132
G1 X141.444 Y122.476 E0.01257
G1 X140.394 Y122.828 E0.03472
G1 X109.613 Y122.828 E0.96510
G1 X108.842 Y122.617 E0.02508
G1 X108.245 Y122.245 E0.02203
G1 X107.765 Y121.764 E0.02132
G1 X107.524 Y121.444 E0.01257
G1 X107.172 Y120.394 E0.03472
G1 X107.172 Y89.613 E0.96510
G1 X107.383 Y88.842 E0.02508
G1 X107.755 Y88.245 E0.02203
G1 X108.236 Y87.765 E0.02132
G1 X108.556 Y87.524 E0.01257
G1 X109.549 Y87.191 E0.03284
G1 X109.637 Y87.549 F10800.000
G1 F1200.000
G1 X140.368 Y87.553 E0.96355
G1 X140.811 Y87.650 E0.01423
G1 X141.259 Y87.858 E0.01548
G1 X141.950 Y88.483 E0.02920
G1 X142.262 Y88.971 E0.01818
G1 X142.451 Y89.640 E0.02179
G1 X142.451 Y120.360 E0.96320
G1 X142.262 Y121.029 E0.02179
G1 X141.964 Y121.503 E0.01755
G1 X141.508 Y121.959 E0.02022
G1 X141.243 Y122.155 E0.01034
G1 X140.363 Y122.451 E0.02911
G1 X109.640 Y122.451 E0.96330
G1 X108.971 Y122.262 E0.02179
G1 X108.497 Y121.964 E0.01755
G1 X108.041 Y121.508 E0.02022
G1 X107.845 Y121.243 E0.01034
G1 X107.549 Y120.363 E0.02911
G1 X107.549 Y89.640 E0.96330
G1 X107.738 Y88.971 E0.02179
G1 X108.036 Y88.497 E0.01755
G1 X108.492 Y88.041 E0.02022
G1 X108.757 Y87.845 E0.01034
G1 X109.580 Y87.568 E0.02723
G1 X109.668 Y87.926 F10800.000
G1 F1200.000
G1 X140.346 Y87.930 E0.96188
G1 X140.705 Y88.013 E0.01157
G1 X141.071 Y88.185 E0.01268
G1 X141.676 Y88.743 E0.02580
G1 X141.908 Y89.105 E0.01347
G1 X142.074 Y89.668 E0.01841
G1 X142.074 Y120.332 E0.96144
G1 X141.908 Y120.896 E0.01842
G1 X141.683 Y121.250 E0.01318
G1 X141.252 Y121.681 E0.01911
G1 X141.044 Y121.834 E0.00808
G1 X140.332 Y122.074 E0.02354
G1 X109.668 Y122.074 E0.96145
G1 X109.104 Y121.908 E0.01842
G1 X108.750 Y121.683 E0.01318
G1 X108.319 Y121.252 E0.01911
G1 X108.166 Y121.044 E0.00808
G1 X107.926 Y120.332 E0.02354
G1 X107.926 Y89.668 E0.96145
M73 Q1 S83
M73 P1 R82
G1 X108.092 Y89.104 E0.01842
G1 X108.317 Y88.750 E0.01318
G1 X108.748 Y88.319 E0.01911
G1 X108.956 Y88.166 E0.00808
G1 X109.611 Y87.945 E0.02167
G1 X109.154 Y88.488 F10800.000
G1 F1200.000
G1 X109.699 Y88.303 E0.01806
G1 X140.324 Y88.307 E0.96023
G1 X140.562 Y88.362 E0.00767
G1 X140.882 Y88.513 E0.01109
G1 X141.401 Y89.001 E0.02233
G1 X141.556 Y89.242 E0.00898
G1 X141.697 Y89.698 E0.01495
G1 X141.697 Y120.302 E0.95959
G1 X141.556 Y120.758 E0.01496
G1 X141.402 Y120.998 E0.00892
G1 X140.996 Y121.404 E0.01800
G1 X140.846 Y121.512 E0.00579
G1 X140.301 Y121.697 E0.01806
G1 X109.698 Y121.697 E0.95955
G1 X109.242 Y121.556 E0.01496
G1 X109.002 Y121.402 E0.00892
G1 X108.596 Y120.996 E0.01800
G1 X108.488 Y120.846 E0.00579
G1 X108.303 Y120.301 E0.01806
G1 X108.303 Y89.698 E0.95955
G1 X108.444 Y89.242 E0.01496
G1 X108.598 Y89.002 E0.00892
G1 X109.004 Y88.596 E0.01800
G1 X109.105 Y88.524 E0.00391
G1 X109.348 Y88.812 F10800.000
G1 F1200.000
G1 X109.731 Y88.680 E0.01270
G1 X140.302 Y88.684 E0.95853
G1 X140.419 Y88.711 E0.00377
G1 X140.692 Y88.840 E0.00947
G1 X141.123 Y89.257 E0.01880
G1 X141.207 Y89.385 E0.00479
G1 X141.320 Y89.729 E0.01136
G1 X141.320 Y120.271 E0.95760
G1 X141.207 Y120.615 E0.01136
G1 X141.122 Y120.744 E0.00484
G1 X140.742 Y121.125 E0.01686
G1 X140.652 Y121.188 E0.00345
G1 X140.269 Y121.320 E0.01270
G1 X109.729 Y121.320 E0.95756
G1 X109.385 Y121.207 E0.01136
G1 X109.256 Y121.122 E0.00484
G1 X108.875 Y120.742 E0.01686
G1 X108.812 Y120.652 E0.00345
G1 X108.680 Y120.269 E0.01270
G1 X108.680 Y89.729 E0.95756
G1 X108.793 Y89.385 E0.01136
G1 X108.878 Y89.256 E0.00484
G1 X109.299 Y88.847 E0.01841
G1 X109.537 Y89.139 F10800.000
G1 F1200.000
G1 X109.764 Y89.057 E0.00757
G1 X140.250 Y89.057 E0.95585
G1 X140.500 Y89.167 E0.00856
G1 X140.843 Y89.510 E0.01522
G1 X140.943 Y89.764 E0.00856
G1 X140.943 Y120.236 E0.95540
G1 X140.843 Y120.490 E0.00856
G1 X140.490 Y120.843 E0.01566
G1 X140.236 Y120.943 E0.00856
G1 X109.764 Y120.943 E0.95540
G1 X109.510 Y120.843 E0.00856
G1 X109.157 Y120.490 E0.01566
G1 X109.057 Y120.236 E0.00856
G1 X109.057 Y89.764 E0.95540
G1 X109.157 Y89.510 E0.00856
G1 X109.491 Y89.176 E0.01480
G1 X109.737 Y89.463 F10800.000
G1 F1200.000
G1 X109.806 Y89.434 E0.00235
G1 X140.194 Y89.434 E0.95278
G1 X140.263 Y89.463 E0.00235
G1 X140.537 Y89.737 E0.01215
G1 X140.566 Y89.806 E0.00235
G1 X140.566 Y120.194 E0.95278
G1 X140.537 Y120.263 E0.00235
G1 X140.263 Y120.537 E0.01215
G1 X140.194 Y120.566 E0.00235
G1 X109.806 Y120.566 E0.95278
G1 X109.737 Y120.537 E0.00235
G1 X109.463 Y120.263 E0.01215
G1 X109.434 Y120.194 E0.00235
G1 X109.434 Y89.806 E0.95278
G1 X109.463 Y89.737 E0.00235
G1 X109.695 Y89.506 E0.01027
G1 X109.922 Y89.811 F10800.000
G1 F1200.000
G1 X140.078 Y89.811 E0.94553
G1 X140.189 Y89.922 E0.00490
G1 X140.189 Y120.078 E0.94553
G1 X140.078 Y120.189 E0.00490
G1 X109.922 Y120.189 E0.94553
G1 X109.811 Y120.078 E0.00490
G1 X109.811 Y89.922 E0.94553
G1 X109.879 Y89.854 E0.00302
G1 F8640.000
G1 X115.639 Y89.846 E-1.33000
G1 E-0.07000 F2100.00000
G1 Z0.400 F10800.000
G1 X122.660 Y102.620
G1 Z0.200
G1 E1.40000 F2100.00000
G1 F1200.000
G1 X123.037 Y102.298 E0.01554
G1 X123.484 Y102.024 E0.01643
G1 X123.970 Y101.823 E0.01651
G1 X124.506 Y101.699 E0.01723
G1 X125.000 Y101.660 E0.01554
G1 X125.522 Y101.702 E0.01643
G1 X126.032 Y101.824 E0.01643
G1 X126.516 Y102.024 E0.01643
G1 X126.963 Y102.298 E0.01643
G1 X127.361 Y102.639 E0.01643
G1 X127.702 Y103.037 E0.01643
G1 X127.976 Y103.484 E0.01643
G1 X128.176 Y103.968 E0.01643
G1 X128.298 Y104.478 E0.01643
G1 X128.340 Y105.000 E0.01643
G1 X128.298 Y105.522 E0.01643
G1 X128.176 Y106.032 E0.01643
G1 X127.976 Y106.516 E0.01643
G1 X127.702 Y106.963 E0.01643
G1 X127.361 Y107.361 E0.01643
G1 X126.963 Y107.702 E0.01643
G1 X126.516 Y107.976 E0.01643
G1 X126.032 Y108.176 E0.01643
G1 X125.522 Y108.298 E0.01643
G1 X125.000 Y108.340 E0.01643
G1 X124.478 Y108.298 E0.01643
G1 X123.968 Y108.176 E0.01643
G1 X123.484 Y107.976 E0.01643
G1 X123.037 Y107.702 E0.01643
G1 X122.639 Y107.361 E0.01643
G1 X122.298 Y106.963 E0.01643
G1 X122.024 Y106.516 E0.01643
G1 X121.824 Y106.032 E0.01643
G1 X121.702 Y105.522 E0.01643
G1 X121.660 Y104.997 E0.01651
G1 X121.708 Y104.450 E0.01723
G1 X121.824 Y103.968 E0.01554
G1 X122.024 Y103.484 E0.01643
G1 X122.300 Y103.035 E0.01651
G1 X122.621 Y102.665 E0.01535
G1 X122.905 Y102.913 F10800.000
G1 F1200.000
G1 X123.259 Y102.604 E0.01473
G1 X123.656 Y102.361 E0.01457
G1 X124.086 Y102.183 E0.01460
G1 X124.563 Y102.073 E0.01537
G1 X125.000 Y102.039 E0.01373
G1 X125.463 Y102.075 E0.01457
G1 X125.915 Y102.184 E0.01457
G1 X126.344 Y102.361 E0.01457
G1 X126.741 Y102.604 E0.01457
G1 X127.094 Y102.906 E0.01457
G1 X127.396 Y103.259 E0.01457
G1 X127.639 Y103.656 E0.01457
G1 X127.816 Y104.085 E0.01457
G1 X127.925 Y104.537 E0.01457
G1 X127.961 Y105.000 E0.01457
G1 X127.925 Y105.463 E0.01457
G1 X127.816 Y105.915 E0.01457
G1 X127.639 Y106.344 E0.01457
G1 X127.396 Y106.741 E0.01457
G1 X127.094 Y107.094 E0.01457
G1 X126.741 Y107.396 E0.01457
G1 X126.344 Y107.639 E0.01457
G1 X125.915 Y107.816 E0.01457
G1 X125.463 Y107.925 E0.01457
G1 X125.000 Y107.961 E0.01457
G1 X124.537 Y107.925 E0.01457
G1 X124.085 Y107.816 E0.01457
G1 X123.656 Y107.639 E0.01457
G1 X123.259 Y107.396 E0.01457
G1 X122.906 Y107.094 E0.01457
G1 X122.604 Y106.741 E0.01457
G1 X122.361 Y106.344 E0.01457
G1 X122.184 Y105.915 E0.01457
G1 X122.075 Y105.463 E0.01457
G1 X122.039 Y104.999 E0.01460
G1 X122.081 Y104.511 E0.01537
G1 X122.184 Y104.085 E0.01373
G1 X122.361 Y103.656 E0.01457
G1 X122.605 Y103.259 E0.01460
G1 X122.866 Y102.958 E0.01248
G1 X122.800 Y102.527 F10800.000
G1 F8640.000
G1 X123.259 Y102.604 E-0.12219
G1 X123.656 Y102.361 E-0.10729
G1 X124.086 Y102.183 E-0.10751
G1 X124.563 Y102.073 E-0.11317
G1 X125.000 Y102.039 E-0.10114
G1 X125.463 Y102.075 E-0.10730
G1 X125.915 Y102.184 E-0.10729
G1 X126.344 Y102.361 E-0.10730
G1 X126.741 Y102.604 E-0.10729
G1 X127.094 Y102.906 E-0.10730
G1 X127.396 Y103.259 E-0.10730
G1 X127.639 Y103.656 E-0.10729
G1 X127.684 Y103.766 E-0.02764
G1 E-0.07000 F2100.00000
G1 Z0.400 F10800.000
G1 X110.787 Y90.787
G1 Z0.200
G1 E1.40000 F2100.00000
G1 F1200.000
G1 X139.213 Y90.787 E0.89127
G1 X139.213 Y119.213 E0.89127
G1 X110.787 Y119.213 E0.89127
G1 X110.787 Y90.847 E0.88939
G1 X110.410 Y90.410 F10800.000
G1 F1200.000
G1 X139.590 Y90.410 E0.91492
G1 X139.590 Y119.590 E0.91492
G1 X110.410 Y119.590 E0.91492
G1 X110.410 Y90.470 E0.91304
G1 X110.796 Y90.514 F10800.000
G1 F8640.000
G1 X116.170 Y90.458 E-1.33000
G1 E-0.07000 F2100.00000
G1 Z0.400 F10800.000
G1 X115.741 Y90.900
G1 Z0.200
G1 E1.40000 F2100.00000
G1 F1200.000
G1 X126.589 Y101.749 E0.48517
G1 X126.120 Y101.554 E0.01608
G1 X125.774 Y101.471 E0.01124
G1 X115.373 Y91.070 E0.46517
G1 X114.835 Y91.070 E0.01701
G1 X125.154 Y101.389 E0.46150
G1 X125.000 Y101.377 E0.00488
G1 X124.633 Y101.406 E0.01165
G1 X114.297 Y91.070 E0.46225
G1 X113.759 Y91.070 E0.01701
G1 X124.175 Y101.486 E0.46582
G1 X123.884 Y101.553 E0.00944
G1 X123.757 Y101.605 E0.00435
G1 X113.221 Y91.070 E0.47118
G1 X112.683 Y91.070 E0.01701
G1 X123.376 Y101.763 E0.47822
G1 X123.040 Y101.965 E0.01240
G1 X112.146 Y91.070 E0.48724
G1 X111.608 Y91.070 E0.01701
G1 X122.728 Y102.190 E0.49734
G1 X122.441 Y102.441 E0.01205
G1 X111.070 Y91.070 E0.50855
G1 X111.070 Y91.608 E0.01701
G1 X122.191 Y102.729 E0.49736
G1 X122.071 Y102.867 E0.00579
G1 X121.965 Y103.040 E0.00643
G1 X111.070 Y92.146 E0.48724
G1 X111.070 Y92.684 E0.01701
G1 X121.763 Y103.376 E0.47822
G1 X121.605 Y103.757 E0.01302
G1 X111.070 Y93.221 E0.47117
G1 X111.070 Y93.759 E0.01701
G1 X121.484 Y104.173 E0.46574
G1 X121.428 Y104.404 E0.00752
G1 X121.408 Y104.635 E0.00733
G1 X111.070 Y94.297 E0.46235
G1 X111.070 Y94.835 E0.01701
G1 X121.389 Y105.154 E0.46150
M73 Q2 S82
M73 P2 R81
G1 X121.421 Y105.567 E0.01310
G1 X121.471 Y105.774 E0.00674
G1 X111.070 Y95.373 E0.46518
G1 X111.070 Y95.911 E0.01701
G1 X121.749 Y106.590 E0.47759
G1 X122.069 Y107.130 E0.01985
G1 X122.438 Y107.562 E0.01798
G1 X122.870 Y107.931 E0.01798
G1 X123.410 Y108.251 E0.01985
G1 X134.089 Y118.930 E0.47759
G1 X134.627 Y118.930 E0.01701
G1 X124.226 Y108.529 E0.46517
G1 X124.433 Y108.579 E0.00674
G1 X124.846 Y108.611 E0.01310
G1 X135.165 Y118.930 E0.46150
G1 X135.703 Y118.930 E0.01701
G1 X125.367 Y108.594 E0.46225
G1 X125.567 Y108.579 E0.00633
G1 X125.827 Y108.516 E0.00846
G1 X136.241 Y118.930 E0.46574
G1 X136.779 Y118.930 E0.01701
G1 X126.243 Y108.395 E0.47117
G1 X126.624 Y108.237 E0.01302
