; generated by PrusaSlicer 2.2.0+win64 on 2020-07-05 at 20:08:38 UTC

; 

; external perimeters extrusion width = 0.45mm
; perimeters extrusion width = 0.45mm
; infill extrusion width = 0.45mm
; solid infill extrusion width = 0.45mm
; top infill extrusion width = 0.40mm
; first layer extrusion width = 0.42mm

M73 P0 R10
M73 Q0 S10
M201 X1000 Y1000 Z200 E5000 ; sets maximum accelerations, mm/sec^2
M203 X200 Y200 Z12 E120 ; sets maximum feedrates, mm/sec
M204 P1250 R1250 T1250 ; sets acceleration (P, T) and retract acceleration (R), mm/sec^2
M205 X8.00 Y8.00 Z0.40 E4.50 ; sets the jerk limits, mm/sec
M205 S0 T0 ; sets the minimum extruding and travel feed rate, mm/sec
M107
M862.3 P "MK3S" ; printer model check
M862.1 P0.4 ; nozzle diameter check
M115 U3.9.0 ; tell printer latest fw version
G90 ; use absolute coordinates
M83 ; extruder relative mode
M104 S240 ; set extruder temp
M140 S85 ; set bed temp
M190 S85 ; wait for bed temp
M109 S240 ; wait for extruder temp
G28 W ; home all without mesh bed level
G80 ; mesh bed leveling
G1 Y-3.0 F1000.0 ; go outside print area
G92 E0.0
G1 X60.0 E9.0 F1000.0 ; intro line
M73 Q0 S10
M73 P0 R10
G1 X100.0 E12.5 F1000.0 ; intro line
G92 E0.0
M221 S95
G21 ; set units to millimeters
G90 ; use absolute coordinates
M83 ; use relative distances for extrusion
M900 K0.12 ; Filament gcode LA 1.5
M900 K45 ; Filament gcode LA 1.0
;BEFORE_LAYER_CHANGE
G92 E0.0
;0.2


G1 E-1.40000 F2100.00000
G1 Z0.200 F10800.000
;AFTER_LAYER_CHANGE
;0.2
G1 Z0.400
G1 X115.630 Y95.770
G1 Z0.200
G1 E1.40000 F2100.00000
M204 S1000
G1 F1200.000
G1 X116.741 Y94.765 E0.04698
G1 X117.492 Y94.202 E0.02941
G1 X118.763 Y93.420 E0.04680
G1 X120.121 Y92.786 E0.04698
G1 X121.007 Y92.468 E0.02954
G1 X122.449 Y92.096 E0.04667
G1 X123.937 Y91.890 E0.04710
G1 X124.849 Y91.847 E0.02864
G1 X126.299 Y91.911 E0.04552
G1 X127.230 Y92.037 E0.02946
G1 X128.689 Y92.373 E0.04693
G1 X130.099 Y92.874 E0.04693
G1 X130.946 Y93.267 E0.02928
G1 X132.246 Y94.020 E0.04711
G1 X133.443 Y94.912 E0.04679
G1 X134.144 Y95.543 E0.02960
G1 X135.160 Y96.642 E0.04693
G1 X136.041 Y97.847 E0.04680
G1 X136.520 Y98.649 E0.02928
G1 X137.172 Y100.007 E0.04723
G1 X137.658 Y101.418 E0.04680
G1 X137.881 Y102.329 E0.02940
G1 X138.103 Y103.815 E0.04711
G1 X138.152 Y105.312 E0.04698
G1 X138.097 Y106.242 E0.02921
G1 X137.870 Y107.728 E0.04712
G1 X137.473 Y109.181 E0.04723
G1 X137.149 Y110.046 E0.02896
G1 X136.495 Y111.399 E0.04711
G1 X135.690 Y112.667 E0.04711
G1 X135.122 Y113.402 E0.02910
G1 X134.105 Y114.496 E0.04685
G1 X132.252 Y115.976 E0.07434
G1 X130.960 Y116.727 E0.04684
G1 X130.106 Y117.123 E0.02954
G1 X128.690 Y117.627 E0.04711
G1 X127.244 Y117.961 E0.04654
G1 X126.315 Y118.088 E0.02941
G1 X124.847 Y118.153 E0.04608
G1 X123.950 Y118.111 E0.02813
G1 X122.464 Y117.907 E0.04705
G1 X121.009 Y117.532 E0.04711
G1 X120.134 Y117.219 E0.02915
G1 X118.777 Y116.587 E0.04692
G1 X117.493 Y115.799 E0.04723
G1 X116.753 Y115.245 E0.02898
G1 X115.638 Y114.238 E0.04710
G1 X114.137 Y112.413 E0.07409
G1 X113.365 Y111.130 E0.04697
G1 X112.955 Y110.280 E0.02959
G1 X112.433 Y108.877 E0.04693
G1 X112.075 Y107.428 E0.04680
G1 X111.935 Y106.505 E0.02928
G1 X111.848 Y105.001 E0.04723
G1 X111.934 Y103.511 E0.04680
G1 X112.073 Y102.583 E0.02941
G1 X112.432 Y101.124 E0.04711
G1 X112.950 Y99.733 E0.04654
G1 X113.357 Y98.884 E0.02954
G1 X114.128 Y97.599 E0.04698
G1 X115.592 Y95.816 E0.07233
G1 X115.883 Y96.056 F10800.000
G1 F1200.000
G1 X116.985 Y95.052 E0.04674
G1 X117.703 Y94.514 E0.02811
G1 X118.952 Y93.746 E0.04597
G1 X120.270 Y93.133 E0.04558
G1 X121.117 Y92.829 E0.02823
G1 X122.536 Y92.463 E0.04595
G1 X124.850 Y92.224 E0.07293
G1 X126.269 Y92.287 E0.04455
G1 X127.170 Y92.409 E0.02850
G1 X128.585 Y92.736 E0.04553
G1 X129.960 Y93.225 E0.04575
G1 X130.781 Y93.605 E0.02836
G1 X132.041 Y94.336 E0.04568
G1 X133.207 Y95.206 E0.04563
G1 X133.884 Y95.816 E0.02857
G1 X134.871 Y96.884 E0.04558
G1 X135.729 Y98.059 E0.04563
G1 X136.194 Y98.838 E0.02844
G1 X136.824 Y100.153 E0.04572
G1 X137.298 Y101.530 E0.04565
G1 X137.514 Y102.413 E0.02851
G1 X137.728 Y103.852 E0.04563
G1 X137.775 Y105.312 E0.04581
G1 X137.721 Y106.214 E0.02832
G1 X137.501 Y107.653 E0.04565
G1 X137.113 Y109.070 E0.04605
G1 X136.799 Y109.908 E0.02806
G1 X136.164 Y111.219 E0.04568
G1 X135.378 Y112.455 E0.04593
G1 X134.829 Y113.166 E0.02815
G1 X133.844 Y114.224 E0.04534
G1 X132.035 Y115.668 E0.07256
G1 X130.780 Y116.395 E0.04548
G1 X129.952 Y116.778 E0.02860
G1 X128.583 Y117.265 E0.04556
G1 X127.169 Y117.591 E0.04551
G1 X126.269 Y117.713 E0.02846
G1 X124.847 Y117.776 E0.04463
G1 X122.533 Y117.536 E0.07295
G1 X121.115 Y117.171 E0.04593
G1 X120.269 Y116.867 E0.02815
G1 X118.952 Y116.254 E0.04558
G1 X117.704 Y115.486 E0.04593
G1 X116.986 Y114.948 E0.02813
G1 X115.907 Y113.973 E0.04560
G1 X114.440 Y112.189 E0.07242
G1 X113.695 Y110.948 E0.04539
G1 X113.298 Y110.123 E0.02869
G1 X112.792 Y108.764 E0.04547
G1 X112.444 Y107.351 E0.04563
G1 X112.309 Y106.455 E0.02843
G1 X112.225 Y104.999 E0.04573
G1 X112.309 Y103.546 E0.04563
G1 X112.445 Y102.646 E0.02852
G1 X112.792 Y101.237 E0.04551
G1 X113.298 Y99.877 E0.04551
G1 X113.694 Y99.054 E0.02862
G1 X114.441 Y97.809 E0.04553
G1 X115.845 Y96.102 E0.06929
G1 F8640.000
G1 X116.985 Y95.052 E-0.35793
G1 X117.703 Y94.514 E-0.20699
G1 X118.952 Y93.746 E-0.33856
G1 X120.270 Y93.133 E-0.33570
G1 X120.640 Y93.000 E-0.09083
G1 E-0.07000 F2100.00000
G1 Z0.400 F10800.000
G1 X122.322 Y102.540
G1 Z0.200
G1 E1.40000 F2100.00000
G1 F1200.000
G1 X122.620 Y102.250 E0.01303
G1 X122.949 Y101.997 E0.01303
G1 X123.304 Y101.782 E0.01303
G1 X123.682 Y101.610 E0.01303
G1 X124.077 Y101.481 E0.01303
G1 X124.485 Y101.399 E0.01303
G1 X124.877 Y101.365 E0.01236
G1 X125.312 Y101.375 E0.01363
G1 X125.725 Y101.434 E0.01308
G1 X126.127 Y101.540 E0.01303
G1 X126.514 Y101.690 E0.01303
G1 X126.881 Y101.884 E0.01303
G1 X127.224 Y102.119 E0.01303
G1 X127.538 Y102.391 E0.01303
G1 X127.819 Y102.697 E0.01303
G1 X128.063 Y103.033 E0.01303
G1 X128.267 Y103.395 E0.01303
G1 X128.429 Y103.777 E0.01303
G1 X128.546 Y104.176 E0.01303
G1 X128.617 Y104.585 E0.01303
G1 X128.641 Y105.000 E0.01303
G1 X128.617 Y105.415 E0.01303
G1 X128.546 Y105.824 E0.01303
G1 X128.429 Y106.223 E0.01303
G1 X128.267 Y106.605 E0.01303
G1 X128.074 Y106.948 E0.01236
G1 X127.820 Y107.302 E0.01364
G1 X127.538 Y107.609 E0.01308
G1 X127.224 Y107.881 E0.01303
G1 X126.881 Y108.116 E0.01303
G1 X126.514 Y108.310 E0.01303
G1 X126.127 Y108.460 E0.01303
G1 X125.725 Y108.566 E0.01303
G1 X125.314 Y108.625 E0.01303
G1 X124.898 Y108.637 E0.01303
G1 X124.485 Y108.601 E0.01303
G1 X124.077 Y108.519 E0.01303
G1 X123.682 Y108.390 E0.01303
G1 X123.304 Y108.218 E0.01303
G1 X122.967 Y108.014 E0.01236
G1 X122.621 Y107.751 E0.01363
G1 X122.322 Y107.460 E0.01308
G1 X122.059 Y107.139 E0.01303
G1 X121.834 Y106.789 E0.01303
G1 X121.651 Y106.416 E0.01303
G1 X121.511 Y106.025 E0.01303
G1 X121.417 Y105.620 E0.01303
G1 X121.370 Y105.208 E0.01303
G1 X121.370 Y104.792 E0.01303
G1 X121.417 Y104.380 E0.01303
G1 X121.511 Y103.975 E0.01303
G1 X121.651 Y103.584 E0.01303
G1 X121.834 Y103.211 E0.01303
G1 X122.059 Y102.861 E0.01303
G1 X122.284 Y102.586 E0.01114
G1 X122.576 Y102.825 F10800.000
G1 F1200.000
G1 X122.867 Y102.536 E0.01287
G1 X123.162 Y102.308 E0.01167
G1 X123.481 Y102.116 E0.01167
G1 X123.819 Y101.962 E0.01167
G1 X124.173 Y101.846 E0.01167
G1 X124.538 Y101.773 E0.01167
G1 X124.889 Y101.742 E0.01104
G1 X125.281 Y101.751 E0.01228
G1 X125.650 Y101.804 E0.01169
G1 X126.010 Y101.899 E0.01167
G1 X126.357 Y102.034 E0.01167
G1 X126.686 Y102.208 E0.01167
G1 X126.993 Y102.418 E0.01167
G1 X127.275 Y102.662 E0.01167
G1 X127.527 Y102.936 E0.01167
G1 X127.745 Y103.237 E0.01167
G1 X127.928 Y103.561 E0.01167
G1 X128.073 Y103.904 E0.01167
G1 X128.178 Y104.261 E0.01167
G1 X128.242 Y104.628 E0.01167
G1 X128.263 Y105.000 E0.01167
G1 X128.242 Y105.372 E0.01167
G1 X128.178 Y105.739 E0.01167
G1 X128.073 Y106.096 E0.01167
G1 X127.928 Y106.439 E0.01167
G1 X127.755 Y106.745 E0.01104
G1 X127.527 Y107.064 E0.01228
G1 X127.275 Y107.338 E0.01169
G1 X126.993 Y107.582 E0.01167
G1 X126.686 Y107.792 E0.01167
G1 X126.357 Y107.966 E0.01167
G1 X126.010 Y108.101 E0.01167
G1 X125.650 Y108.196 E0.01167
G1 X125.281 Y108.249 E0.01167
G1 X124.909 Y108.259 E0.01167
G1 X124.538 Y108.227 E0.01167
G1 X124.173 Y108.154 E0.01167
G1 X123.819 Y108.039 E0.01167
G1 X123.481 Y107.884 E0.01167
G1 X123.179 Y107.702 E0.01104
G1 X122.868 Y107.465 E0.01228
G1 X122.600 Y107.205 E0.01169
G1 X122.364 Y106.917 E0.01167
G1 X122.163 Y106.603 E0.01167
G1 X121.999 Y106.269 E0.01167
G1 X121.874 Y105.919 E0.01167
G1 X121.789 Y105.556 E0.01167
G1 X121.747 Y105.186 E0.01167
G1 X121.747 Y104.814 E0.01167
G1 X121.789 Y104.444 E0.01167
G1 X121.874 Y104.081 E0.01167
G1 X121.999 Y103.731 E0.01167
G1 X122.163 Y103.397 E0.01167
G1 X122.364 Y103.083 E0.01167
G1 X122.538 Y102.871 E0.00859
G1 X122.453 Y102.444 F10800.000
G1 F8640.000
G1 X122.867 Y102.536 E-0.10858
G1 X123.162 Y102.308 E-0.08596
G1 X123.481 Y102.116 E-0.08596
G1 X123.819 Y101.962 E-0.08596
G1 X124.173 Y101.846 E-0.08596
G1 X124.538 Y101.773 E-0.08596
G1 X124.889 Y101.742 E-0.08130
G1 X125.281 Y101.751 E-0.09045
G1 X125.650 Y101.804 E-0.08611
G1 X126.010 Y101.899 E-0.08596
G1 X126.357 Y102.034 E-0.08596
G1 X126.686 Y102.208 E-0.08596
G1 X126.993 Y102.418 E-0.08596
G1 X127.275 Y102.662 E-0.08596
G1 X127.527 Y102.936 E-0.08596
G1 X127.572 Y102.999 E-0.01795
G1 E-0.07000 F2100.00000
G1 Z0.400 F10800.000
G1 X117.631 Y98.837
G1 Z0.200
G1 E1.40000 F2100.00000
G1 F1200.000
G1 X118.157 Y98.251 E0.02468
G1 X118.568 Y97.858 E0.01783
G1 X119.008 Y97.486 E0.01806
G1 X119.470 Y97.139 E0.01811
G1 X119.945 Y96.826 E0.01785
G1 X120.450 Y96.534 E0.01831
G1 X120.959 Y96.279 E0.01783
G1 X121.488 Y96.053 E0.01805
G1 X122.032 Y95.858 E0.01811
G1 X122.579 Y95.698 E0.01786
G1 X123.148 Y95.568 E0.01831
G1 X123.709 Y95.475 E0.01783
G1 X124.276 Y95.415 E0.01789
G1 X125.140 Y95.393 E0.02710
G1 X126.016 Y95.441 E0.02750
G1 X126.574 Y95.517 E0.01765
G1 X127.139 Y95.628 E0.01807
G1 X127.697 Y95.773 E0.01807
G1 X128.246 Y95.951 E0.01811
G1 X128.782 Y96.162 E0.01807
G1 X129.305 Y96.404 E0.01807
G1 X129.806 Y96.674 E0.01783
G1 X130.303 Y96.981 E0.01831
G1 X130.769 Y97.309 E0.01787
G1 X131.219 Y97.669 E0.01808
G1 X131.648 Y98.054 E0.01807
G1 X132.047 Y98.459 E0.01783
G1 X132.431 Y98.899 E0.01831
G1 X132.779 Y99.350 E0.01786
G1 X133.104 Y99.827 E0.01811
G1 X133.399 Y100.321 E0.01805
G1 X133.661 Y100.826 E0.01783
G1 X133.899 Y101.360 E0.01831
G1 X134.099 Y101.892 E0.01785
G1 X134.269 Y102.444 E0.01811
G1 X134.405 Y103.004 E0.01806
G1 X134.507 Y103.564 E0.01783
G1 X134.577 Y104.143 E0.01831
G1 X134.611 Y104.711 E0.01783
G1 X134.611 Y105.289 E0.01811
G1 X134.576 Y105.864 E0.01807
G1 X134.507 Y106.436 E0.01807
G1 X134.405 Y106.996 E0.01783
G1 X134.267 Y107.563 E0.01831
G1 X134.099 Y108.107 E0.01787
G1 X133.896 Y108.647 E0.01808
G1 X133.662 Y109.174 E0.01807
G1 X133.400 Y109.678 E0.01783
G1 X133.100 Y110.180 E0.01831
G1 X132.779 Y110.650 E0.01786
G1 X132.426 Y111.107 E0.01811
G1 X132.047 Y111.540 E0.01805
G1 X131.648 Y111.946 E0.01783
G1 X131.214 Y112.336 E0.01831
G1 X130.769 Y112.691 E0.01785
G1 X130.296 Y113.023 E0.01811
G1 X129.806 Y113.326 E0.01806
G1 X129.305 Y113.596 E0.01783
G1 X128.776 Y113.841 E0.01831
G1 X128.246 Y114.049 E0.01783
G1 X127.697 Y114.227 E0.01811
G1 X127.139 Y114.372 E0.01807
G1 X126.581 Y114.482 E0.01783
G1 X126.002 Y114.560 E0.01831
G1 X125.436 Y114.603 E0.01782
G1 X124.858 Y114.611 E0.01811
G1 X124.282 Y114.586 E0.01808
G1 X123.709 Y114.525 E0.01807
G1 X123.148 Y114.432 E0.01783
G1 X122.579 Y114.302 E0.01831
G1 X122.032 Y114.142 E0.01786
G1 X121.488 Y113.947 E0.01811
G1 X120.959 Y113.721 E0.01805
G1 X120.450 Y113.466 E0.01783
G1 X119.945 Y113.174 E0.01831
G1 X119.470 Y112.861 E0.01785
G1 X119.008 Y112.514 E0.01811
G1 X118.568 Y112.142 E0.01806
G1 X118.157 Y111.749 E0.01783
G1 X117.760 Y111.321 E0.01831
G1 X117.399 Y110.881 E0.01783
G1 X117.059 Y110.414 E0.01811
G1 X116.749 Y109.928 E0.01807
G1 X116.472 Y109.431 E0.01783
G1 X116.219 Y108.905 E0.01831
G1 X116.003 Y108.379 E0.01782
G1 X115.817 Y107.833 E0.01811
G1 X115.663 Y107.277 E0.01808
G1 X115.545 Y106.721 E0.01783
G1 X115.458 Y106.143 E0.01831
G1 X115.407 Y105.577 E0.01781
G1 X115.390 Y105.000 E0.01811
G1 X115.407 Y104.423 E0.01811
G1 X115.458 Y103.857 E0.01781
G1 X115.545 Y103.279 E0.01831
G1 X115.663 Y102.723 E0.01783
G1 X115.817 Y102.167 E0.01808
G1 X116.003 Y101.621 E0.01811
G1 X116.219 Y101.095 E0.01782
G1 X116.472 Y100.569 E0.01831
G1 X116.749 Y100.072 E0.01783
G1 X117.059 Y99.586 E0.01807
G1 X117.593 Y98.883 E0.02767
G1 X117.301 Y98.644 F10800.000
G1 F1200.000
G1 X117.888 Y97.987 E0.02762
G1 X118.316 Y97.578 E0.01854
G1 X118.772 Y97.191 E0.01877
G1 X119.253 Y96.831 E0.01882
G1 X119.746 Y96.505 E0.01855
G1 X120.271 Y96.201 E0.01901
G1 X120.800 Y95.937 E0.01854
G1 X121.350 Y95.702 E0.01876
G1 X121.915 Y95.499 E0.01882
G1 X122.484 Y95.333 E0.01856
G1 X123.075 Y95.198 E0.01901
G1 X123.658 Y95.101 E0.01854
G1 X124.252 Y95.038 E0.01871
G1 X125.146 Y95.016 E0.02804
G1 X126.051 Y95.065 E0.02844
G1 X126.635 Y95.145 E0.01848
G1 X127.223 Y95.260 E0.01878
G1 X127.803 Y95.411 E0.01878
G1 X128.373 Y95.596 E0.01882
G1 X128.931 Y95.815 E0.01878
G1 X129.474 Y96.067 E0.01878
G1 X129.995 Y96.347 E0.01854
G1 X130.511 Y96.666 E0.01901
G1 X130.995 Y97.007 E0.01857
G1 X131.463 Y97.381 E0.01879
G1 X131.908 Y97.782 E0.01878
G1 X132.323 Y98.203 E0.01854
G1 X132.722 Y98.660 E0.01901
G1 X133.084 Y99.128 E0.01856
G1 X133.422 Y99.624 E0.01882
G1 X133.729 Y100.138 E0.01876
G1 X134.001 Y100.663 E0.01854
G1 X134.248 Y101.217 E0.01901
G1 X134.456 Y101.771 E0.01855
G1 X134.633 Y102.344 E0.01882
G1 X134.774 Y102.926 E0.01877
G1 X134.880 Y103.507 E0.01854
G1 X134.952 Y104.110 E0.01901
G1 X134.988 Y104.700 E0.01854
G1 X134.988 Y105.300 E0.01882
G1 X134.952 Y105.898 E0.01878
G1 X134.880 Y106.492 E0.01878
G1 X134.774 Y107.074 E0.01854
G1 X134.630 Y107.663 E0.01901
G1 X134.456 Y108.229 E0.01857
G1 X134.245 Y108.790 E0.01879
G1 X134.001 Y109.337 E0.01878
G1 X133.729 Y109.862 E0.01854
G1 X133.418 Y110.383 E0.01901
G1 X133.084 Y110.872 E0.01856
G1 X132.717 Y111.347 E0.01882
G1 X132.323 Y111.797 E0.01876
G1 X131.908 Y112.218 E0.01854
G1 X131.458 Y112.624 E0.01901
G1 X130.995 Y112.993 E0.01855
G1 X130.504 Y113.338 E0.01882
G1 X129.995 Y113.653 E0.01877
G1 X129.474 Y113.933 E0.01854
G1 X128.924 Y114.188 E0.01901
G1 X128.373 Y114.404 E0.01854
G1 X127.803 Y114.589 E0.01882
G1 X127.223 Y114.740 E0.01878
G1 X126.643 Y114.854 E0.01854
G1 X126.042 Y114.935 E0.01901
G1 X125.452 Y114.980 E0.01853
G1 X124.852 Y114.989 E0.01882
G1 X124.254 Y114.962 E0.01879
G1 X123.658 Y114.899 E0.01878
G1 X123.075 Y114.802 E0.01854
G1 X122.484 Y114.667 E0.01901
G1 X121.915 Y114.501 E0.01856
G1 X121.350 Y114.298 E0.01882
G1 X120.800 Y114.063 E0.01876
G1 X120.271 Y113.799 E0.01854
G1 X119.746 Y113.495 E0.01901
G1 X119.253 Y113.169 E0.01855
G1 X118.772 Y112.809 E0.01882
G1 X118.316 Y112.422 E0.01877
G1 X117.888 Y112.013 E0.01854
G1 X117.476 Y111.569 E0.01901
G1 X117.100 Y111.112 E0.01854
G1 X116.748 Y110.626 E0.01882
G1 X116.425 Y110.122 E0.01878
G1 X116.137 Y109.605 E0.01854
G1 X115.874 Y109.059 E0.01901
G1 X115.650 Y108.512 E0.01853
G1 X115.456 Y107.944 E0.01882
G1 X115.297 Y107.366 E0.01879
G1 X115.174 Y106.788 E0.01854
G1 X115.084 Y106.188 E0.01901
G1 X115.031 Y105.600 E0.01852
G1 X115.013 Y105.000 E0.01882
G1 X115.031 Y104.400 E0.01882
G1 X115.084 Y103.812 E0.01852
G1 X115.174 Y103.212 E0.01901
G1 X115.297 Y102.634 E0.01854
G1 X115.456 Y102.056 E0.01879
G1 X115.650 Y101.488 E0.01882
G1 X115.874 Y100.941 E0.01853
G1 X116.137 Y100.395 E0.01901
G1 X116.425 Y99.878 E0.01854
G1 X116.748 Y99.374 E0.01878
G1 X117.263 Y98.690 E0.02685
G1 X117.696 Y98.711 F10800.000
G1 F8640.000
G1 X117.888 Y97.987 E-0.21727
G1 X118.316 Y97.578 E-0.13654
G1 X118.772 Y97.191 E-0.13820
G1 X119.253 Y96.831 E-0.13860
G1 X119.746 Y96.505 E-0.13662
G1 X120.271 Y96.201 E-0.14003
G1 X120.800 Y95.937 E-0.13654
G1 X121.350 Y95.702 E-0.13812
G1 X121.915 Y95.499 E-0.13860
G1 X121.955 Y95.488 E-0.00948
G1 E-0.07000 F2100.00000
G1 Z0.400 F10800.000
