; generated by PrusaSlicer 2.2.0+win64 on 2020-07-06 at 12:57:32 UTC

; 

; external perimeters extrusion width = 0.45mm
; perimeters extrusion width = 0.45mm
; infill extrusion width = 0.45mm
; solid infill extrusion width = 0.45mm
; top infill extrusion width = 0.40mm
; first layer extrusion width = 0.42mm

M73 P0 R81
M73 Q0 S82
M201 X1000 Y1000 Z200 E5000 ; sets maximum accelerations, mm/sec^2
M203 X200 Y200 Z12 E120 ; sets maximum feedrates, mm/sec
M204 P1250 R1250 T1250 ; sets acceleration (P, T) and retract acceleration (R), mm/sec^2
M205 X8.00 Y8.00 Z0.40 E4.50 ; sets the jerk limits, mm/sec
M205 S0 T0 ; sets the minimum extruding and travel feed rate, mm/sec
M107
M862.3 P "MK3S" ; printer model check
M862.1 P0.4 ; nozzle diameter check
M115 U3.9.0 ; tell printer latest fw version
G90 ; use absolute coordinates
M83 ; extruder relative mode
M104 S240 ; set extruder temp
M140 S85 ; set bed temp
M190 S85 ; wait for bed temp
M109 S240 ; wait for extruder temp
G28 W ; home all without mesh bed level
G80 ; mesh bed leveling
G1 Y-3.0 F1000.0 ; go outside print area
G92 E0.0
G1 X60.0 E9.0 F1000.0 ; intro line
M73 Q0 S81
M73 P0 R81
G1 X100.0 E12.5 F1000.0 ; intro line
G92 E0.0
M221 S95
G21 ; set units to millimeters
G90 ; use absolute coordinates
M83 ; use relative distances for extrusion
M900 K0.12 ; Filament gcode LA 1.5
M900 K45 ; Filament gcode LA 1.0
;BEFORE_LAYER_CHANGE
G92 E0.0
;0.2


G1 E-1.40000 F2100.00000
G1 Z0.200 F10800.000
;AFTER_LAYER_CHANGE
;0.2
G1 Z0.400
G1 X159.649 Y86.374
G1 Z0.200
G1 E1.40000 F2100.00000
M204 S1000
G1 F1200.000
G1 X160.412 Y86.875 E0.02860
G1 X160.973 Y87.445 E0.02507
G1 X161.255 Y87.850 E0.01550
G1 X161.468 Y88.375 E0.01775
G1 X161.551 Y88.935 E0.01775
G1 X161.549 Y121.122 E1.00920
G1 X161.419 Y121.785 E0.02119
G1 X161.107 Y122.385 E0.02119
G1 X160.340 Y123.192 E0.03494
G1 X159.802 Y123.557 E0.02036
G1 X159.294 Y123.739 E0.01692
G1 X158.758 Y123.802 E0.01692
G1 X88.625 Y123.802 E2.19896
G1 X87.937 Y123.685 E0.02190
G1 X87.315 Y123.375 E0.02178
G1 X86.488 Y122.595 E0.03565
G1 X86.118 Y122.052 E0.02060
G1 X85.879 Y121.176 E0.02849
G1 X85.879 Y118.825 E0.07370
G1 X86.057 Y118.084 E0.02390
G1 X86.460 Y117.436 E0.02390
G1 X116.563 Y86.901 E1.34445
G1 X117.197 Y86.444 E0.02449
G1 X117.701 Y86.262 E0.01680
G1 X118.237 Y86.198 E0.01692
G1 X158.754 Y86.198 E1.27039
G1 X159.590 Y86.363 E0.02672
G1 F8640.000
G1 X160.412 Y86.875 E-0.22354
G1 X160.973 Y87.445 E-0.18461
G1 X161.255 Y87.850 E-0.11413
G1 X161.468 Y88.375 E-0.13074
G1 X161.551 Y88.935 E-0.13074
G1 X161.551 Y91.300 E-0.54624
G1 E-0.07000 F2100.00000
G1 Z0.400 F10800.000
G1 X158.063 Y89.687
G1 Z0.200
G1 E1.40000 F2100.00000
G1 F1200.000
G1 X158.063 Y120.313 E0.96025
G1 X89.037 Y120.313 E2.16426
G1 X89.037 Y119.787 E0.01649
G1 X119.037 Y119.787 E0.94063
G1 X119.037 Y89.687 E0.94376
G1 X158.003 Y89.687 E1.22175
G1 F8640.000
G1 X158.014 Y95.447 E-1.33000
G1 E-0.07000 F2100.00000
G1 Z0.400 F10800.000
G1 X118.660 Y119.410
G1 Z0.200
G1 E1.40000 F2100.00000
G1 F1200.000
G1 X118.660 Y89.310 E0.94376
G1 X158.440 Y89.310 E1.24727
G1 X158.440 Y120.690 E0.98390
G1 X88.660 Y120.690 E2.18790
G1 X88.660 Y119.410 E0.04013
G1 X118.600 Y119.410 E0.93875
G1 X119.060 Y119.404 F10800.000
G1 X119.150 Y119.246
G1 F1200.000
G1 X119.935 Y120.030 E0.03494
G1 X120.470 Y120.030 E0.01686
G1 X119.320 Y118.880 E0.05123
G1 X119.320 Y118.344 E0.01686
G1 X121.006 Y120.030 E0.07508
G1 X121.541 Y120.030 E0.01686
G1 X119.320 Y117.809 E0.09893
G1 X119.320 Y117.273 E0.01686
G1 X122.077 Y120.030 E0.12278
G1 X122.613 Y120.030 E0.01686
G1 X119.320 Y116.737 E0.14662
G1 X119.320 Y116.202 E0.01686
G1 X123.148 Y120.030 E0.17047
G1 X123.684 Y120.030 E0.01686
G1 X119.320 Y115.666 E0.19432
G1 X119.320 Y115.131 E0.01686
G1 X124.219 Y120.030 E0.21817
G1 X124.755 Y120.030 E0.01686
G1 X119.320 Y114.595 E0.24202
G1 X119.320 Y114.060 E0.01686
G1 X125.290 Y120.030 E0.26587
G1 X125.826 Y120.030 E0.01686
G1 X119.320 Y113.524 E0.28972
G1 X119.320 Y112.989 E0.01686
G1 X126.361 Y120.030 E0.31357
G1 X126.897 Y120.030 E0.01686
G1 X119.320 Y112.453 E0.33741
G1 X119.320 Y111.918 E0.01686
G1 X127.432 Y120.030 E0.36126
G1 X127.968 Y120.030 E0.01686
G1 X119.320 Y111.382 E0.38511
G1 X119.320 Y110.846 E0.01686
G1 X128.504 Y120.030 E0.40896
G1 X129.039 Y120.030 E0.01686
G1 X119.320 Y110.311 E0.43281
G1 X119.320 Y109.775 E0.01686
G1 X129.575 Y120.030 E0.45666
G1 X130.110 Y120.030 E0.01686
G1 X119.320 Y109.240 E0.48051
G1 X119.320 Y108.704 E0.01686
G1 X130.646 Y120.030 E0.50435
G1 X131.181 Y120.030 E0.01686
G1 X119.320 Y108.169 E0.52820
G1 X119.320 Y107.633 E0.01686
G1 X131.717 Y120.030 E0.55205
G1 X132.252 Y120.030 E0.01686
G1 X119.320 Y107.098 E0.57590
G1 X119.320 Y106.562 E0.01686
G1 X132.788 Y120.030 E0.59975
G1 X133.324 Y120.030 E0.01686
G1 X119.320 Y106.026 E0.62360
G1 X119.320 Y105.491 E0.01686
G1 X133.859 Y120.030 E0.64745
G1 X134.395 Y120.030 E0.01686
G1 X119.320 Y104.955 E0.67130
G1 X119.320 Y104.420 E0.01686
G1 X134.930 Y120.030 E0.69514
G1 X135.466 Y120.030 E0.01686
G1 X119.320 Y103.884 E0.71899
G1 X119.320 Y103.349 E0.01686
G1 X136.001 Y120.030 E0.74284
G1 X136.537 Y120.030 E0.01686
G1 X119.320 Y102.813 E0.76669
G1 X119.320 Y102.278 E0.01686
G1 X137.072 Y120.030 E0.79054
G1 X137.608 Y120.030 E0.01686
G1 X119.320 Y101.742 E0.81439
G1 X119.320 Y101.207 E0.01686
G1 X138.143 Y120.030 E0.83824
M73 Q1 S80
M73 P1 R80
G1 X138.679 Y120.030 E0.01686
G1 X119.320 Y100.671 E0.86208
G1 X119.320 Y100.135 E0.01686
G1 X139.215 Y120.030 E0.88593
G1 X139.750 Y120.030 E0.01686
G1 X119.320 Y99.600 E0.90978
G1 X119.320 Y99.064 E0.01686
G1 X140.286 Y120.030 E0.93363
G1 X140.821 Y120.030 E0.01686
G1 X119.320 Y98.529 E0.95748
G1 X119.320 Y97.993 E0.01686
G1 X141.357 Y120.030 E0.98133
G1 X141.892 Y120.030 E0.01686
G1 X119.320 Y97.458 E1.00518
G1 X119.320 Y96.922 E0.01686
G1 X142.428 Y120.030 E1.02902
G1 X142.963 Y120.030 E0.01686
G1 X119.320 Y96.387 E1.05287
G1 X119.320 Y95.851 E0.01686
G1 X143.499 Y120.030 E1.07672
G1 X144.035 Y120.030 E0.01686
G1 X119.320 Y95.315 E1.10057
G1 X119.320 Y94.780 E0.01686
G1 X144.570 Y120.030 E1.12442
G1 X145.106 Y120.030 E0.01686
G1 X119.320 Y94.244 E1.14827
G1 X119.320 Y93.709 E0.01686
G1 X145.641 Y120.030 E1.17212
G1 X146.177 Y120.030 E0.01686
G1 X119.320 Y93.173 E1.19597
G1 X119.320 Y92.638 E0.01686
G1 X146.712 Y120.030 E1.21981
G1 X147.248 Y120.030 E0.01686
G1 X119.320 Y92.102 E1.24366
G1 X119.320 Y91.567 E0.01686
G1 X147.783 Y120.030 E1.26751
G1 X148.319 Y120.030 E0.01686
G1 X119.320 Y91.031 E1.29136
G1 X119.320 Y90.496 E0.01686
G1 X148.854 Y120.030 E1.31521
G1 X149.390 Y120.030 E0.01686
G1 X119.330 Y89.970 E1.33862
G1 X119.865 Y89.970 E0.01686
G1 X149.926 Y120.030 E1.33862
G1 X150.461 Y120.030 E0.01686
G1 X120.401 Y89.970 E1.33862
G1 X120.936 Y89.970 E0.01686
G1 X150.997 Y120.030 E1.33862
G1 X151.532 Y120.030 E0.01686
G1 X121.472 Y89.970 E1.33862
G1 X122.008 Y89.970 E0.01686
G1 X152.068 Y120.030 E1.33862
G1 X152.603 Y120.030 E0.01686
G1 X122.543 Y89.970 E1.33862
G1 X123.079 Y89.970 E0.01686
G1 X153.139 Y120.030 E1.33862
G1 X153.674 Y120.030 E0.01686
G1 X123.614 Y89.970 E1.33862
G1 X124.150 Y89.970 E0.01686
G1 X154.210 Y120.030 E1.33862
G1 X154.746 Y120.030 E0.01686
G1 X124.685 Y89.970 E1.33862
G1 X125.221 Y89.970 E0.01686
G1 X155.281 Y120.030 E1.33862
M73 Q2 S79
M73 P2 R79
G1 X155.817 Y120.030 E0.01686
G1 X125.756 Y89.970 E1.33862
G1 X126.292 Y89.970 E0.01686
G1 X156.352 Y120.030 E1.33862
G1 X156.888 Y120.030 E0.01686
G1 X126.827 Y89.970 E1.33862
G1 X127.363 Y89.970 E0.01686
G1 X157.423 Y120.030 E1.33862
G1 X157.780 Y120.030 E0.01124
G1 X157.780 Y119.851 E0.00563
G1 X127.899 Y89.970 E1.33066
G1 X128.434 Y89.970 E0.01686
G1 X157.780 Y119.316 E1.30681
G1 X157.780 Y118.780 E0.01686
G1 X128.970 Y89.970 E1.28296
G1 X129.505 Y89.970 E0.01686
G1 X157.780 Y118.245 E1.25911
G1 X157.780 Y117.709 E0.01686
G1 X130.041 Y89.970 E1.23527
G1 X130.576 Y89.970 E0.01686
G1 X157.780 Y117.174 E1.21142
G1 X157.780 Y116.638 E0.01686
G1 X131.112 Y89.970 E1.18757
G1 X131.647 Y89.970 E0.01686
G1 X157.780 Y116.103 E1.16372
G1 X157.780 Y115.567 E0.01686
G1 X132.183 Y89.970 E1.13987
G1 X132.719 Y89.970 E0.01686
G1 X157.780 Y115.031 E1.11602
G1 X157.780 Y114.496 E0.01686
G1 X133.254 Y89.970 E1.09217
G1 X133.790 Y89.970 E0.01686
G1 X157.780 Y113.960 E1.06833
G1 X157.780 Y113.425 E0.01686
G1 X134.325 Y89.970 E1.04448
G1 X134.861 Y89.970 E0.01686
G1 X157.780 Y112.889 E1.02063
G1 X157.780 Y112.354 E0.01686
G1 X135.396 Y89.970 E0.99678
G1 X135.932 Y89.970 E0.01686
G1 X157.780 Y111.818 E0.97293
G1 X157.780 Y111.283 E0.01686
G1 X136.467 Y89.970 E0.94908
G1 X137.003 Y89.970 E0.01686
G1 X157.780 Y110.747 E0.92523
G1 X157.780 Y110.212 E0.01686
G1 X137.538 Y89.970 E0.90138
G1 X138.074 Y89.970 E0.01686
G1 X157.780 Y109.676 E0.87754
G1 X157.780 Y109.140 E0.01686
G1 X138.610 Y89.970 E0.85369
G1 X139.145 Y89.970 E0.01686
G1 X157.780 Y108.605 E0.82984
G1 X157.780 Y108.069 E0.01686
G1 X139.681 Y89.970 E0.80599
G1 X140.216 Y89.970 E0.01686
G1 X157.780 Y107.534 E0.78214
G1 X157.780 Y106.998 E0.01686
G1 X140.752 Y89.970 E0.75829
G1 X141.287 Y89.970 E0.01686
G1 X157.780 Y106.463 E0.73444
G1 X157.780 Y105.927 E0.01686
G1 X141.823 Y89.970 E0.71060
G1 X142.358 Y89.970 E0.01686
G1 X157.780 Y105.392 E0.68675
G1 X157.780 Y104.856 E0.01686
G1 X142.894 Y89.970 E0.66290
G1 X143.430 Y89.970 E0.01686
G1 X157.780 Y104.320 E0.63905
G1 X157.780 Y103.785 E0.01686
G1 X143.965 Y89.970 E0.61520
G1 X144.501 Y89.970 E0.01686
G1 X157.780 Y103.249 E0.59135
G1 X157.780 Y102.714 E0.01686
G1 X145.036 Y89.970 E0.56750
G1 X145.572 Y89.970 E0.01686
G1 X157.780 Y102.178 E0.54365
M73 Q3 S78
M73 P3 R78
G1 X157.780 Y101.643 E0.01686
G1 X146.107 Y89.970 E0.51981
G1 X146.643 Y89.970 E0.01686
G1 X157.780 Y101.107 E0.49596
G1 X157.780 Y100.572 E0.01686
G1 X147.178 Y89.970 E0.47211
G1 X147.714 Y89.970 E0.01686
G1 X157.780 Y100.036 E0.44826
G1 X157.780 Y99.501 E0.01686
G1 X148.249 Y89.970 E0.42441
G1 X148.785 Y89.970 E0.01686
G1 X157.780 Y98.965 E0.40056
G1 X157.780 Y98.429 E0.01686
G1 X149.321 Y89.970 E0.37671
G1 X149.856 Y89.970 E0.01686
G1 X157.780 Y97.894 E0.35287
G1 X157.780 Y97.358 E0.01686
G1 X150.392 Y89.970 E0.32902
G1 X150.927 Y89.970 E0.01686
G1 X157.780 Y96.823 E0.30517
G1 X157.780 Y96.287 E0.01686
G1 X151.463 Y89.970 E0.28132
G1 X151.998 Y89.970 E0.01686
G1 X157.780 Y95.752 E0.25747
G1 X157.780 Y95.216 E0.01686
G1 X152.534 Y89.970 E0.23362
G1 X153.069 Y89.970 E0.01686
G1 X157.780 Y94.681 E0.20977
G1 X157.780 Y94.145 E0.01686
G1 X153.605 Y89.970 E0.18593
G1 X154.141 Y89.970 E0.01686
G1 X157.780 Y93.609 E0.16208
G1 X157.780 Y93.074 E0.01686
G1 X154.676 Y89.970 E0.13823
G1 X155.212 Y89.970 E0.01686
G1 X157.780 Y92.538 E0.11438
G1 X157.780 Y92.003 E0.01686
G1 X155.747 Y89.970 E0.09053
G1 X156.283 Y89.970 E0.01686
G1 X157.780 Y91.467 E0.06668
G1 X157.780 Y90.932 E0.01686
G1 X156.818 Y89.970 E0.04283
G1 X157.354 Y89.970 E0.01686
G1 X157.950 Y90.566 E0.02654
G1 F8640.000
G1 X157.354 Y89.970 E-0.19462
G1 X156.818 Y89.970 E-0.12366
G1 X157.780 Y90.932 E-0.31409
G1 X157.780 Y91.467 E-0.12366
G1 X156.283 Y89.970 E-0.48898
G1 X155.915 Y89.970 E-0.08499
G1 E-0.07000 F2100.00000
G1 Z0.400 F10800.000
G1 X119.226 Y120.050
G1 Z0.200
G1 E1.40000 F2100.00000
G1 F1200.000
G1 X89.226 Y120.050 E0.37109
;BEFORE_LAYER_CHANGE
G92 E0.0
;0.35


G1 F8640.000
G1 X94.986 Y120.050 E-1.33000
G1 E-0.07000 F2100.00000
G1 Z0.400 F10800.000
;AFTER_LAYER_CHANGE
;0.35
M104 S250 ; set temperature
M140 S90 ; set bed temperature
G1 X86.118 Y122.052
G1 Z0.350
G1 E1.40000 F2100.00000
G1 F3000.000
G1 X85.879 Y121.176 E0.02197
G1 X85.879 Y118.825 E0.05685
G1 X86.057 Y118.084 E0.01844
G1 X86.460 Y117.436 E0.01844
G1 X116.563 Y86.901 E1.03703
G1 X117.197 Y86.444 E0.01889
G1 X117.701 Y86.262 E0.01296
G1 X118.237 Y86.198 E0.01305
G1 X158.754 Y86.198 E0.97991
G1 X159.649 Y86.374 E0.02206
G1 X160.412 Y86.875 E0.02206
G1 X160.973 Y87.445 E0.01934
G1 X161.255 Y87.850 E0.01195
G1 X161.468 Y88.375 E0.01369
G1 X161.551 Y88.935 E0.01369
G1 X161.549 Y121.122 E0.77844
G1 X161.419 Y121.785 E0.01634
G1 X161.107 Y122.385 E0.01634
G1 X160.340 Y123.192 E0.02695
G1 X159.802 Y123.557 E0.01570
G1 X159.294 Y123.739 E0.01305
G1 X158.758 Y123.802 E0.01305
G1 X88.625 Y123.802 E1.69615
G1 X87.937 Y123.685 E0.01689
G1 X87.315 Y123.375 E0.01680
G1 X86.488 Y122.595 E0.02750
G1 X86.152 Y122.102 E0.01443
G1 F8640.000
G1 X85.879 Y121.176 E-0.22293
G1 X85.879 Y118.825 E-0.54277
G1 X86.057 Y118.084 E-0.17602
G1 X86.460 Y117.436 E-0.17602
G1 X87.105 Y116.782 E-0.21226
G1 E-0.07000 F2100.00000
G1 Z0.550 F10800.000
G1 X88.893 Y120.632
G1 Z0.350
G1 E1.40000 F2100.00000
M204 S800
G1 F2700.000
G1 X88.893 Y119.643 E0.02578
G1 X118.893 Y119.643 E0.78167
G1 X118.893 Y89.368 E0.78884
G1 X158.382 Y89.368 E1.02893
G1 X158.382 Y120.632 E0.81462
G1 X88.953 Y120.632 E1.80904
M204 S1000
G1 F8640.000
G1 X88.893 Y119.643 E-0.22887
G1 X93.662 Y119.643 E-1.10113
G1 E-0.07000 F2100.00000
G1 Z0.550 F10800.000
G1 X118.475 Y119.225
G1 Z0.350
G1 E1.40000 F2100.00000
M204 S800
G1 F1500.000
G1 X118.475 Y88.950 E0.78884
G1 X158.657 Y88.950 E1.04697
G1 X158.800 Y89.093 E0.00528
G1 X158.800 Y120.907 E0.82893
G1 X158.657 Y121.050 E0.00528
G1 X88.618 Y121.050 E1.82491
G1 X88.475 Y120.907 E0.00528
G1 X88.475 Y119.225 E0.04382
G1 X118.415 Y119.225 E0.78011
M204 S1000
G1 X118.875 Y119.218 F10800.000
G1 F8640.000
G1 X118.426 Y113.465 E-1.33000
G1 E-0.07000 F2100.00000
G1 Z0.550 F10800.000
G1 X117.811 Y120.507
G1 Z0.350
G1 E1.40000 F2100.00000
G1 F4800.000
G1 X118.362 Y119.956 E0.02030
G1 X117.771 Y119.956 E0.01541
G1 X117.408 Y120.319 E0.01337
G1 X116.817 Y120.319 E0.01541
G1 X117.180 Y119.956 E0.01337
G1 X116.589 Y119.956 E0.01541
G1 X116.226 Y120.319 E0.01337
G1 X115.635 Y120.319 E0.01541
G1 X115.998 Y119.956 E0.01337
G1 X115.406 Y119.956 E0.01541
G1 X115.044 Y120.319 E0.01337
G1 X114.453 Y120.319 E0.01541
G1 X114.815 Y119.956 E0.01337
G1 X114.224 Y119.956 E0.01541
G1 X113.862 Y120.319 E0.01337
G1 X113.271 Y120.319 E0.01541
G1 X113.633 Y119.956 E0.01337
G1 X113.042 Y119.956 E0.01541
G1 X112.680 Y120.319 E0.01337
G1 X112.089 Y120.319 E0.01541
G1 X112.451 Y119.956 E0.01337
G1 X111.860 Y119.956 E0.01541
G1 X111.497 Y120.319 E0.01337
G1 X110.906 Y120.319 E0.01541
G1 X111.269 Y119.956 E0.01337
G1 X110.678 Y119.956 E0.01541
G1 X110.315 Y120.319 E0.01337
G1 X109.724 Y120.319 E0.01541
G1 X110.087 Y119.956 E0.01337
G1 X109.496 Y119.956 E0.01541
G1 X109.133 Y120.319 E0.01337
G1 X108.542 Y120.319 E0.01541
G1 X108.905 Y119.956 E0.01337
G1 X108.314 Y119.956 E0.01541
G1 X107.951 Y120.319 E0.01337
G1 X107.360 Y120.319 E0.01541
G1 X107.723 Y119.956 E0.01337
G1 X107.132 Y119.956 E0.01541
G1 X106.769 Y120.319 E0.01337
G1 X106.178 Y120.319 E0.01541
G1 X106.541 Y119.956 E0.01337
G1 X105.950 Y119.956 E0.01541
G1 X105.587 Y120.319 E0.01337
G1 X104.996 Y120.319 E0.01541
G1 X105.358 Y119.956 E0.01337
G1 X104.767 Y119.956 E0.01541
G1 X104.405 Y120.319 E0.01337
G1 X103.814 Y120.319 E0.01541
G1 X104.176 Y119.956 E0.01337
G1 X103.585 Y119.956 E0.01541
G1 X103.223 Y120.319 E0.01337
G1 X102.632 Y120.319 E0.01541
G1 X102.994 Y119.956 E0.01337
G1 X102.403 Y119.956 E0.01541
G1 X102.041 Y120.319 E0.01337
G1 X101.449 Y120.319 E0.01541
G1 X101.812 Y119.956 E0.01337
G1 X101.221 Y119.956 E0.01541
G1 X100.858 Y120.319 E0.01337
G1 X100.267 Y120.319 E0.01541
G1 X100.630 Y119.956 E0.01337
G1 X100.039 Y119.956 E0.01541
G1 X99.676 Y120.319 E0.01337
G1 X99.085 Y120.319 E0.01541
G1 X99.448 Y119.956 E0.01337
G1 X98.857 Y119.956 E0.01541
G1 X98.494 Y120.319 E0.01337
G1 X97.903 Y120.319 E0.01541
G1 X98.266 Y119.956 E0.01337
G1 X97.675 Y119.956 E0.01541
G1 X97.312 Y120.319 E0.01337
G1 X96.721 Y120.319 E0.01541
G1 X97.084 Y119.956 E0.01337
G1 X96.493 Y119.956 E0.01541
G1 X96.130 Y120.319 E0.01337
G1 X95.539 Y120.319 E0.01541
G1 X95.902 Y119.956 E0.01337
G1 X95.311 Y119.956 E0.01541
G1 X94.948 Y120.319 E0.01337
G1 X94.357 Y120.319 E0.01541
G1 X94.719 Y119.956 E0.01337
G1 X94.128 Y119.956 E0.01541
G1 X93.766 Y120.319 E0.01337
G1 X93.175 Y120.319 E0.01541
G1 X93.537 Y119.956 E0.01337
G1 X92.946 Y119.956 E0.01541
G1 X92.584 Y120.319 E0.01337
G1 X91.993 Y120.319 E0.01541
