; generated by PrusaSlicer 2.2.0+win64 on 2020-07-07 at 12:56:43 UTC

; 

; external perimeters extrusion width = 0.45mm
; perimeters extrusion width = 0.45mm
; infill extrusion width = 0.45mm
; solid infill extrusion width = 0.45mm
; top infill extrusion width = 0.40mm
; first layer extrusion width = 0.42mm

M73 P0 R81
M73 Q0 S82
M201 X1000 Y1000 Z200 E5000 ; sets maximum accelerations, mm/sec^2
M203 X200 Y200 Z12 E120 ; sets maximum feedrates, mm/sec
M204 P1250 R1250 T1250 ; sets acceleration (P, T) and retract acceleration (R), mm/sec^2
M205 X8.00 Y8.00 Z0.40 E4.50 ; sets the jerk limits, mm/sec
M205 S0 T0 ; sets the minimum extruding and travel feed rate, mm/sec
M107
M862.3 P "MK3S" ; printer model check
M862.1 P0.4 ; nozzle diameter check
M115 U3.9.0 ; tell printer latest fw version
G90 ; use absolute coordinates
M83 ; extruder relative mode
M104 S240 ; set extruder temp
M140 S85 ; set bed temp
M190 S85 ; wait for bed temp
M109 S240 ; wait for extruder temp
G28 W ; home all without mesh bed level
G80 ; mesh bed leveling
G1 Y-3.0 F1000.0 ; go outside print area
G92 E0.0
G1 X60.0 E9.0 F1000.0 ; intro line
M73 Q0 S82
M73 P0 R81
G1 X100.0 E12.5 F1000.0 ; intro line
G92 E0.0
M221 S95
G21 ; set units to millimeters
G90 ; use absolute coordinates
M83 ; use relative distances for extrusion
M900 K0.12 ; Filament gcode LA 1.5
M900 K45 ; Filament gcode LA 1.0
;BEFORE_LAYER_CHANGE
G92 E0.0
;0.2


G1 E-1.40000 F2100.00000
G1 Z0.200 F10800.000
;AFTER_LAYER_CHANGE
;0.2
G1 Z0.400
G1 X86.077 Y91.965
G1 Z0.200
G1 E1.40000 F2100.00000
M204 S1000
G1 F1200.000
G1 X85.878 Y91.163 E0.02590
G1 X85.881 Y88.802 E0.07401
G1 X86.151 Y87.884 E0.03001
G1 X86.500 Y87.391 E0.01894
G1 X87.296 Y86.639 E0.03434
G1 X87.875 Y86.336 E0.02048
G1 X88.515 Y86.203 E0.02048
G1 X158.754 Y86.198 E2.20230
G1 X159.663 Y86.380 E0.02907
G1 X160.431 Y86.894 E0.02897
G1 X160.983 Y87.456 E0.02469
G1 X161.272 Y87.880 E0.01609
G1 X161.480 Y88.419 E0.01811
G1 X161.552 Y88.992 E0.01811
G1 X161.545 Y121.179 E1.00920
G1 X161.445 Y121.705 E0.01680
G1 X161.231 Y122.193 E0.01668
G1 X160.425 Y123.111 E0.03831
G1 X159.730 Y123.591 E0.02649
G1 X158.910 Y123.797 E0.02649
G1 X118.239 Y123.802 E1.27524
G1 X117.747 Y123.748 E0.01550
G1 X117.281 Y123.596 E0.01538
G1 X116.564 Y123.101 E0.02731
G1 X86.541 Y92.653 E1.34072
G1 X86.111 Y92.014 E0.02414
G1 F8640.000
G1 X85.878 Y91.163 E-0.20383
G1 X85.881 Y88.802 E-0.54506
G1 X86.151 Y87.884 E-0.22100
G1 X86.500 Y87.391 E-0.13946
G1 X87.195 Y86.735 E-0.22065
G1 E-0.07000 F2100.00000
G1 Z0.400 F10800.000
G1 X89.037 Y90.213
G1 Z0.200
G1 E1.40000 F2100.00000
G1 F1200.000
G1 X89.037 Y89.687 E0.01649
G1 X158.063 Y89.687 E2.16426
G1 X158.063 Y120.313 E0.96025
G1 X119.037 Y120.313 E1.22363
G1 X119.037 Y90.213 E0.94376
G1 X89.097 Y90.213 E0.93875
G1 F8640.000
G1 X89.037 Y89.687 E-0.12221
G1 X94.268 Y89.687 E-1.20779
G1 E-0.07000 F2100.00000
G1 Z0.400 F10800.000
G1 X118.660 Y90.590
G1 Z0.200
G1 E1.40000 F2100.00000
G1 F1200.000
G1 X88.660 Y90.590 E0.94063
G1 X88.660 Y89.310 E0.04013
G1 X158.440 Y89.310 E2.18790
G1 X158.440 Y120.690 E0.98390
G1 X118.660 Y120.690 E1.24727
G1 X118.660 Y90.650 E0.94188
G1 X118.539 Y90.209 F10800.000
G1 X119.226 Y89.950
G1 F1200.000
G1 X89.226 Y89.950 E0.37109
G1 F8640.000
G1 X94.986 Y89.950 E-1.33000
G1 E-0.07000 F2100.00000
G1 Z0.400 F10800.000
G1 X119.150 Y119.432
G1 Z0.200
G1 E1.40000 F2100.00000
G1 F1200.000
G1 X119.748 Y120.030 E0.02671
G1 X120.285 Y120.030 E0.01696
G1 X119.320 Y119.065 E0.04311
G1 X119.320 Y118.528 E0.01696
G1 X120.822 Y120.030 E0.06709
G1 X121.359 Y120.030 E0.01696
G1 X119.320 Y117.991 E0.09107
G1 X119.320 Y117.454 E0.01696
G1 X121.896 Y120.030 E0.11505
G1 X122.433 Y120.030 E0.01696
G1 X119.320 Y116.917 E0.13903
G1 X119.320 Y116.380 E0.01696
G1 X122.970 Y120.030 E0.16301
G1 X123.507 Y120.030 E0.01696
G1 X119.320 Y115.843 E0.18698
G1 X119.320 Y115.306 E0.01696
G1 X124.044 Y120.030 E0.21096
G1 X124.581 Y120.030 E0.01696
G1 X119.320 Y114.769 E0.23494
G1 X119.320 Y114.232 E0.01696
G1 X125.118 Y120.030 E0.25892
G1 X125.655 Y120.030 E0.01696
G1 X119.320 Y113.695 E0.28290
G1 X119.320 Y113.158 E0.01696
G1 X126.192 Y120.030 E0.30688
G1 X126.729 Y120.030 E0.01696
G1 X119.320 Y112.621 E0.33086
G1 X119.320 Y112.084 E0.01696
G1 X127.266 Y120.030 E0.35484
G1 X127.803 Y120.030 E0.01696
G1 X119.320 Y111.547 E0.37882
G1 X119.320 Y111.009 E0.01696
G1 X128.341 Y120.030 E0.40280
G1 X128.878 Y120.030 E0.01696
G1 X119.320 Y110.472 E0.42678
G1 X119.320 Y109.935 E0.01696
G1 X129.415 Y120.030 E0.45075
G1 X129.952 Y120.030 E0.01696
G1 X119.320 Y109.398 E0.47473
G1 X119.320 Y108.861 E0.01696
G1 X130.489 Y120.030 E0.49871
G1 X131.026 Y120.030 E0.01696
G1 X119.320 Y108.324 E0.52269
G1 X119.320 Y107.787 E0.01696
G1 X131.563 Y120.030 E0.54667
G1 X132.100 Y120.030 E0.01696
G1 X119.320 Y107.250 E0.57065
G1 X119.320 Y106.713 E0.01696
G1 X132.637 Y120.030 E0.59463
G1 X133.174 Y120.030 E0.01696
G1 X119.320 Y106.176 E0.61861
G1 X119.320 Y105.639 E0.01696
G1 X133.711 Y120.030 E0.64259
G1 X134.248 Y120.030 E0.01696
G1 X119.320 Y105.102 E0.66657
G1 X119.320 Y104.565 E0.01696
G1 X134.785 Y120.030 E0.69054
G1 X135.322 Y120.030 E0.01696
G1 X119.320 Y104.028 E0.71452
G1 X119.320 Y103.491 E0.01696
G1 X135.859 Y120.030 E0.73850
G1 X136.396 Y120.030 E0.01696
G1 X119.320 Y102.954 E0.76248
G1 X119.320 Y102.417 E0.01696
G1 X136.933 Y120.030 E0.78646
G1 X137.470 Y120.030 E0.01696
G1 X119.320 Y101.880 E0.81044
M73 Q1 S81
M73 P1 R80
G1 X119.320 Y101.343 E0.01696
G1 X138.007 Y120.030 E0.83442
G1 X138.544 Y120.030 E0.01696
G1 X119.320 Y100.806 E0.85840
G1 X119.320 Y100.269 E0.01696
G1 X139.081 Y120.030 E0.88238
G1 X139.618 Y120.030 E0.01696
G1 X119.320 Y99.732 E0.90636
G1 X119.320 Y99.195 E0.01696
G1 X140.155 Y120.030 E0.93034
G1 X140.692 Y120.030 E0.01696
G1 X119.320 Y98.658 E0.95431
G1 X119.320 Y98.121 E0.01696
G1 X141.229 Y120.030 E0.97829
G1 X141.766 Y120.030 E0.01696
G1 X119.320 Y97.584 E1.00227
G1 X119.320 Y97.047 E0.01696
G1 X142.303 Y120.030 E1.02625
G1 X142.840 Y120.030 E0.01696
G1 X119.320 Y96.510 E1.05023
G1 X119.320 Y95.973 E0.01696
G1 X143.377 Y120.030 E1.07421
G1 X143.914 Y120.030 E0.01696
G1 X119.320 Y95.436 E1.09819
G1 X119.320 Y94.899 E0.01696
G1 X144.451 Y120.030 E1.12217
G1 X144.988 Y120.030 E0.01696
G1 X119.320 Y94.362 E1.14615
G1 X119.320 Y93.825 E0.01696
G1 X145.525 Y120.030 E1.17013
G1 X146.062 Y120.030 E0.01696
G1 X119.320 Y93.288 E1.19411
G1 X119.320 Y92.751 E0.01696
G1 X146.599 Y120.030 E1.21808
G1 X147.136 Y120.030 E0.01696
G1 X119.320 Y92.214 E1.24206
G1 X119.320 Y91.677 E0.01696
G1 X147.673 Y120.030 E1.26604
G1 X148.210 Y120.030 E0.01696
G1 X119.320 Y91.140 E1.29002
G1 X119.320 Y90.603 E0.01696
G1 X148.747 Y120.030 E1.31400
G1 X149.284 Y120.030 E0.01696
G1 X119.508 Y90.255 E1.32956
G1 X119.508 Y89.970 E0.00899
G1 X119.761 Y89.970 E0.00797
G1 X149.821 Y120.030 E1.34227
G1 X150.358 Y120.030 E0.01696
G1 X120.298 Y89.970 E1.34227
G1 X120.835 Y89.970 E0.01696
G1 X150.895 Y120.030 E1.34227
G1 X151.432 Y120.030 E0.01696
G1 X121.372 Y89.970 E1.34227
G1 X121.909 Y89.970 E0.01696
G1 X151.969 Y120.030 E1.34227
G1 X152.506 Y120.030 E0.01696
G1 X122.446 Y89.970 E1.34227
G1 X122.983 Y89.970 E0.01696
G1 X153.043 Y120.030 E1.34227
G1 X153.580 Y120.030 E0.01696
G1 X123.520 Y89.970 E1.34227
G1 X124.057 Y89.970 E0.01696
G1 X154.117 Y120.030 E1.34227
G1 X154.654 Y120.030 E0.01696
G1 X124.594 Y89.970 E1.34227
M73 Q2 S80
M73 P2 R79
G1 X125.131 Y89.970 E0.01696
G1 X155.191 Y120.030 E1.34227
G1 X155.728 Y120.030 E0.01696
G1 X125.668 Y89.970 E1.34227
G1 X126.205 Y89.970 E0.01696
G1 X156.265 Y120.030 E1.34227
G1 X156.802 Y120.030 E0.01696
G1 X126.742 Y89.970 E1.34227
G1 X127.279 Y89.970 E0.01696
G1 X157.339 Y120.030 E1.34227
G1 X157.780 Y120.030 E0.01392
G1 X157.780 Y119.934 E0.00303
G1 X127.816 Y89.970 E1.33798
G1 X128.353 Y89.970 E0.01696
G1 X157.780 Y119.397 E1.31400
G1 X157.780 Y118.860 E0.01696
G1 X128.890 Y89.970 E1.29003
G1 X129.427 Y89.970 E0.01696
G1 X157.780 Y118.323 E1.26605
G1 X157.780 Y117.786 E0.01696
G1 X129.964 Y89.970 E1.24207
G1 X130.501 Y89.970 E0.01696
G1 X157.780 Y117.249 E1.21809
G1 X157.780 Y116.712 E0.01696
G1 X131.038 Y89.970 E1.19411
G1 X131.575 Y89.970 E0.01696
G1 X157.780 Y116.175 E1.17013
G1 X157.780 Y115.638 E0.01696
G1 X132.112 Y89.970 E1.14615
G1 X132.649 Y89.970 E0.01696
G1 X157.780 Y115.101 E1.12217
G1 X157.780 Y114.564 E0.01696
G1 X133.186 Y89.970 E1.09819
G1 X133.723 Y89.970 E0.01696
G1 X157.780 Y114.027 E1.07421
G1 X157.780 Y113.490 E0.01696
G1 X134.260 Y89.970 E1.05023
G1 X134.797 Y89.970 E0.01696
G1 X157.780 Y112.953 E1.02626
G1 X157.780 Y112.416 E0.01696
G1 X135.334 Y89.970 E1.00228
G1 X135.871 Y89.970 E0.01696
G1 X157.780 Y111.879 E0.97830
G1 X157.780 Y111.342 E0.01696
G1 X136.408 Y89.970 E0.95432
G1 X136.945 Y89.970 E0.01696
G1 X157.780 Y110.805 E0.93034
G1 X157.780 Y110.268 E0.01696
G1 X137.482 Y89.970 E0.90636
G1 X138.019 Y89.970 E0.01696
G1 X157.780 Y109.731 E0.88238
G1 X157.780 Y109.194 E0.01696
G1 X138.556 Y89.970 E0.85840
G1 X139.093 Y89.970 E0.01696
G1 X157.780 Y108.657 E0.83442
G1 X157.780 Y108.120 E0.01696
G1 X139.630 Y89.970 E0.81044
G1 X140.167 Y89.970 E0.01696
G1 X157.780 Y107.583 E0.78646
G1 X157.780 Y107.046 E0.01696
G1 X140.704 Y89.970 E0.76249
G1 X141.241 Y89.970 E0.01696
G1 X157.780 Y106.509 E0.73851
G1 X157.780 Y105.972 E0.01696
G1 X141.778 Y89.970 E0.71453
G1 X142.315 Y89.970 E0.01696
G1 X157.780 Y105.435 E0.69055
G1 X157.780 Y104.898 E0.01696
G1 X142.852 Y89.970 E0.66657
G1 X143.389 Y89.970 E0.01696
G1 X157.780 Y104.361 E0.64259
G1 X157.780 Y103.824 E0.01696
G1 X143.926 Y89.970 E0.61861
M73 Q3 S79
M73 P3 R78
G1 X144.463 Y89.970 E0.01696
G1 X157.780 Y103.287 E0.59463
G1 X157.780 Y102.750 E0.01696
G1 X145.000 Y89.970 E0.57065
G1 X145.537 Y89.970 E0.01696
G1 X157.780 Y102.213 E0.54667
G1 X157.780 Y101.676 E0.01696
G1 X146.074 Y89.970 E0.52269
G1 X146.611 Y89.970 E0.01696
G1 X157.780 Y101.139 E0.49872
G1 X157.780 Y100.602 E0.01696
G1 X147.148 Y89.970 E0.47474
G1 X147.685 Y89.970 E0.01696
G1 X157.780 Y100.065 E0.45076
G1 X157.780 Y99.528 E0.01696
G1 X148.222 Y89.970 E0.42678
G1 X148.759 Y89.970 E0.01696
G1 X157.780 Y98.991 E0.40280
G1 X157.780 Y98.454 E0.01696
G1 X149.296 Y89.970 E0.37882
G1 X149.833 Y89.970 E0.01696
G1 X157.780 Y97.917 E0.35484
G1 X157.780 Y97.380 E0.01696
G1 X150.370 Y89.970 E0.33086
G1 X150.907 Y89.970 E0.01696
G1 X157.780 Y96.843 E0.30688
G1 X157.780 Y96.306 E0.01696
G1 X151.444 Y89.970 E0.28290
G1 X151.981 Y89.970 E0.01696
G1 X157.780 Y95.769 E0.25892
G1 X157.780 Y95.231 E0.01696
G1 X152.518 Y89.970 E0.23495
G1 X153.056 Y89.970 E0.01696
G1 X157.780 Y94.694 E0.21097
G1 X157.780 Y94.157 E0.01696
G1 X153.593 Y89.970 E0.18699
G1 X154.130 Y89.970 E0.01696
G1 X157.780 Y93.620 E0.16301
G1 X157.780 Y93.083 E0.01696
G1 X154.667 Y89.970 E0.13903
G1 X155.204 Y89.970 E0.01696
G1 X157.780 Y92.546 E0.11505
G1 X157.780 Y92.009 E0.01696
G1 X155.741 Y89.970 E0.09107
G1 X156.278 Y89.970 E0.01696
G1 X157.780 Y91.472 E0.06709
G1 X157.780 Y90.935 E0.01696
G1 X156.815 Y89.970 E0.04311
G1 X157.352 Y89.970 E0.01696
G1 X157.950 Y90.568 E0.02671
;BEFORE_LAYER_CHANGE
G92 E0.0
;0.35


G1 F8640.000
G1 X157.352 Y89.970 E-0.19534
G1 X156.815 Y89.970 E-0.12400
G1 X157.780 Y90.935 E-0.31529
G1 X157.780 Y91.472 E-0.12400
G1 X156.278 Y89.970 E-0.49065
G1 X155.928 Y89.970 E-0.08073
G1 E-0.07000 F2100.00000
G1 Z0.400 F10800.000
;AFTER_LAYER_CHANGE
;0.35
M104 S250 ; set temperature
M140 S90 ; set bed temperature
G1 X159.663 Y86.380
G1 Z0.350
G1 E1.40000 F2100.00000
G1 F3000.000
G1 X160.431 Y86.894 E0.02235
G1 X160.983 Y87.456 E0.01905
G1 X161.272 Y87.880 E0.01241
G1 X161.480 Y88.419 E0.01397
G1 X161.552 Y88.992 E0.01397
G1 X161.545 Y121.179 E0.77844
G1 X161.445 Y121.705 E0.01296
G1 X161.231 Y122.193 E0.01287
G1 X160.425 Y123.111 E0.02955
G1 X159.730 Y123.591 E0.02043
G1 X158.910 Y123.797 E0.02043
G1 X118.239 Y123.802 E0.98364
G1 X117.747 Y123.748 E0.01195
G1 X117.281 Y123.596 E0.01186
G1 X116.564 Y123.101 E0.02107
G1 X86.541 Y92.653 E1.03416
G1 X86.077 Y91.965 E0.02007
G1 X85.878 Y91.163 E0.01998
G1 X85.881 Y88.802 E0.05709
G1 X86.151 Y87.884 E0.02315
G1 X86.500 Y87.391 E0.01461
G1 X87.296 Y86.639 E0.02649
G1 X87.875 Y86.336 E0.01579
G1 X88.515 Y86.203 E0.01579
G1 X158.754 Y86.198 E1.69873
G1 X159.604 Y86.368 E0.02097
G1 F8640.000
G1 X160.431 Y86.894 E-0.22622
G1 X160.983 Y87.456 E-0.18184
G1 X161.272 Y87.880 E-0.11850
G1 X161.480 Y88.419 E-0.13336
G1 X161.552 Y88.992 E-0.13336
G1 X161.552 Y91.316 E-0.53672
G1 E-0.07000 F2100.00000
G1 Z0.550 F10800.000
G1 X118.893 Y90.357
G1 Z0.350
G1 E1.40000 F2100.00000
M204 S800
G1 F2700.000
G1 X88.893 Y90.357 E0.78167
G1 X88.893 Y89.368 E0.02578
G1 X158.382 Y89.368 E1.81060
G1 X158.382 Y120.632 E0.81462
G1 X118.893 Y120.632 E1.02893
G1 X118.893 Y90.417 E0.78727
M204 S1000
G1 X118.475 Y90.775 F10800.000
M204 S800
G1 F1500.000
G1 X88.475 Y90.775 E0.78167
G1 X88.475 Y89.093 E0.04382
G1 X88.618 Y88.950 E0.00528
G1 X158.657 Y88.950 E1.82491
G1 X158.800 Y89.093 E0.00528
G1 X158.800 Y120.907 E0.82893
G1 X158.657 Y121.050 E0.00528
G1 X118.475 Y121.050 E1.04697
G1 X118.475 Y90.835 E0.78727
M204 S1000
G1 X118.354 Y90.394 F10800.000
G1 F8640.000
G1 X112.715 Y90.823 E-1.33000
G1 E-0.07000 F2100.00000
G1 Z0.550 F10800.000
G1 X157.408 Y120.507
G1 Z0.350
G1 E1.40000 F2100.00000
G1 F4800.000
G1 X158.069 Y119.846 E0.02447
G1 X158.069 Y119.252 E0.01554
G1 X157.002 Y120.319 E0.03949
G1 X156.409 Y120.319 E0.01554
G1 X158.069 Y118.659 E0.06147
G1 X158.069 Y118.065 E0.01554
G1 X155.815 Y120.319 E0.08345
G1 X155.221 Y120.319 E0.01554
G1 X158.069 Y117.471 E0.10543
G1 X158.069 Y116.877 E0.01554
G1 X154.627 Y120.319 E0.12742
G1 X154.034 Y120.319 E0.01554
G1 X158.069 Y116.284 E0.14940
G1 X158.069 Y115.690 E0.01554
G1 X153.440 Y120.319 E0.17138
G1 X152.846 Y120.319 E0.01554
G1 X158.069 Y115.096 E0.19336
G1 X158.069 Y114.503 E0.01554
G1 X152.253 Y120.319 E0.21534
G1 X151.659 Y120.319 E0.01554
G1 X158.069 Y113.909 E0.23732
G1 X158.069 Y113.315 E0.01554
G1 X151.065 Y120.319 E0.25931
G1 X150.472 Y120.319 E0.01554
G1 X158.069 Y112.722 E0.28129
G1 X158.069 Y112.128 E0.01554
G1 X149.878 Y120.319 E0.30327
G1 X149.284 Y120.319 E0.01554
G1 X158.069 Y111.534 E0.32525
G1 X158.069 Y110.940 E0.01554
G1 X148.690 Y120.319 E0.34723
G1 X148.097 Y120.319 E0.01554
G1 X158.069 Y110.347 E0.36922
G1 X158.069 Y109.753 E0.01554
G1 X147.503 Y120.319 E0.39120
G1 X146.909 Y120.319 E0.01554
G1 X158.069 Y109.159 E0.41318
G1 X158.069 Y108.566 E0.01554
G1 X146.316 Y120.319 E0.43516
G1 X145.722 Y120.319 E0.01554
G1 X158.069 Y107.972 E0.45714
G1 X158.069 Y107.378 E0.01554
G1 X145.128 Y120.319 E0.47913
G1 X144.535 Y120.319 E0.01554
G1 X158.069 Y106.785 E0.50111
G1 X158.069 Y106.191 E0.01554
G1 X143.941 Y120.319 E0.52309
G1 X143.347 Y120.319 E0.01554
G1 X158.069 Y105.597 E0.54507
G1 X158.069 Y105.003 E0.01554
G1 X142.753 Y120.319 E0.56705
G1 X142.160 Y120.319 E0.01554
G1 X158.069 Y104.410 E0.58904
G1 X158.069 Y103.816 E0.01554
G1 X141.566 Y120.319 E0.61102
G1 X140.972 Y120.319 E0.01554
G1 X158.069 Y103.222 E0.63300
G1 X158.069 Y102.629 E0.01554
G1 X140.379 Y120.319 E0.65498
G1 X139.785 Y120.319 E0.01554
G1 X158.069 Y102.035 E0.67696
G1 X158.069 Y101.441 E0.01554
G1 X139.191 Y120.319 E0.69894
G1 X138.597 Y120.319 E0.01554
G1 X158.069 Y100.847 E0.72093
G1 X158.069 Y100.254 E0.01554
G1 X138.004 Y120.319 E0.74291
G1 X137.410 Y120.319 E0.01554
G1 X158.069 Y99.660 E0.76489
G1 X158.069 Y99.066 E0.01554
G1 X136.816 Y120.319 E0.78687
G1 X136.223 Y120.319 E0.01554
G1 X158.069 Y98.473 E0.80885
G1 X158.069 Y97.879 E0.01554
G1 X135.629 Y120.319 E0.83084
G1 X135.035 Y120.319 E0.01554
G1 X158.069 Y97.285 E0.85282
G1 X158.069 Y96.692 E0.01554
G1 X134.442 Y120.319 E0.87480
G1 X133.848 Y120.319 E0.01554
G1 X158.069 Y96.098 E0.89678
G1 X158.069 Y95.504 E0.01554
G1 X133.254 Y120.319 E0.91876
G1 X132.660 Y120.319 E0.01554
G1 X158.069 Y94.910 E0.94075
G1 X158.069 Y94.317 E0.01554
G1 X132.067 Y120.319 E0.96273
G1 X131.473 Y120.319 E0.01554
G1 X158.069 Y93.723 E0.98471
G1 X158.069 Y93.129 E0.01554
G1 X130.879 Y120.319 E1.00669
G1 X130.286 Y120.319 E0.01554
G1 X158.069 Y92.536 E1.02867
G1 X158.069 Y91.942 E0.01554
