; generated by PrusaSlicer 2.2.0+win64 on 2020-07-10 at 12:27:29 UTC

; 

; external perimeters extrusion width = 0.45mm
; perimeters extrusion width = 0.45mm
; infill extrusion width = 0.45mm
; solid infill extrusion width = 0.45mm
; top infill extrusion width = 0.40mm
; first layer extrusion width = 0.42mm

M73 P0 R174
M73 Q0 S174
M201 X1000 Y1000 Z200 E5000 ; sets maximum accelerations, mm/sec^2
M203 X200 Y200 Z12 E120 ; sets maximum feedrates, mm/sec
M204 P1250 R1250 T1250 ; sets acceleration (P, T) and retract acceleration (R), mm/sec^2
M205 X8.00 Y8.00 Z0.40 E4.50 ; sets the jerk limits, mm/sec
M205 S0 T0 ; sets the minimum extruding and travel feed rate, mm/sec
M107
M862.3 P "MK3S" ; printer model check
M862.1 P0.4 ; nozzle diameter check
M115 U3.9.0 ; tell printer latest fw version
G90 ; use absolute coordinates
M83 ; extruder relative mode
M104 S215 ; set extruder temp
M140 S60 ; set bed temp
M190 S60 ; wait for bed temp
M109 S215 ; wait for extruder temp
G28 W ; home all without mesh bed level
G80 ; mesh bed leveling
G1 Y-3.0 F1000.0 ; go outside print area
G92 E0.0
G1 X60.0 E9.0 F1000.0 ; intro line
M73 Q0 S174
M73 P0 R174
G1 X100.0 E12.5 F1000.0 ; intro line
G92 E0.0
M221 S95
G21 ; set units to millimeters
G90 ; use absolute coordinates
M83 ; use relative distances for extrusion
M900 K0.06 ; Filament gcode LA 1.5
M900 K30 ; Filament gcode LA 1.0
;BEFORE_LAYER_CHANGE
G92 E0.0
;0.2


G1 E-0.80000 F2100.00000
G1 Z0.600 F10800.000
;AFTER_LAYER_CHANGE
;0.2
G1 X63.462 Y37.131
G1 Z0.200
G1 E0.80000 F2100.00000
M204 S1000
G1 F1200.000
G1 X64.210 Y36.039 E0.04149
G1 X64.916 Y35.262 E0.03292
G1 X65.705 Y34.580 E0.03271
G1 X66.570 Y33.997 E0.03270
G1 X67.488 Y33.525 E0.03238
G1 X68.928 Y33.035 E0.04769
G1 X69.915 Y32.855 E0.03144
G1 X70.925 Y32.787 E0.03175
G1 X179.089 Y32.787 E3.39140
G1 X180.092 Y32.855 E0.03151
G1 X181.074 Y33.036 E0.03133
G1 X182.502 Y33.520 E0.04727
G1 X183.346 Y33.948 E0.02968
G1 X184.155 Y34.474 E0.03024
G1 X185.180 Y35.358 E0.04245
G1 X185.865 Y36.134 E0.03245
G1 X186.445 Y36.972 E0.03194
G1 X186.997 Y38.040 E0.03772
G1 X187.464 Y39.426 E0.04585
G1 X187.638 Y40.359 E0.02974
G1 X187.709 Y41.302 E0.02966
G1 X187.714 Y168.583 E3.99082
G1 X187.612 Y169.828 E0.03916
G1 X187.413 Y170.767 E0.03008
G1 X187.121 Y171.660 E0.02949
G1 X186.538 Y172.869 E0.04207
G1 X185.790 Y173.961 E0.04150
G1 X185.083 Y174.738 E0.03293
G1 X184.295 Y175.420 E0.03270
G1 X183.432 Y176.002 E0.03263
G1 X182.513 Y176.475 E0.03238
G1 X181.072 Y176.965 E0.04775
G1 X180.085 Y177.145 E0.03144
G1 X179.075 Y177.213 E0.03175
G1 X70.916 Y177.214 E3.39123
G1 X69.672 Y177.112 E0.03915
G1 X68.734 Y176.914 E0.03006
G1 X67.839 Y176.621 E0.02952
G1 X66.629 Y176.037 E0.04212
G1 X65.538 Y175.289 E0.04148
G1 X64.761 Y174.583 E0.03292
G1 X64.078 Y173.793 E0.03274
G1 X63.495 Y172.927 E0.03271
G1 X63.024 Y172.010 E0.03234
G1 X62.535 Y170.571 E0.04765
G1 X62.354 Y169.585 E0.03144
G1 X62.286 Y168.575 E0.03175
G1 X62.286 Y41.417 E3.98696
G1 X62.388 Y40.171 E0.03917
G1 X62.587 Y39.233 E0.03008
G1 X62.879 Y38.339 E0.02948
G1 X63.436 Y37.185 E0.04018
G1 X63.773 Y37.347 F10800.000
G1 F1200.000
G1 X64.498 Y36.282 E0.04038
G1 X65.172 Y35.540 E0.03145
G1 X65.926 Y34.886 E0.03130
G1 X66.753 Y34.327 E0.03128
G1 X67.648 Y33.866 E0.03158
G1 X69.010 Y33.404 E0.04509
G1 X69.972 Y33.227 E0.03067
G1 X70.931 Y33.164 E0.03014
G1 X179.083 Y33.164 E3.39101
G1 X180.034 Y33.228 E0.02990
G1 X180.993 Y33.405 E0.03056
G1 X182.344 Y33.863 E0.04473
G1 X183.167 Y34.280 E0.02893
G1 X183.938 Y34.783 E0.02888
G1 X184.907 Y35.617 E0.04008
G1 X185.562 Y36.358 E0.03100
G1 X186.128 Y37.176 E0.03120
G1 X186.656 Y38.200 E0.03612
G1 X187.096 Y39.509 E0.04329
G1 X187.263 Y40.397 E0.02835
G1 X187.333 Y41.323 E0.02911
G1 X187.337 Y168.576 E3.98992
G1 X187.241 Y169.762 E0.03733
G1 X187.052 Y170.659 E0.02874
G1 X186.766 Y171.531 E0.02877
G1 X186.219 Y172.669 E0.03957
G1 X185.502 Y173.718 E0.03984
G1 X184.828 Y174.461 E0.03147
G1 X184.074 Y175.114 E0.03129
G1 X183.249 Y175.672 E0.03121
G1 X182.353 Y176.133 E0.03159
G1 X180.990 Y176.596 E0.04514
G1 X180.028 Y176.773 E0.03067
G1 X179.069 Y176.836 E0.03014
G1 X70.924 Y176.836 E3.39080
G1 X69.738 Y176.741 E0.03731
G1 X68.841 Y176.552 E0.02872
G1 X67.968 Y176.266 E0.02881
G1 X66.830 Y175.718 E0.03962
G1 X65.781 Y175.001 E0.03982
G1 X65.038 Y174.327 E0.03146
G1 X64.384 Y173.572 E0.03132
G1 X63.826 Y172.745 E0.03129
G1 X63.366 Y171.850 E0.03154
G1 X62.904 Y170.490 E0.04505
G1 X62.727 Y169.528 E0.03066
G1 X62.663 Y168.569 E0.03014
G1 X62.663 Y41.424 E3.98653
G1 X62.759 Y40.237 E0.03734
G1 X62.948 Y39.340 E0.02874
G1 X63.234 Y38.468 E0.02877
G1 X63.747 Y37.401 E0.03713
G1 X64.087 Y37.565 F10800.000
G1 F1200.000
G1 X64.786 Y36.526 E0.03927
G1 X65.428 Y35.817 E0.02998
G1 X66.164 Y35.178 E0.03057
G1 X66.954 Y34.646 E0.02985
G1 X67.808 Y34.208 E0.03010
G1 X69.092 Y33.772 E0.04252
G1 X70.008 Y33.603 E0.02921
G1 X70.938 Y33.541 E0.02920
G1 X179.076 Y33.541 E3.39061
M73 Q0 S173
M73 P0 R173
G1 X179.998 Y33.604 E0.02896
G1 X180.911 Y33.773 E0.02912
G1 X182.186 Y34.205 E0.04221
G1 X182.970 Y34.601 E0.02754
G1 X183.722 Y35.092 E0.02815
G1 X184.650 Y35.894 E0.03848
G1 X185.271 Y36.599 E0.02945
G1 X185.810 Y37.380 E0.02977
G1 X186.314 Y38.360 E0.03453
G1 X186.728 Y39.591 E0.04074
G1 X186.891 Y40.457 E0.02761
G1 X186.956 Y41.344 E0.02789
G1 X186.960 Y168.568 E3.98904
G1 X186.869 Y169.697 E0.03549
G1 X186.685 Y170.571 E0.02803
G1 X186.412 Y171.402 E0.02740
G1 X185.886 Y172.492 E0.03796
G1 X185.214 Y173.474 E0.03731
G1 X184.572 Y174.183 E0.03000
G1 X183.835 Y174.822 E0.03057
G1 X183.048 Y175.353 E0.02978
G1 X182.194 Y175.791 E0.03010
G1 X180.908 Y176.228 E0.04257
G1 X179.992 Y176.397 E0.02921
G1 X179.062 Y176.459 E0.02920
G1 X70.931 Y176.459 E3.39037
G1 X69.804 Y176.369 E0.03548
G1 X68.929 Y176.185 E0.02801
G1 X68.098 Y175.912 E0.02744
G1 X67.007 Y175.385 E0.03800
G1 X66.025 Y174.713 E0.03730
G1 X65.316 Y174.071 E0.02998
G1 X64.677 Y173.334 E0.03060
G1 X64.145 Y172.544 E0.02986
G1 X63.708 Y171.691 E0.03006
G1 X63.272 Y170.408 E0.04248
G1 X63.103 Y169.492 E0.02921
G1 X63.041 Y168.562 E0.02920
G1 X63.040 Y41.432 E3.98609
G1 X63.131 Y40.303 E0.03550
G1 X63.315 Y39.428 E0.02803
G1 X63.588 Y38.598 E0.02740
G1 X64.061 Y37.619 E0.03408
G1 X64.398 Y37.782 F10800.000
G1 F1200.000
G1 X65.075 Y36.769 E0.03820
G1 X65.684 Y36.094 E0.02851
G1 X66.385 Y35.484 E0.02913
G1 X67.155 Y34.965 E0.02912
G1 X67.967 Y34.550 E0.02860
G1 X69.174 Y34.140 E0.03998
G1 X70.045 Y33.978 E0.02776
G1 X70.944 Y33.918 E0.02826
G1 X179.070 Y33.918 E3.39021
G1 X179.961 Y33.979 E0.02800
G1 X180.828 Y34.141 E0.02767
G1 X182.027 Y34.548 E0.03971
G1 X182.790 Y34.933 E0.02679
G1 X183.505 Y35.400 E0.02677
G1 X184.376 Y36.153 E0.03610
G1 X184.981 Y36.840 E0.02869
G1 X185.493 Y37.584 E0.02832
G1 X185.972 Y38.519 E0.03294
G1 X186.359 Y39.674 E0.03820
G1 X186.518 Y40.516 E0.02686
G1 X186.580 Y41.364 E0.02667
G1 X186.582 Y168.561 E3.98816
G1 X186.498 Y169.631 E0.03366
G1 X186.324 Y170.464 E0.02666
G1 X186.058 Y171.272 E0.02668
G1 X185.566 Y172.291 E0.03548
G1 X184.925 Y173.231 E0.03567
G1 X184.316 Y173.906 E0.02852
G1 X183.615 Y174.516 E0.02912
G1 X182.847 Y175.034 E0.02906
G1 X182.034 Y175.449 E0.02860
G1 X180.826 Y175.860 E0.04003
G1 X179.955 Y176.022 E0.02776
G1 X179.056 Y176.082 E0.02826
G1 X70.939 Y176.082 E3.38994
G1 X69.869 Y175.998 E0.03365
G1 X69.037 Y175.824 E0.02665
G1 X68.228 Y175.558 E0.02671
G1 X67.207 Y175.065 E0.03552
G1 X66.268 Y174.424 E0.03566
G1 X65.593 Y173.815 E0.02851
G1 X64.983 Y173.113 E0.02915
G1 X64.464 Y172.343 E0.02913
G1 X64.050 Y171.532 E0.02856
G1 X63.640 Y170.325 E0.03994
G1 X63.478 Y169.455 E0.02775
G1 X63.418 Y168.556 E0.02826
G1 X63.418 Y41.439 E3.98566
G1 X63.502 Y40.368 E0.03367
G1 X63.677 Y39.536 E0.02667
G1 X63.942 Y38.728 E0.02668
G1 X64.372 Y37.836 E0.03103
G1 X64.712 Y38.001 F10800.000
G1 F1200.000
G1 X64.767 Y37.886 E0.00400
G1 X65.363 Y37.012 E0.03317
G1 X65.956 Y36.355 E0.02774
G1 X66.623 Y35.777 E0.02768
G1 X67.356 Y35.285 E0.02768
G1 X68.126 Y34.893 E0.02711
G1 X69.257 Y34.509 E0.03744
G1 X70.103 Y34.351 E0.02698
G1 X70.950 Y34.295 E0.02663
G1 X179.063 Y34.295 E3.38982
G1 X179.902 Y34.352 E0.02637
G1 X180.746 Y34.509 E0.02689
G1 X181.870 Y34.891 E0.03721
G1 X182.593 Y35.255 E0.02538
G1 X183.287 Y35.709 E0.02603
G1 X184.119 Y36.429 E0.03450
G1 X184.690 Y37.080 E0.02713
G1 X185.175 Y37.787 E0.02688
G1 X185.629 Y38.678 E0.03136
G1 X185.991 Y39.757 E0.03569
G1 X186.143 Y40.554 E0.02544
G1 X186.203 Y41.385 E0.02611
G1 X186.205 Y168.554 E3.98729
G1 X186.126 Y169.566 E0.03183
G1 X185.957 Y170.376 E0.02594
G1 X185.704 Y171.142 E0.02529
G1 X185.233 Y172.114 E0.03388
G1 X184.637 Y172.988 E0.03317
G1 X184.044 Y173.645 E0.02776
G1 X183.377 Y174.223 E0.02767
G1 X182.646 Y174.714 E0.02762
G1 X181.875 Y175.107 E0.02711
G1 X180.743 Y175.491 E0.03749
G1 X179.897 Y175.649 E0.02698
G1 X179.050 Y175.705 E0.02662
G1 X70.946 Y175.705 E3.38952
M73 Q1 S172
M73 P1 R172
G1 X69.934 Y175.626 E0.03182
G1 X69.125 Y175.457 E0.02593
G1 X68.358 Y175.204 E0.02532
G1 X67.384 Y174.732 E0.03392
G1 X66.511 Y174.136 E0.03315
G1 X65.854 Y173.543 E0.02774
G1 X65.276 Y172.875 E0.02770
G1 X64.783 Y172.142 E0.02769
G1 X64.392 Y171.373 E0.02707
G1 X64.008 Y170.243 E0.03741
G1 X63.851 Y169.397 E0.02698
G1 X63.795 Y168.550 E0.02663
G1 X63.795 Y41.446 E3.98524
G1 X63.874 Y40.434 E0.03184
G1 X64.044 Y39.624 E0.02595
G1 X64.296 Y38.858 E0.02528
G1 X64.685 Y38.055 E0.02799
G1 X65.023 Y38.218 F10800.000
G1 F1200.000
G1 X65.087 Y38.086 E0.00459
G1 X65.652 Y37.254 E0.03153
G1 X66.212 Y36.632 E0.02626
G1 X66.843 Y36.083 E0.02623
G1 X67.537 Y35.615 E0.02623
G1 X68.285 Y35.235 E0.02632
G1 X69.340 Y34.877 E0.03492
G1 X70.139 Y34.727 E0.02551
G1 X70.956 Y34.672 E0.02568
G1 X179.057 Y34.672 E3.38942
G1 X179.866 Y34.727 E0.02541
G1 X180.663 Y34.877 E0.02543
G1 X181.712 Y35.233 E0.03473
G1 X182.413 Y35.587 E0.02463
G1 X183.070 Y36.017 E0.02462
G1 X183.844 Y36.688 E0.03213
G1 X184.385 Y37.302 E0.02566
G1 X184.857 Y37.990 E0.02613
G1 X185.287 Y38.836 E0.02976
G1 X185.623 Y39.840 E0.03320
G1 X185.770 Y40.613 E0.02469
G1 X185.827 Y41.405 E0.02487
G1 X185.828 Y168.547 E3.98644
G1 X185.754 Y169.501 E0.03002
G1 X185.595 Y170.268 E0.02455
G1 X185.350 Y171.012 E0.02456
G1 X184.913 Y171.914 E0.03142
G1 X184.348 Y172.746 E0.03153
G1 X183.787 Y173.368 E0.02627
G1 X183.156 Y173.917 E0.02622
G1 X182.464 Y174.384 E0.02617
G1 X181.716 Y174.765 E0.02632
G1 X180.660 Y175.123 E0.03497
G1 X179.861 Y175.273 E0.02551
G1 X179.044 Y175.328 E0.02568
G1 X70.953 Y175.328 E3.38909
G1 X69.999 Y175.254 E0.03001
G1 X69.233 Y175.095 E0.02454
G1 X68.488 Y174.849 E0.02459
G1 X67.585 Y174.412 E0.03146
G1 X66.753 Y173.847 E0.03152
G1 X66.131 Y173.287 E0.02626
G1 X65.582 Y172.655 E0.02625
G1 X65.114 Y171.961 E0.02624
G1 X64.734 Y171.214 E0.02628
G1 X64.377 Y170.160 E0.03488
G1 X64.226 Y169.360 E0.02551
G1 X64.172 Y168.543 E0.02568
G1 X64.172 Y41.453 E3.98482
G1 X64.246 Y40.498 E0.03003
G1 X64.405 Y39.732 E0.02456
G1 X64.651 Y38.988 E0.02455
G1 X64.997 Y38.272 E0.02494
G1 X65.336 Y38.437 F10800.000
G1 F1200.000
G1 X65.420 Y38.264 E0.00603
G1 X65.941 Y37.497 E0.02907
G1 X66.469 Y36.908 E0.02478
G1 X67.064 Y36.389 E0.02476
G1 X67.738 Y35.935 E0.02548
G1 X68.443 Y35.577 E0.02480
G1 X69.422 Y35.245 E0.03241
G1 X70.198 Y35.099 E0.02474
G1 X70.963 Y35.049 E0.02403
G1 X179.050 Y35.049 E3.38902
G1 X179.828 Y35.103 E0.02445
G1 X180.579 Y35.245 E0.02396
G1 X181.554 Y35.576 E0.03229
G1 X182.216 Y35.908 E0.02320
G1 X182.852 Y36.325 E0.02387
G1 X183.587 Y36.964 E0.03053
G1 X184.094 Y37.542 E0.02411
G1 X184.538 Y38.192 E0.02468
G1 X184.944 Y38.994 E0.02818
G1 X185.255 Y39.923 E0.03071
G1 X185.398 Y40.673 E0.02393
G1 X185.450 Y41.424 E0.02362
G1 X185.451 Y168.539 E3.98561
G1 X185.383 Y169.436 E0.02821
G1 X185.228 Y170.180 E0.02382
G1 X184.996 Y170.881 E0.02314
G1 X184.580 Y171.737 E0.02983
G1 X184.059 Y172.503 E0.02907
G1 X183.531 Y173.092 E0.02478
G1 X182.918 Y173.625 E0.02548
G1 X182.264 Y174.064 E0.02470
G1 X181.558 Y174.422 E0.02482
G1 X180.578 Y174.755 E0.03246
G1 X179.802 Y174.901 E0.02474
G1 X179.037 Y174.951 E0.02403
G1 X70.960 Y174.951 E3.38868
G1 X70.064 Y174.883 E0.02820
G1 X69.320 Y174.728 E0.02381
G1 X68.619 Y174.495 E0.02317
G1 X67.762 Y174.079 E0.02986
G1 X66.996 Y173.558 E0.02906
G1 X66.408 Y173.030 E0.02476
G1 X65.874 Y172.416 E0.02550
G1 X65.434 Y171.761 E0.02477
G1 X65.077 Y171.055 E0.02479
G1 X64.745 Y170.078 E0.03238
G1 X64.599 Y169.302 E0.02474
G1 X64.549 Y168.537 E0.02403
G1 X64.549 Y41.461 E3.98440
G1 X64.617 Y40.563 E0.02822
G1 X64.772 Y39.819 E0.02383
G1 X65.004 Y39.119 E0.02314
G1 X65.310 Y38.491 E0.02190
G1 X65.740 Y38.464 F10800.000
G1 F1200.000
G1 X66.231 Y37.739 E0.02745
G1 X66.742 Y37.169 E0.02400
G1 X67.302 Y36.682 E0.02329
G1 X67.938 Y36.254 E0.02402
G1 X68.601 Y35.920 E0.02329
G1 X69.506 Y35.613 E0.02994
G1 X70.234 Y35.475 E0.02325
G1 X70.969 Y35.426 E0.02308
G1 X179.044 Y35.426 E3.38863
M73 Q1 S171
M73 P1 R171
G1 X179.769 Y35.475 E0.02279
G1 X180.496 Y35.613 E0.02319
G1 X181.397 Y35.919 E0.02983
G1 X182.037 Y36.240 E0.02244
G1 X182.634 Y36.633 E0.02244
G1 X183.312 Y37.223 E0.02815
G1 X183.803 Y37.782 E0.02334
G1 X184.220 Y38.394 E0.02320
G1 X184.601 Y39.151 E0.02659
G1 X184.887 Y40.006 E0.02827
G1 X185.022 Y40.710 E0.02248
G1 X185.073 Y41.444 E0.02306
G1 X185.074 Y168.532 E3.98478
G1 X185.011 Y169.372 E0.02641
G1 X184.867 Y170.072 E0.02240
G1 X184.642 Y170.750 E0.02240
G1 X184.260 Y171.536 E0.02740
G1 X183.769 Y172.262 E0.02747
G1 X183.274 Y172.815 E0.02328
G1 X182.698 Y173.319 E0.02399
G1 X182.063 Y173.745 E0.02395
G1 X181.400 Y174.080 E0.02331
G1 X180.494 Y174.387 E0.02998
G1 X179.766 Y174.525 E0.02325
G1 X179.031 Y174.574 E0.02308
G1 X70.967 Y174.574 E3.38826
G1 X70.128 Y174.511 E0.02641
G1 X69.428 Y174.367 E0.02239
G1 X68.749 Y174.141 E0.02243
G1 X67.962 Y173.759 E0.02743
G1 X67.237 Y173.268 E0.02746
G1 X66.684 Y172.773 E0.02327
G1 X66.180 Y172.196 E0.02401
G1 X65.754 Y171.560 E0.02402
G1 X65.419 Y170.898 E0.02327
G1 X65.113 Y169.994 E0.02991
G1 X64.975 Y169.266 E0.02325
G1 X64.926 Y168.531 E0.02308
G1 X64.926 Y41.468 E3.98399
G1 X64.989 Y40.627 E0.02642
G1 X65.133 Y39.927 E0.02241
G1 X65.358 Y39.249 E0.02240
G1 X65.714 Y38.518 E0.02551
G1 X66.052 Y38.683 F10800.000
G1 F1200.000
G1 X66.520 Y37.981 E0.02646
G1 X66.998 Y37.446 E0.02249
G1 X67.541 Y36.974 E0.02253
G1 X68.138 Y36.575 E0.02252
G1 X68.759 Y36.263 E0.02179
G1 X69.589 Y35.981 E0.02750
G1 X70.271 Y35.850 E0.02176
G1 X70.975 Y35.803 E0.02212
G1 X179.038 Y35.804 E3.38823
G1 X179.732 Y35.851 E0.02182
G1 X180.412 Y35.981 E0.02171
G1 X181.240 Y36.262 E0.02742
G1 X181.839 Y36.561 E0.02098
G1 X182.416 Y36.941 E0.02167
G1 X183.054 Y37.498 E0.02655
G1 X183.511 Y38.021 E0.02178
G1 X183.900 Y38.595 E0.02174
G1 X184.258 Y39.308 E0.02501
G1 X184.519 Y40.089 E0.02583
G1 X184.650 Y40.770 E0.02172
G1 X184.697 Y41.463 E0.02178
G1 X184.697 Y168.526 E3.98397
G1 X184.639 Y169.308 E0.02461
G1 X184.500 Y169.985 E0.02166
G1 X184.288 Y170.619 E0.02095
G1 X183.927 Y171.359 E0.02582
G1 X183.479 Y172.020 E0.02505
G1 X183.017 Y172.540 E0.02180
G1 X182.477 Y173.013 E0.02251
G1 X181.883 Y173.413 E0.02246
G1 X181.242 Y173.737 E0.02252
G1 X180.411 Y174.019 E0.02752
G1 X179.729 Y174.150 E0.02176
G1 X179.025 Y174.197 E0.02212
G1 X70.974 Y174.197 E3.38785
G1 X70.191 Y174.139 E0.02463
G1 X69.536 Y174.005 E0.02095
G1 X68.880 Y173.788 E0.02167
G1 X68.140 Y173.426 E0.02583
G1 X67.479 Y172.978 E0.02503
G1 X66.944 Y172.500 E0.02250
G1 X66.473 Y171.958 E0.02252
G1 X66.074 Y171.361 E0.02254
G1 X65.762 Y170.740 E0.02177
G1 X65.481 Y169.910 E0.02747
G1 X65.350 Y169.229 E0.02176
G1 X65.303 Y168.525 E0.02212
G1 X65.303 Y41.474 E3.98357
G1 X65.361 Y40.691 E0.02462
G1 X65.500 Y40.015 E0.02166
G1 X65.712 Y39.381 E0.02095
G1 X66.026 Y38.737 E0.02247
G1 X66.363 Y38.901 F10800.000
G1 F1200.000
G1 X66.811 Y38.221 E0.02551
G1 X67.256 Y37.721 E0.02098
G1 X67.761 Y37.280 E0.02104
G1 X68.318 Y36.906 E0.02103
G1 X68.916 Y36.605 E0.02100
G1 X69.673 Y36.349 E0.02505
G1 X70.330 Y36.223 E0.02098
G1 X70.981 Y36.180 E0.02045
G1 X179.031 Y36.181 E3.38783
G1 X179.695 Y36.226 E0.02084
G1 X180.328 Y36.349 E0.02022
