; generated by PrusaSlicer 2.2.0+win64 on 2020-07-20 at 10:20:04 UTC

; 

; external perimeters extrusion width = 0.45mm
; perimeters extrusion width = 0.45mm
; infill extrusion width = 0.45mm
; solid infill extrusion width = 0.45mm
; top infill extrusion width = 0.40mm
; first layer extrusion width = 0.42mm

M73 P0 R49
M73 Q0 S49
M201 X1000 Y1000 Z200 E5000 ; sets maximum accelerations, mm/sec^2
M203 X200 Y200 Z12 E120 ; sets maximum feedrates, mm/sec
M204 P1250 R1250 T1250 ; sets acceleration (P, T) and retract acceleration (R), mm/sec^2
M205 X8.00 Y8.00 Z0.40 E4.50 ; sets the jerk limits, mm/sec
M205 S0 T0 ; sets the minimum extruding and travel feed rate, mm/sec
M107
M862.3 P "MK3S" ; printer model check
M862.1 P0.4 ; nozzle diameter check
M115 U3.9.0 ; tell printer latest fw version
G90 ; use absolute coordinates
M83 ; extruder relative mode
M104 S215 ; set extruder temp
M140 S60 ; set bed temp
M190 S60 ; wait for bed temp
M109 S215 ; wait for extruder temp
G28 W ; home all without mesh bed level
G80 ; mesh bed leveling
G1 Y-3.0 F1000.0 ; go outside print area
G92 E0.0
G1 X60.0 E9.0 F1000.0 ; intro line
M73 Q0 S49
M73 P0 R49
G1 X100.0 E12.5 F1000.0 ; intro line
G92 E0.0
M221 S95
G21 ; set units to millimeters
G90 ; use absolute coordinates
M83 ; use relative distances for extrusion
M900 K0.06 ; Filament gcode LA 1.5
M900 K30 ; Filament gcode LA 1.0
;BEFORE_LAYER_CHANGE
G92 E0.0
;0.2


G1 E-0.80000 F2100.00000
G1 Z0.600 F10800.000
;AFTER_LAYER_CHANGE
;0.2
G1 X98.731 Y75.585
G1 Z0.200
G1 E0.80000 F2100.00000
M204 S1000
G1 F1200.000
G1 X100.207 Y74.267 E0.06204
G1 X101.395 Y73.513 E0.04413
G1 X102.682 Y72.923 E0.04438
G1 X104.037 Y72.514 E0.04438
G1 X105.436 Y72.294 E0.04438
G1 X123.052 Y72.251 E0.55235
G1 X135.260 Y72.261 E0.38277
G1 X136.606 Y72.389 E0.04239
G1 X137.916 Y72.689 E0.04214
G1 X138.994 Y73.076 E0.03591
G1 X140.030 Y73.584 E0.03616
G1 X141.003 Y74.203 E0.03616
G1 X141.895 Y74.921 E0.03591
G1 X142.708 Y75.739 E0.03616
G1 X143.425 Y76.642 E0.03616
G1 X144.038 Y77.620 E0.03616
G1 X144.535 Y78.652 E0.03591
G1 X144.911 Y79.717 E0.03542
G1 X153.155 Y108.075 E0.92595
G1 X153.669 Y110.421 E0.07532
G1 X153.994 Y113.232 E0.08872
G1 X154.016 Y122.281 E0.28373
G1 X153.836 Y123.781 E0.04737
G1 X153.444 Y125.232 E0.04712
G1 X153.030 Y126.240 E0.03417
G1 X152.513 Y127.199 E0.03417
G1 X151.898 Y128.099 E0.03417
G1 X151.193 Y128.930 E0.03417
G1 X150.404 Y129.681 E0.03417
G1 X149.540 Y130.346 E0.03417
G1 X148.612 Y130.917 E0.03417
G1 X147.636 Y131.384 E0.03392
G1 X145.838 Y131.947 E0.05906
G1 X143.961 Y132.175 E0.05931
G1 X121.180 Y132.170 E0.71426
G1 X119.563 Y131.968 E0.05110
G1 X118.005 Y131.519 E0.05085
G1 X116.528 Y130.828 E0.05110
G1 X115.178 Y129.915 E0.05110
G1 X114.279 Y129.108 E0.03791
G1 X113.484 Y128.207 E0.03766
G1 X112.799 Y127.221 E0.03766
G1 X112.232 Y126.162 E0.03766
G1 X97.261 Y91.194 E1.19265
G1 X96.466 Y88.836 E0.07803
G1 X96.044 Y86.539 E0.07320
G1 X95.974 Y82.478 E0.12734
G1 X96.127 Y80.848 E0.05135
G1 X96.654 Y78.932 E0.06229
G1 X97.533 Y77.159 E0.06204
G1 X98.695 Y75.633 E0.06016
G1 F8640.000
G1 X100.207 Y74.267 E-0.47048
G1 X101.266 Y73.595 E-0.28952
G1 E-0.04000 F2100.00000
G1 Z0.800 F10800.000
G1 X139.325 Y95.781
G1 Z0.200
G1 E0.80000 F2100.00000
G1 F1200.000
G1 X140.012 Y96.614 E0.03387
G1 X141.818 Y98.689 E0.08625
G1 X142.884 Y100.010 E0.05321
G1 X143.933 Y101.453 E0.05596
G1 X144.447 Y102.230 E0.02920
G1 X144.936 Y103.028 E0.02934
G1 X145.399 Y103.843 E0.02939
G1 X145.835 Y104.677 E0.02951
G1 X146.219 Y105.476 E0.02778
G1 X146.576 Y106.290 E0.02788
G1 X146.909 Y107.123 E0.02814
G1 X147.213 Y107.975 E0.02835
G1 X147.485 Y108.831 E0.02816
G1 X147.728 Y109.711 E0.02863
G1 X148.062 Y111.228 E0.04871
G1 X148.198 Y112.078 E0.02699
G1 X148.289 Y112.862 E0.02475
G1 X148.345 Y113.647 E0.02465
G1 X148.364 Y114.365 E0.02254
G1 X148.337 Y120.671 E0.19770
G1 X148.135 Y121.538 E0.02791
G1 X147.772 Y122.347 E0.02781
G1 X146.233 Y123.964 E0.06999
G1 X145.383 Y124.391 E0.02982
G1 X144.160 Y124.689 E0.03948
G1 X121.211 Y124.692 E0.71953
G1 X120.239 Y124.511 E0.03102
G1 X119.299 Y124.110 E0.03204
G1 X117.736 Y122.661 E0.06683
G1 X117.186 Y121.595 E0.03759
G1 X116.936 Y120.427 E0.03744
G1 X116.941 Y112.896 E0.23614
G1 X116.921 Y111.434 E0.04584
G1 X116.844 Y109.680 E0.05506
G1 X116.672 Y107.753 E0.06065
G1 X116.495 Y106.490 E0.03998
G1 X116.250 Y105.208 E0.04093
G1 X116.123 Y104.672 E0.01727
G1 X115.782 Y103.485 E0.03874
G1 X115.396 Y102.431 E0.03518
G1 X115.204 Y101.987 E0.01517
G1 X114.741 Y101.077 E0.03201
G1 X114.247 Y100.287 E0.02921
G1 X113.694 Y99.557 E0.02871
G1 X113.453 Y99.279 E0.01156
G1 X112.797 Y98.616 E0.02924
G1 X112.530 Y98.377 E0.01121
G1 X111.798 Y97.790 E0.02944
G1 X111.043 Y97.256 E0.02898
G1 X108.280 Y95.500 E0.10267
G1 X107.144 Y94.718 E0.04325
G1 X106.248 Y94.020 E0.03559
G1 X105.688 Y93.532 E0.02329
G1 X105.154 Y93.017 E0.02326
G1 X104.648 Y92.472 E0.02333
G1 X104.161 Y91.884 E0.02393
G1 X103.704 Y91.258 E0.02429
G1 X103.291 Y90.609 E0.02412
G1 X102.737 Y89.572 E0.03688
G1 X102.312 Y88.564 E0.03430
G1 X102.091 Y87.916 E0.02146
G1 X101.842 Y86.970 E0.03068
G1 X101.709 Y86.218 E0.02393
G1 X101.638 Y85.315 E0.02840
G1 X101.637 Y83.516 E0.05642
G1 X101.914 Y82.259 E0.04036
G1 X102.649 Y80.977 E0.04634
G1 X103.501 Y80.154 E0.03714
G1 X104.498 Y79.571 E0.03621
G1 X105.894 Y79.229 E0.04506
G1 X135.392 Y79.235 E0.92490
G1 X136.365 Y79.415 E0.03102
G1 X137.314 Y79.822 E0.03238
G1 X138.942 Y81.368 E0.07038
G1 X139.369 Y82.220 E0.02988
G1 X139.666 Y83.446 E0.03957
G1 X139.662 Y85.705 E0.07082
G1 X139.629 Y86.617 E0.02859
G1 X139.536 Y87.565 E0.02987
G1 X139.349 Y88.637 E0.03412
G1 X139.319 Y89.252 E0.01931
G1 X139.325 Y95.721 E0.20284
G1 X138.948 Y95.891 F10800.000
G1 F1200.000
G1 X139.109 Y96.122 E0.00883
G1 X139.725 Y96.859 E0.03013
G1 X141.531 Y98.934 E0.08624
G1 X142.582 Y100.235 E0.05243
G1 X143.626 Y101.671 E0.05568
G1 X144.130 Y102.435 E0.02870
G1 X144.613 Y103.222 E0.02895
G1 X145.070 Y104.026 E0.02898
G1 X145.500 Y104.849 E0.02910
G1 X145.878 Y105.636 E0.02738
G1 X146.227 Y106.432 E0.02728
G1 X146.555 Y107.254 E0.02772
G1 X146.855 Y108.092 E0.02793
G1 X147.123 Y108.935 E0.02772
G1 X147.361 Y109.797 E0.02805
G1 X147.690 Y111.293 E0.04804
G1 X147.823 Y112.126 E0.02644
G1 X147.913 Y112.894 E0.02424
G1 X147.968 Y113.661 E0.02411
G1 X147.986 Y114.367 E0.02215
G1 X147.964 Y120.607 E0.19567
G1 X147.783 Y121.401 E0.02551
G1 X147.441 Y122.163 E0.02621
G1 X146.033 Y123.642 E0.06403
G1 X145.271 Y124.030 E0.02682
G1 X144.136 Y124.312 E0.03664
G1 X121.229 Y124.314 E0.71823
G1 X120.330 Y124.145 E0.02870
G1 X119.478 Y123.777 E0.02909
G1 X118.055 Y122.457 E0.06086
G1 X117.549 Y121.489 E0.03424
G1 X117.313 Y120.407 E0.03474
G1 X117.318 Y112.893 E0.23558
G1 X117.298 Y111.423 E0.04610
G1 X117.220 Y109.655 E0.05551
G1 X117.046 Y107.710 E0.06121
G1 X116.867 Y106.429 E0.04057
G1 X116.619 Y105.129 E0.04148
G1 X116.488 Y104.577 E0.01781
G1 X116.141 Y103.368 E0.03945
G1 X115.747 Y102.291 E0.03594
G1 X115.545 Y101.827 E0.01588
G1 X115.069 Y100.892 E0.03289
G1 X114.558 Y100.073 E0.03026
G1 X113.987 Y99.319 E0.02964
G1 X113.729 Y99.022 E0.01234
G1 X113.057 Y98.342 E0.02998
G1 X112.774 Y98.090 E0.01189
G1 X112.025 Y97.489 E0.03011
G1 X111.253 Y96.943 E0.02962
G1 X108.485 Y95.183 E0.10286
G1 X107.371 Y94.417 E0.04240
G1 X106.484 Y93.726 E0.03525
G1 X105.940 Y93.251 E0.02265
G1 X105.420 Y92.749 E0.02265
G1 X104.935 Y92.227 E0.02235
G1 X104.462 Y91.657 E0.02322
G1 X104.019 Y91.050 E0.02356
G1 X103.620 Y90.425 E0.02326
G1 X103.081 Y89.417 E0.03583
G1 X102.663 Y88.423 E0.03382
G1 X102.450 Y87.801 E0.02063
G1 X102.209 Y86.881 E0.02981
G1 X102.085 Y86.179 E0.02237
G1 X102.015 Y85.307 E0.02741
G1 X102.014 Y83.535 E0.05555
G1 X102.256 Y82.419 E0.03581
G1 X102.932 Y81.228 E0.04296
G1 X103.712 Y80.468 E0.03414
G1 X104.665 Y79.911 E0.03461
G1 X105.916 Y79.607 E0.04039
G1 X135.374 Y79.612 E0.92364
G1 X136.274 Y79.782 E0.02870
G1 X137.134 Y80.154 E0.02938
G1 X138.620 Y81.568 E0.06432
G1 X139.008 Y82.332 E0.02687
G1 X139.289 Y83.469 E0.03672
G1 X139.285 Y85.701 E0.06999
G1 X139.253 Y86.597 E0.02811
G1 X139.164 Y87.507 E0.02865
G1 X138.973 Y88.595 E0.03463
G1 X138.942 Y89.243 E0.02034
G1 X138.948 Y95.831 E0.20658
G1 X138.571 Y96.010 F10800.000
G1 F1200.000
G1 X138.809 Y96.352 E0.01306
G1 X139.438 Y97.104 E0.03076
G1 X141.240 Y99.174 E0.08603
G1 X142.279 Y100.461 E0.05187
G1 X143.318 Y101.890 E0.05539
G1 X143.814 Y102.640 E0.02820
G1 X144.290 Y103.417 E0.02856
G1 X144.740 Y104.209 E0.02858
G1 X145.164 Y105.020 E0.02869
G1 X145.536 Y105.796 E0.02698
G1 X145.878 Y106.575 E0.02668
G1 X146.201 Y107.384 E0.02731
G1 X146.497 Y108.210 E0.02750
G1 X146.760 Y109.039 E0.02727
G1 X146.994 Y109.883 E0.02746
G1 X147.319 Y111.359 E0.04738
G1 X147.449 Y112.174 E0.02589
G1 X147.537 Y112.925 E0.02372
G1 X147.591 Y113.675 E0.02357
G1 X147.609 Y114.369 E0.02176
G1 X147.592 Y120.544 E0.19362
G1 X147.420 Y121.298 E0.02424
G1 X147.111 Y121.978 E0.02343
G1 X145.832 Y123.322 E0.05818
G1 X145.156 Y123.670 E0.02383
G1 X144.112 Y123.935 E0.03376
G1 X121.248 Y123.937 E0.71691
G1 X120.422 Y123.779 E0.02635
G1 X119.659 Y123.444 E0.02614
G1 X118.374 Y122.254 E0.05492
G1 X117.895 Y121.338 E0.03242
G1 X117.690 Y120.387 E0.03048
G1 X117.695 Y112.891 E0.23504
G1 X117.675 Y111.412 E0.04637
G1 X117.596 Y109.630 E0.05595
G1 X117.421 Y107.667 E0.06177
G1 X117.239 Y106.367 E0.04116
G1 X116.988 Y105.051 E0.04202
G1 X116.853 Y104.481 E0.01834
G1 X116.499 Y103.251 E0.04015
G1 X116.097 Y102.151 E0.03671
G1 X115.887 Y101.666 E0.01658
G1 X115.398 Y100.706 E0.03378
G1 X114.869 Y99.859 E0.03130
G1 X114.280 Y99.082 E0.03057
G1 X114.006 Y98.766 E0.01312
G1 X113.317 Y98.069 E0.03073
G1 X113.018 Y97.802 E0.01257
G1 X112.252 Y97.188 E0.03079
G1 X111.464 Y96.630 E0.03027
G1 X108.690 Y94.867 E0.10304
G1 X107.598 Y94.116 E0.04155
G1 X106.720 Y93.432 E0.03491
G1 X106.191 Y92.970 E0.02200
G1 X105.692 Y92.489 E0.02174
G1 X105.221 Y91.983 E0.02168
G1 X104.763 Y91.430 E0.02251
G1 X104.334 Y90.842 E0.02282
G1 X103.949 Y90.240 E0.02240
G1 X103.425 Y89.263 E0.03477
G1 X103.013 Y88.283 E0.03333
G1 X102.809 Y87.686 E0.01979
G1 X102.576 Y86.793 E0.02894
G1 X102.460 Y86.139 E0.02081
G1 X102.392 Y85.299 E0.02642
G1 X102.391 Y83.555 E0.05470
G1 X102.599 Y82.578 E0.03131
G1 X103.215 Y81.478 E0.03952
G1 X103.958 Y80.754 E0.03252
G1 X104.829 Y80.251 E0.03155
G1 X105.938 Y79.984 E0.03577
G1 X135.356 Y79.989 E0.92236
G1 X136.181 Y80.148 E0.02635
G1 X136.952 Y80.486 E0.02639
G1 X138.300 Y81.769 E0.05834
G1 X138.648 Y82.446 E0.02388
G1 X138.912 Y83.492 E0.03383
G1 X138.908 Y85.697 E0.06914
G1 X138.876 Y86.578 E0.02763
G1 X138.791 Y87.449 E0.02743
G1 X138.598 Y88.553 E0.03514
G1 X138.565 Y89.234 E0.02137
G1 X138.571 Y95.950 E0.21059
G1 X138.194 Y96.129 F10800.000
G1 F1200.000
G1 X138.509 Y96.581 E0.01729
G1 X139.152 Y97.349 E0.03139
G1 X140.953 Y99.419 E0.08604
G1 X141.983 Y100.694 E0.05139
G1 X143.006 Y102.101 E0.05454
G1 X143.497 Y102.845 E0.02797
G1 X143.964 Y103.606 E0.02797
G1 X144.408 Y104.387 E0.02817
G1 X144.825 Y105.186 E0.02828
G1 X145.195 Y105.956 E0.02677
G1 X145.532 Y106.724 E0.02628
G1 X145.849 Y107.521 E0.02690
G1 X146.141 Y108.334 E0.02708
G1 X146.398 Y109.143 E0.02662
G1 X146.627 Y109.969 E0.02688
G1 X146.947 Y111.424 E0.04671
G1 X147.075 Y112.222 E0.02534
G1 X147.161 Y112.957 E0.02320
G1 X147.215 Y113.689 E0.02302
G1 X147.232 Y114.371 E0.02137
G1 X147.220 Y120.482 E0.19163
G1 X147.068 Y121.160 E0.02177
G1 X146.781 Y121.793 E0.02181
G1 X145.629 Y123.003 E0.05237
G1 X145.040 Y123.311 E0.02086
G1 X144.088 Y123.558 E0.03082
G1 X121.266 Y123.560 E0.71556
G1 X120.517 Y123.413 E0.02395
G1 X119.841 Y123.113 E0.02319
G1 X118.692 Y122.049 E0.04910
G1 X118.258 Y121.231 E0.02904
G1 X118.067 Y120.367 E0.02774
G1 X118.072 Y112.889 E0.23447
G1 X118.052 Y111.401 E0.04663
G1 X117.973 Y109.605 E0.05640
G1 X117.796 Y107.624 E0.06234
G1 X117.611 Y106.305 E0.04175
G1 X117.356 Y104.972 E0.04257
G1 X117.218 Y104.386 E0.01888
G1 X116.858 Y103.133 E0.04085
G1 X116.447 Y102.011 E0.03747
G1 X116.228 Y101.505 E0.01729
G1 X115.726 Y100.520 E0.03466
G1 X115.180 Y99.645 E0.03235
G1 X114.573 Y98.844 E0.03150
G1 X114.283 Y98.509 E0.01390
G1 X113.577 Y97.796 E0.03147
G1 X113.262 Y97.514 E0.01325
G1 X112.479 Y96.886 E0.03146
G1 X111.674 Y96.317 E0.03092
G1 X108.895 Y94.550 E0.10323
G1 X107.826 Y93.815 E0.04070
G1 X106.956 Y93.137 E0.03456
G1 X106.443 Y92.689 E0.02136
G1 X105.965 Y92.228 E0.02082
G1 X105.508 Y91.737 E0.02102
G1 X105.064 Y91.203 E0.02180
G1 X104.648 Y90.634 E0.02208
G1 X104.278 Y90.055 E0.02154
G1 X103.769 Y89.108 E0.03371
G1 X103.363 Y88.143 E0.03283
G1 X103.169 Y87.571 E0.01894
G1 X102.942 Y86.705 E0.02807
G1 X102.835 Y86.100 E0.01927
G1 X102.769 Y85.292 E0.02542
G1 X102.768 Y83.574 E0.05386
G1 X102.943 Y82.735 E0.02687
G1 X103.500 Y81.727 E0.03610
G1 X104.168 Y81.069 E0.02941
G1 X104.994 Y80.591 E0.02992
G1 X105.960 Y80.361 E0.03115
G1 X135.337 Y80.366 E0.92109
G1 X136.087 Y80.514 E0.02395
G1 X136.769 Y80.817 E0.02340
G1 X137.980 Y81.971 E0.05247
G1 X138.289 Y82.562 E0.02090
G1 X138.535 Y83.516 E0.03089
G1 X138.531 Y85.693 E0.06827
G1 X138.500 Y86.559 E0.02715
G1 X138.418 Y87.391 E0.02622
G1 X138.222 Y88.511 E0.03565
G1 X138.187 Y89.225 E0.02240
G1 X138.194 Y96.069 E0.21460
G1 X137.817 Y96.248 F10800.000
G1 F1200.000
G1 X138.210 Y96.810 E0.02152
G1 X138.865 Y97.594 E0.03202
G1 X140.667 Y99.664 E0.08604
G1 X141.687 Y100.927 E0.05092
G1 X142.694 Y102.312 E0.05369
G1 X143.178 Y103.045 E0.02754
G1 X143.637 Y103.795 E0.02757
G1 X144.075 Y104.565 E0.02776
G1 X144.487 Y105.352 E0.02787
G1 X144.851 Y106.111 E0.02637
G1 X145.185 Y106.872 E0.02608
G1 X145.498 Y107.657 E0.02649
G1 X145.782 Y108.451 E0.02645
G1 X146.036 Y109.247 E0.02618
G1 X146.260 Y110.055 E0.02629
G1 X146.576 Y111.489 E0.04604
G1 X146.701 Y112.270 E0.02479
G1 X146.786 Y112.988 E0.02269
G1 X146.838 Y113.703 E0.02248
G1 X146.855 Y114.373 E0.02099
G1 X146.847 Y120.422 E0.18968
G1 X146.716 Y121.023 E0.01926
G1 X146.450 Y121.608 E0.02017
G1 X145.425 Y122.685 E0.04661
G1 X144.921 Y122.953 E0.01790
G1 X144.063 Y123.181 E0.02783
G1 X121.284 Y123.183 E0.71421
G1 X120.650 Y123.060 E0.02025
G1 X120.022 Y122.781 E0.02154
G1 X119.008 Y121.842 E0.04333
G1 X118.619 Y121.121 E0.02567
G1 X118.444 Y120.345 E0.02494
G1 X118.449 Y112.886 E0.23388
G1 X118.429 Y111.391 E0.04689
G1 X118.349 Y109.579 E0.05684
G1 X118.171 Y107.581 E0.06290
G1 X117.984 Y106.244 E0.04234
G1 X117.725 Y104.893 E0.04312
G1 X117.583 Y104.290 E0.01942
G1 X117.217 Y103.016 E0.04156
G1 X116.798 Y101.871 E0.03824
G1 X116.569 Y101.344 E0.01800
G1 X116.055 Y100.334 E0.03554
G1 X115.491 Y99.431 E0.03340
G1 X114.866 Y98.606 E0.03244
G1 X114.559 Y98.253 E0.01468
G1 X113.837 Y97.522 E0.03221
G1 X113.505 Y97.226 E0.01393
G1 X112.706 Y96.585 E0.03213
G1 X111.884 Y96.004 E0.03156
G1 X109.100 Y94.234 E0.10342
G1 X108.053 Y93.514 E0.03986
G1 X107.192 Y92.843 E0.03422
G1 X106.695 Y92.409 E0.02071
G1 X106.231 Y91.960 E0.02023
G1 X105.795 Y91.492 E0.02005
G1 X105.365 Y90.975 E0.02109
G1 X104.962 Y90.426 E0.02135
G1 X104.606 Y89.870 E0.02068
G1 X104.113 Y88.954 E0.03264
G1 X103.713 Y88.003 E0.03233
G1 X103.528 Y87.457 E0.01809
G1 X103.309 Y86.617 E0.02721
G1 X103.210 Y86.060 E0.01774
G1 X103.146 Y85.284 E0.02442
G1 X103.145 Y83.592 E0.05304
G1 X103.288 Y82.889 E0.02249
G1 X103.785 Y81.976 E0.03261
G1 X104.415 Y81.355 E0.02772
G1 X105.156 Y80.932 E0.02676
G1 X105.982 Y80.738 E0.02659
G1 X135.319 Y80.743 E0.91984
G1 X135.953 Y80.867 E0.02025
G1 X136.586 Y81.148 E0.02171
G1 X137.662 Y82.175 E0.04664
G1 X137.930 Y82.681 E0.01794
G1 X138.158 Y83.541 E0.02789
G1 X138.154 Y85.689 E0.06738
G1 X138.123 Y86.539 E0.02666
G1 X138.046 Y87.333 E0.02500
G1 X137.847 Y88.469 E0.03616
G1 X137.810 Y89.216 E0.02343
G1 X137.817 Y96.188 E0.21861
G1 X137.440 Y96.366 F10800.000
G1 F1200.000
G1 X137.910 Y97.040 E0.02574
G1 X138.578 Y97.839 E0.03266
G1 X140.380 Y99.908 E0.08605
G1 X141.390 Y101.160 E0.05044
G1 X142.381 Y102.523 E0.05285
G1 X142.858 Y103.245 E0.02712
G1 X143.311 Y103.984 E0.02718
G1 X143.742 Y104.742 E0.02736
G1 X144.148 Y105.519 E0.02746
G1 X144.507 Y106.265 E0.02597
G1 X144.839 Y107.021 E0.02587
