; generated by PrusaSlicer 2.2.0+win64 on 2020-07-10 at 12:26:55 UTC

; 

; external perimeters extrusion width = 0.45mm
; perimeters extrusion width = 0.45mm
; infill extrusion width = 0.45mm
; solid infill extrusion width = 0.45mm
; top infill extrusion width = 0.40mm
; first layer extrusion width = 0.42mm

M73 P0 R53
M73 Q0 S53
M201 X1000 Y1000 Z200 E5000 ; sets maximum accelerations, mm/sec^2
M203 X200 Y200 Z12 E120 ; sets maximum feedrates, mm/sec
M204 P1250 R1250 T1250 ; sets acceleration (P, T) and retract acceleration (R), mm/sec^2
M205 X8.00 Y8.00 Z0.40 E4.50 ; sets the jerk limits, mm/sec
M205 S0 T0 ; sets the minimum extruding and travel feed rate, mm/sec
M107
M862.3 P "MK3S" ; printer model check
M862.1 P0.4 ; nozzle diameter check
M115 U3.9.0 ; tell printer latest fw version
G90 ; use absolute coordinates
M83 ; extruder relative mode
M104 S215 ; set extruder temp
M140 S60 ; set bed temp
M190 S60 ; wait for bed temp
M109 S215 ; wait for extruder temp
G28 W ; home all without mesh bed level
G80 ; mesh bed leveling
G1 Y-3.0 F1000.0 ; go outside print area
G92 E0.0
G1 X60.0 E9.0 F1000.0 ; intro line
M73 Q0 S53
M73 P0 R53
G1 X100.0 E12.5 F1000.0 ; intro line
G92 E0.0
M221 S95
G21 ; set units to millimeters
G90 ; use absolute coordinates
M83 ; use relative distances for extrusion
M900 K0.06 ; Filament gcode LA 1.5
M900 K30 ; Filament gcode LA 1.0
;BEFORE_LAYER_CHANGE
G92 E0.0
;0.2


G1 E-0.80000 F2100.00000
G1 Z0.600 F10800.000
;AFTER_LAYER_CHANGE
;0.2
G1 X139.325 Y95.782
G1 Z0.200
G1 E0.80000 F2100.00000
M204 S1000
G1 F1200.000
G1 X140.012 Y96.614 E0.03381
G1 X141.832 Y98.705 E0.08695
G1 X142.891 Y100.018 E0.05287
G1 X143.930 Y101.447 E0.05538
G1 X144.457 Y102.245 E0.02999
G1 X144.929 Y103.015 E0.02833
G1 X145.399 Y103.841 E0.02978
G1 X145.817 Y104.639 E0.02827
G1 X146.213 Y105.461 E0.02860
G1 X146.579 Y106.295 E0.02855
G1 X146.913 Y107.132 E0.02826
G1 X147.214 Y107.975 E0.02806
G1 X147.485 Y108.825 E0.02797
G1 X147.735 Y109.733 E0.02953
G1 X148.068 Y111.261 E0.04903
G1 X148.191 Y112.028 E0.02437
G1 X148.284 Y112.800 E0.02437
G1 X148.342 Y113.578 E0.02447
G1 X148.364 Y114.370 E0.02484
G1 X148.364 Y120.415 E0.18953
G1 X148.170 Y121.441 E0.03276
G1 X147.544 Y122.683 E0.04360
G1 X146.609 Y123.681 E0.04289
G1 X145.459 Y124.368 E0.04199
G1 X144.107 Y124.692 E0.04359
G1 X121.214 Y124.692 E0.71780
G1 X120.188 Y124.497 E0.03274
G1 X118.997 Y123.908 E0.04166
G1 X118.031 Y123.027 E0.04097
G1 X117.389 Y122.070 E0.03616
G1 X117.011 Y120.981 E0.03613
G1 X116.921 Y111.434 E0.29935
G1 X116.844 Y109.680 E0.05504
G1 X116.672 Y107.754 E0.06065
G1 X116.495 Y106.491 E0.03998
G1 X116.250 Y105.209 E0.04093
G1 X116.124 Y104.674 E0.01723
G1 X115.783 Y103.489 E0.03867
G1 X115.402 Y102.448 E0.03474
G1 X114.973 Y101.510 E0.03234
G1 X114.498 Y100.671 E0.03024
G1 X113.970 Y99.903 E0.02922
G1 X113.734 Y99.606 E0.01189
G1 X113.136 Y98.947 E0.02788
G1 X112.496 Y98.351 E0.02743
G1 X111.797 Y97.791 E0.02807
G1 X111.043 Y97.257 E0.02898
G1 X108.240 Y95.475 E0.10416
G1 X107.196 Y94.758 E0.03969
G1 X106.247 Y94.021 E0.03766
G1 X105.585 Y93.439 E0.02765
G1 X104.750 Y92.588 E0.03738
G1 X104.192 Y91.926 E0.02713
G1 X103.720 Y91.283 E0.02503
G1 X103.048 Y90.188 E0.04028
G1 X102.507 Y89.062 E0.03917
G1 X102.095 Y87.932 E0.03771
G1 X101.830 Y86.923 E0.03270
G1 X101.653 Y85.687 E0.03915
G1 X101.633 Y83.538 E0.06738
G1 X101.828 Y82.491 E0.03341
G1 X102.448 Y81.249 E0.04352
G1 X103.383 Y80.255 E0.04277
G1 X104.522 Y79.563 E0.04179
G1 X105.839 Y79.231 E0.04260
G1 X135.437 Y79.234 E0.92803
G1 X136.424 Y79.430 E0.03153
G1 X137.341 Y79.838 E0.03147
G1 X138.511 Y80.831 E0.04814
G1 X139.246 Y81.923 E0.04126
G1 X139.626 Y83.157 E0.04047
G1 X139.661 Y85.705 E0.07991
G1 X139.600 Y86.996 E0.04054
G1 X139.494 Y87.830 E0.02634
G1 X139.358 Y88.548 E0.02293
G1 X139.328 Y88.934 E0.01214
G1 X139.325 Y95.722 E0.21281
G1 X138.948 Y95.892 F10800.000
G1 F1200.000
G1 X139.108 Y96.121 E0.00877
G1 X139.725 Y96.859 E0.03014
G1 X141.545 Y98.950 E0.08693
G1 X142.594 Y100.251 E0.05239
G1 X143.622 Y101.665 E0.05480
G1 X144.137 Y102.445 E0.02930
G1 X144.603 Y103.204 E0.02794
G1 X145.069 Y104.024 E0.02958
G1 X145.482 Y104.811 E0.02786
G1 X145.872 Y105.622 E0.02820
G1 X146.233 Y106.443 E0.02814
G1 X146.561 Y107.269 E0.02785
G1 X146.858 Y108.099 E0.02764
G1 X147.124 Y108.936 E0.02754
G1 X147.367 Y109.819 E0.02871
G1 X147.697 Y111.326 E0.04837
G1 X147.818 Y112.084 E0.02408
G1 X147.909 Y112.840 E0.02389
G1 X147.966 Y113.602 E0.02394
G1 X147.987 Y114.373 E0.02417
G1 X147.987 Y120.396 E0.18887
G1 X147.805 Y121.343 E0.03023
G1 X147.221 Y122.487 E0.04027
G1 X146.354 Y123.402 E0.03953
G1 X145.292 Y124.028 E0.03864
G1 X144.085 Y124.315 E0.03890
G1 X121.232 Y124.315 E0.71654
G1 X120.286 Y124.132 E0.03022
G1 X119.191 Y123.583 E0.03840
G1 X118.304 Y122.766 E0.03779
G1 X117.717 Y121.882 E0.03328
G1 X117.378 Y120.889 E0.03292
G1 X117.298 Y111.424 E0.29676
G1 X117.220 Y109.655 E0.05552
G1 X117.047 Y107.711 E0.06121
G1 X116.867 Y106.429 E0.04057
G1 X116.619 Y105.130 E0.04148
G1 X116.489 Y104.578 E0.01777
G1 X116.142 Y103.372 E0.03937
G1 X115.751 Y102.305 E0.03562
G1 X115.309 Y101.339 E0.03330
G1 X114.818 Y100.471 E0.03127
G1 X114.273 Y99.679 E0.03015
G1 X114.022 Y99.362 E0.01269
G1 X113.405 Y98.682 E0.02877
G1 X112.743 Y98.066 E0.02837
G1 X112.024 Y97.490 E0.02886
G1 X111.253 Y96.944 E0.02963
G1 X108.450 Y95.162 E0.10414
G1 X107.414 Y94.450 E0.03942
G1 X106.483 Y93.727 E0.03696
G1 X105.850 Y93.169 E0.02646
G1 X105.024 Y92.329 E0.03694
G1 X104.485 Y91.688 E0.02625
G1 X104.029 Y91.066 E0.02419
G1 X103.375 Y89.999 E0.03924
G1 X102.851 Y88.907 E0.03797
G1 X102.452 Y87.811 E0.03656
G1 X102.198 Y86.838 E0.03154
G1 X102.030 Y85.671 E0.03697
G1 X102.011 Y83.553 E0.06639
G1 X102.194 Y82.586 E0.03086
G1 X102.743 Y81.485 E0.03858
G1 X103.603 Y80.562 E0.03957
G1 X104.644 Y79.921 E0.03834
G1 X105.863 Y79.608 E0.03947
G1 X135.419 Y79.611 E0.92670
G1 X136.292 Y79.784 E0.02792
G1 X137.118 Y80.144 E0.02824
G1 X138.248 Y81.102 E0.04644
G1 X138.895 Y82.062 E0.03631
G1 X139.249 Y83.190 E0.03705
G1 X139.284 Y85.704 E0.07885
G1 X139.225 Y86.956 E0.03930
G1 X139.120 Y87.776 E0.02592
G1 X138.983 Y88.498 E0.02304
G1 X138.951 Y88.920 E0.01325
G1 X138.948 Y95.832 E0.21673
G1 X138.571 Y96.011 F10800.000
G1 F1200.000
G1 X138.809 Y96.351 E0.01301
G1 X139.438 Y97.104 E0.03077
G1 X141.259 Y99.195 E0.08694
G1 X142.298 Y100.484 E0.05191
G1 X143.315 Y101.883 E0.05422
G1 X143.817 Y102.644 E0.02861
G1 X144.277 Y103.393 E0.02755
G1 X144.737 Y104.202 E0.02918
G1 X145.143 Y104.978 E0.02746
G1 X145.528 Y105.776 E0.02779
G1 X145.884 Y106.586 E0.02773
G1 X146.207 Y107.399 E0.02743
G1 X146.502 Y108.222 E0.02743
G1 X146.764 Y109.046 E0.02711
G1 X147.000 Y109.904 E0.02790
G1 X147.326 Y111.391 E0.04771
G1 X147.444 Y112.132 E0.02356
G1 X147.534 Y112.881 E0.02364
G1 X147.590 Y113.626 E0.02341
G1 X147.610 Y114.375 E0.02351
G1 X147.610 Y120.379 E0.18825
G1 X147.455 Y121.198 E0.02613
G1 X146.927 Y122.250 E0.03691
G1 X146.137 Y123.093 E0.03622
G1 X145.175 Y123.669 E0.03515
G1 X144.062 Y123.938 E0.03589
G1 X121.251 Y123.938 E0.71524
G1 X120.385 Y123.767 E0.02767
G1 X119.386 Y123.259 E0.03514
G1 X118.578 Y122.506 E0.03465
G1 X118.066 Y121.737 E0.02895
G1 X117.745 Y120.796 E0.03118
G1 X117.696 Y112.894 E0.24776
G1 X117.675 Y111.413 E0.04645
G1 X117.597 Y109.630 E0.05595
G1 X117.422 Y107.668 E0.06177
G1 X117.240 Y106.368 E0.04116
G1 X116.988 Y105.051 E0.04203
G1 X116.854 Y104.483 E0.01830
G1 X116.500 Y103.254 E0.04008
G1 X116.100 Y102.161 E0.03651
G1 X115.645 Y101.167 E0.03427
G1 X115.139 Y100.271 E0.03229
G1 X114.576 Y99.454 E0.03108
G1 X114.309 Y99.118 E0.01348
G1 X113.674 Y98.417 E0.02966
G1 X112.989 Y97.780 E0.02931
G1 X112.251 Y97.189 E0.02966
G1 X111.463 Y96.631 E0.03027
G1 X108.661 Y94.849 E0.10411
G1 X107.632 Y94.142 E0.03914
G1 X106.719 Y93.433 E0.03627
G1 X106.114 Y92.900 E0.02527
G1 X105.298 Y92.070 E0.03649
G1 X104.778 Y91.451 E0.02537
G1 X104.338 Y90.850 E0.02335
G1 X103.702 Y89.811 E0.03820
G1 X103.196 Y88.753 E0.03678
G1 X102.810 Y87.691 E0.03542
G1 X102.565 Y86.753 E0.03039
G1 X102.407 Y85.655 E0.03479
G1 X102.388 Y83.569 E0.06539
G1 X102.559 Y82.684 E0.02825
G1 X103.066 Y81.681 E0.03527
G1 X103.859 Y80.840 E0.03623
G1 X104.815 Y80.258 E0.03511
G1 X105.887 Y79.985 E0.03466
G1 X135.400 Y79.988 E0.92536
G1 X136.197 Y80.149 E0.02551
G1 X136.940 Y80.477 E0.02546
G1 X137.982 Y81.371 E0.04304
G1 X138.566 Y82.248 E0.03303
G1 X138.881 Y83.274 E0.03366
G1 X138.907 Y85.703 E0.07616
G1 X138.848 Y86.931 E0.03856
G1 X138.747 Y87.723 E0.02503
G1 X138.609 Y88.448 E0.02316
G1 X138.574 Y88.905 E0.01436
G1 X138.571 Y95.951 E0.22091
G1 X138.194 Y96.129 F10800.000
G1 F1200.000
G1 X138.509 Y96.580 E0.01725
G1 X139.151 Y97.348 E0.03140
G1 X140.972 Y99.440 E0.08694
G1 X142.001 Y100.717 E0.05143
G1 X143.007 Y102.101 E0.05364
G1 X143.497 Y102.844 E0.02792
G1 X143.951 Y103.582 E0.02715
G1 X144.404 Y104.380 E0.02877
G1 X144.808 Y105.150 E0.02725
G1 X145.187 Y105.937 E0.02739
G1 X145.535 Y106.729 E0.02711
G1 X145.853 Y107.529 E0.02701
G1 X146.146 Y108.346 E0.02722
G1 X146.401 Y109.150 E0.02645
G1 X146.633 Y109.990 E0.02731
G1 X146.954 Y111.456 E0.04705
G1 X147.070 Y112.181 E0.02303
G1 X147.159 Y112.922 E0.02339
G1 X147.213 Y113.649 E0.02288
G1 X147.233 Y114.378 E0.02285
G1 X147.233 Y120.361 E0.18760
G1 X147.091 Y121.100 E0.02359
G1 X146.604 Y122.054 E0.03357
G1 X145.882 Y122.814 E0.03286
G1 X145.008 Y123.329 E0.03182
G1 X144.040 Y123.561 E0.03120
G1 X121.268 Y123.561 E0.71400
G1 X120.530 Y123.418 E0.02359
G1 X119.623 Y122.965 E0.03178
G1 X118.852 Y122.246 E0.03306
G1 X118.395 Y121.552 E0.02606
G1 X118.112 Y120.706 E0.02796
G1 X118.073 Y112.891 E0.24504
G1 X118.052 Y111.402 E0.04668
G1 X117.973 Y109.605 E0.05640
G1 X117.796 Y107.625 E0.06234
G1 X117.612 Y106.306 E0.04175
G1 X117.357 Y104.972 E0.04257
G1 X117.219 Y104.388 E0.01884
G1 X116.859 Y103.137 E0.04078
G1 X116.449 Y102.018 E0.03739
G1 X115.981 Y100.996 E0.03523
G1 X115.459 Y100.071 E0.03332
G1 X114.880 Y99.230 E0.03201
G1 X114.597 Y98.873 E0.01427
G1 X113.942 Y98.152 E0.03055
G1 X113.236 Y97.495 E0.03024
G1 X112.478 Y96.887 E0.03045
G1 X111.673 Y96.318 E0.03092
G1 X108.872 Y94.536 E0.10409
G1 X107.851 Y93.835 E0.03886
G1 X106.955 Y93.138 E0.03557
G1 X106.378 Y92.631 E0.02409
G1 X105.573 Y91.811 E0.03604
G1 X105.070 Y91.213 E0.02448
G1 X104.647 Y90.634 E0.02251
G1 X104.029 Y89.622 E0.03716
G1 X103.540 Y88.599 E0.03557
G1 X103.167 Y87.571 E0.03428
G1 X102.933 Y86.668 E0.02924
G1 X102.784 Y85.639 E0.03262
G1 X102.765 Y83.585 E0.06438
G1 X102.923 Y82.784 E0.02560
G1 X103.389 Y81.878 E0.03194
G1 X104.114 Y81.118 E0.03295
G1 X104.938 Y80.615 E0.03026
G1 X105.911 Y80.362 E0.03153
G1 X135.380 Y80.366 E0.92398
G1 X136.100 Y80.514 E0.02305
G1 X136.760 Y80.809 E0.02267
G1 X137.714 Y81.638 E0.03962
G1 X138.235 Y82.431 E0.02974
G1 X138.512 Y83.355 E0.03027
G1 X138.530 Y85.700 E0.07352
G1 X138.472 Y86.905 E0.03784
G1 X138.374 Y87.669 E0.02414
G1 X138.235 Y88.398 E0.02328
G1 X138.196 Y88.890 E0.01547
G1 X138.194 Y96.069 E0.22509
G1 X137.817 Y96.248 F10800.000
G1 F1200.000
G1 X138.209 Y96.810 E0.02148
G1 X138.865 Y97.593 E0.03203
G1 X140.685 Y99.685 E0.08695
G1 X141.705 Y100.950 E0.05094
G1 X142.699 Y102.319 E0.05307
G1 X143.178 Y103.044 E0.02724
G1 X143.625 Y103.772 E0.02676
G1 X144.075 Y104.564 E0.02857
G1 X144.472 Y105.322 E0.02684
G1 X144.845 Y106.097 E0.02698
G1 X145.188 Y106.877 E0.02670
G1 X145.502 Y107.665 E0.02659
G1 X145.789 Y108.470 E0.02680
G1 X146.039 Y109.254 E0.02580
G1 X146.266 Y110.076 E0.02672
G1 X146.583 Y111.521 E0.04639
G1 X146.698 Y112.237 E0.02274
G1 X146.784 Y112.962 E0.02290
G1 X146.837 Y113.673 E0.02235
G1 X146.856 Y114.380 E0.02219
G1 X146.856 Y120.342 E0.18693
G1 X146.726 Y120.999 E0.02101
G1 X146.283 Y121.855 E0.03021
G1 X145.630 Y122.532 E0.02950
G1 X144.844 Y122.989 E0.02851
G1 X144.019 Y123.184 E0.02658
G1 X121.287 Y123.183 E0.71273
G1 X120.629 Y123.053 E0.02103
G1 X119.819 Y122.642 E0.02850
G1 X119.128 Y121.988 E0.02983
G1 X118.725 Y121.368 E0.02319
G1 X118.480 Y120.617 E0.02475
G1 X118.429 Y111.391 E0.28929
G1 X118.349 Y109.580 E0.05684
G1 X118.171 Y107.582 E0.06290
G1 X117.984 Y106.244 E0.04234
G1 X117.725 Y104.894 E0.04312
G1 X117.583 Y104.292 E0.01938
G1 X117.218 Y103.020 E0.04149
G1 X116.798 Y101.874 E0.03828
G1 X116.317 Y100.824 E0.03620
G1 X115.779 Y99.871 E0.03435
G1 X115.183 Y99.005 E0.03293
G1 X114.884 Y98.629 E0.01506
G1 X114.211 Y97.887 E0.03144
G1 X113.483 Y97.209 E0.03118
G1 X112.705 Y96.586 E0.03124
G1 X111.884 Y96.004 E0.03157
G1 X109.083 Y94.224 E0.10407
G1 X108.069 Y93.527 E0.03858
G1 X107.191 Y92.844 E0.03487
G1 X106.642 Y92.362 E0.02291
G1 X105.847 Y91.552 E0.03559
G1 X105.364 Y90.976 E0.02359
G1 X104.956 Y90.418 E0.02167
G1 X104.356 Y89.434 E0.03611
G1 X103.884 Y88.445 E0.03437
G1 X103.525 Y87.451 E0.03313
G1 X103.300 Y86.584 E0.02809
G1 X103.161 Y85.622 E0.03046
G1 X103.142 Y83.600 E0.06340
G1 X103.272 Y82.930 E0.02141
G1 X103.682 Y82.116 E0.02857
G1 X104.335 Y81.425 E0.02982
G1 X105.063 Y80.972 E0.02688
G1 X105.936 Y80.739 E0.02833
G1 X135.361 Y80.743 E0.92259
G1 X135.965 Y80.867 E0.01933
G1 X136.579 Y81.142 E0.02111
G1 X137.445 Y81.903 E0.03613
G1 X137.903 Y82.611 E0.02644
G1 X138.142 Y83.434 E0.02690
G1 X138.153 Y85.696 E0.07092
G1 X138.096 Y86.880 E0.03714
G1 X138.001 Y87.615 E0.02325
G1 X137.860 Y88.348 E0.02341
G1 X137.819 Y88.876 E0.01659
G1 X137.817 Y96.188 E0.22927
G1 X137.440 Y96.366 F10800.000
G1 F1200.000
G1 X137.909 Y97.039 E0.02572
G1 X138.578 Y97.838 E0.03266
G1 X140.398 Y99.930 E0.08695
G1 X141.408 Y101.183 E0.05046
G1 X142.392 Y102.537 E0.05249
G1 X142.858 Y103.244 E0.02656
G1 X143.298 Y103.961 E0.02637
G1 X143.746 Y104.747 E0.02836
G1 X144.137 Y105.494 E0.02644
G1 X144.504 Y106.258 E0.02657
G1 X144.841 Y107.026 E0.02629
G1 X145.150 Y107.802 E0.02618
G1 X145.433 Y108.594 E0.02638
G1 X145.676 Y109.358 E0.02515
G1 X145.898 Y110.162 E0.02613
G1 X146.211 Y111.586 E0.04572
G1 X146.325 Y112.293 E0.02245
G1 X146.409 Y113.002 E0.02240
G1 X146.461 Y113.696 E0.02182
G1 X146.479 Y114.383 E0.02153
G1 X146.479 Y120.325 E0.18630
G1 X146.378 Y120.853 E0.01688
G1 X145.991 Y121.614 E0.02675
G1 X145.378 Y122.251 E0.02772
G1 X144.682 Y122.648 E0.02511
G1 X143.998 Y122.806 E0.02202
G1 X121.305 Y122.806 E0.71153
G1 X120.776 Y122.705 E0.01688
G1 X120.015 Y122.318 E0.02675
G1 X119.406 Y121.733 E0.02650
G1 X119.056 Y121.186 E0.02033
G1 X118.848 Y120.531 E0.02155
G1 X118.827 Y112.884 E0.23977
G1 X118.806 Y111.380 E0.04717
G1 X118.726 Y109.555 E0.05729
G1 X118.546 Y107.539 E0.06346
G1 X118.356 Y106.183 E0.04293
G1 X118.094 Y104.815 E0.04367
G1 X117.948 Y104.197 E0.01992
G1 X117.577 Y102.903 E0.04219
G1 X117.147 Y101.730 E0.03916
G1 X116.654 Y100.653 E0.03716
G1 X116.099 Y99.671 E0.03537
G1 X115.486 Y98.781 E0.03386
G1 X115.172 Y98.385 E0.01585
G1 X114.479 Y97.622 E0.03232
G1 X113.730 Y96.924 E0.03212
G1 X112.932 Y96.285 E0.03203
G1 X112.094 Y95.691 E0.03221
G1 X109.293 Y93.911 E0.10404
G1 X108.287 Y93.219 E0.03829
G1 X107.427 Y92.550 E0.03417
G1 X106.906 Y92.093 E0.02173
G1 X106.121 Y91.293 E0.03513
G1 X105.657 Y90.739 E0.02269
G1 X105.265 Y90.202 E0.02084
G1 X104.683 Y89.247 E0.03507
G1 X104.229 Y88.291 E0.03316
G1 X103.883 Y87.332 E0.03199
G1 X103.668 Y86.499 E0.02695
G1 X103.538 Y85.606 E0.02831
G1 X103.520 Y83.617 E0.06237
G1 X103.636 Y83.030 E0.01875
G1 X104.004 Y82.314 E0.02525
G1 X104.591 Y81.703 E0.02656
G1 X105.190 Y81.328 E0.02218
G1 X105.962 Y81.116 E0.02510
G1 X135.340 Y81.120 E0.92114
G1 X135.865 Y81.231 E0.01682
G1 X136.396 Y81.473 E0.01829
G1 X137.173 Y82.166 E0.03265
G1 X137.569 Y82.788 E0.02313
G1 X137.772 Y83.511 E0.02353
G1 X137.775 Y85.692 E0.06839
G1 X137.720 Y86.854 E0.03647
G1 X137.628 Y87.560 E0.02235
G1 X137.486 Y88.298 E0.02354
G1 X137.442 Y88.861 E0.01771
G1 X137.440 Y96.306 E0.23345
G1 X137.063 Y96.440 F10800.000
G1 F1200.000
G1 X137.171 Y96.657 E0.00759
G1 X137.612 Y97.271 E0.02372
G1 X138.291 Y98.083 E0.03317
G1 X140.112 Y100.175 E0.08696
G1 X141.112 Y101.416 E0.04997
G1 X142.084 Y102.755 E0.05191
G1 X142.538 Y103.444 E0.02588
G1 X142.972 Y104.150 E0.02597
G1 X143.416 Y104.931 E0.02816
G1 X143.801 Y105.666 E0.02602
