; generated by PrusaSlicer 2.2.0+win64 on 2020-07-09 at 16:25:53 UTC

; 

; external perimeters extrusion width = 0.45mm
; perimeters extrusion width = 0.45mm
; infill extrusion width = 0.45mm
; solid infill extrusion width = 0.45mm
; top infill extrusion width = 0.40mm
; first layer extrusion width = 0.42mm

M73 P0 R141
M73 Q0 S143
M201 X1000 Y1000 Z200 E5000 ; sets maximum accelerations, mm/sec^2
M203 X200 Y200 Z12 E120 ; sets maximum feedrates, mm/sec
M204 P1250 R1250 T1250 ; sets acceleration (P, T) and retract acceleration (R), mm/sec^2
M205 X8.00 Y8.00 Z0.40 E4.50 ; sets the jerk limits, mm/sec
M205 S0 T0 ; sets the minimum extruding and travel feed rate, mm/sec
M107
M862.3 P "MK3S" ; printer model check
M862.1 P0.4 ; nozzle diameter check
M115 U3.9.0 ; tell printer latest fw version
G90 ; use absolute coordinates
M83 ; extruder relative mode
M104 S215 ; set extruder temp
M140 S60 ; set bed temp
M190 S60 ; wait for bed temp
M109 S215 ; wait for extruder temp
G28 W ; home all without mesh bed level
G80 ; mesh bed leveling
G1 Y-3.0 F1000.0 ; go outside print area
G92 E0.0
G1 X60.0 E9.0 F1000.0 ; intro line
M73 Q0 S143
M73 P0 R141
G1 X100.0 E12.5 F1000.0 ; intro line
G92 E0.0
M221 S95
G21 ; set units to millimeters
G90 ; use absolute coordinates
M83 ; use relative distances for extrusion
M900 K0.06 ; Filament gcode LA 1.5
M900 K30 ; Filament gcode LA 1.0
;BEFORE_LAYER_CHANGE
G92 E0.0
;0.2


G1 E-0.80000 F2100.00000
G1 Z0.600 F10800.000
;AFTER_LAYER_CHANGE
;0.2
G1 X145.812 Y27.608
G1 Z0.200
G1 E0.80000 F2100.00000
M204 S1000
G1 F1200.000
G1 X146.579 Y28.115 E0.02884
G1 X147.095 Y28.872 E0.02872
G1 X147.287 Y29.772 E0.02884
G1 X147.287 Y180.192 E4.71633
G1 X147.106 Y181.102 E0.02907
G1 X146.591 Y181.873 E0.02907
G1 X145.820 Y182.388 E0.02907
G1 X144.911 Y182.569 E0.02907
G1 X144.016 Y182.395 E0.02860
G1 X143.249 Y181.893 E0.02872
G1 X103.346 Y141.988 E1.76943
G1 X102.937 Y141.380 E0.02296
G1 X102.733 Y140.677 E0.02296
G1 X102.713 Y137.059 E0.11345
G1 X102.837 Y136.301 E0.02407
G1 X137.035 Y34.610 E3.36392
G1 X137.536 Y33.821 E0.02931
G1 X143.309 Y28.050 E0.25593
G1 X144.053 Y27.590 E0.02743
G1 X144.913 Y27.431 E0.02743
G1 X145.753 Y27.597 E0.02684
G1 F8640.000
G1 X146.579 Y28.115 E-0.22526
G1 X147.095 Y28.872 E-0.21151
G1 X147.287 Y29.772 E-0.21237
G1 X147.287 Y30.252 E-0.11086
G1 E-0.04000 F2100.00000
G1 Z0.800 F10800.000
G1 X144.173 Y31.585
G1 Z0.200
G1 E0.80000 F2100.00000
G1 F1200.000
G1 X144.127 Y32.291 E0.02218
G1 X144.123 Y33.304 E0.03174
G1 X144.123 Y177.202 E4.51184
G1 X144.150 Y178.241 E0.03256
G1 X144.173 Y178.414 E0.00548
G1 X144.071 Y178.279 E0.00532
G1 X143.357 Y177.527 E0.03249
G1 X105.877 Y140.047 E1.66195
G1 X105.877 Y137.846 E0.06900
G1 X112.764 Y137.846 E0.21593
G1 X139.068 Y164.150 E1.16638
G1 X140.040 Y163.748 E0.03298
G1 X140.040 Y35.790 E4.01202
G1 X143.705 Y32.120 E0.16264
G1 X144.137 Y31.633 E0.02040
G1 F8640.000
G1 X144.127 Y32.291 E-0.15203
G1 X144.123 Y33.304 E-0.23378
G1 X144.123 Y34.924 E-0.37420
G1 E-0.04000 F2100.00000
G1 Z0.800 F10800.000
G1 X139.157 Y163.705
G1 Z0.200
G1 E0.80000 F2100.00000
G1 F1200.000
G1 X139.663 Y163.496 E0.01718
G1 X139.663 Y35.634 E4.00901
G1 X143.433 Y31.859 E0.16727
G1 X143.780 Y31.480 E0.01613
G1 X144.097 Y31.065 E0.01636
G1 X144.367 Y30.648 E0.01559
G1 X144.699 Y30.316 E0.01471
G1 X144.700 Y30.785 E0.01468
G1 X144.596 Y31.271 E0.01558
G1 X144.527 Y31.787 E0.01635
G1 X144.504 Y32.301 E0.01611
G1 X144.500 Y33.305 E0.03148
G1 X144.500 Y177.197 E4.51166
G1 X144.527 Y178.211 E0.03178
G1 X144.596 Y178.729 E0.01641
G1 X144.700 Y179.215 E0.01558
G1 X144.699 Y179.684 E0.01469
G1 X144.369 Y179.355 E0.01461
G1 X144.100 Y178.939 E0.01553
G1 X143.783 Y178.524 E0.01637
G1 X143.087 Y177.790 E0.03170
G1 X105.500 Y140.203 E1.66669
G1 X105.500 Y137.469 E0.08572
G1 X112.920 Y137.469 E0.23265
G1 X139.114 Y163.663 E1.16149
M73 Q0 S142
M73 P0 R140
G1 X139.371 Y164.043 F10800.000
G1 F8640.000
G1 X139.663 Y163.496 E-0.13243
G1 X139.663 Y160.778 E-0.62757
G1 E-0.04000 F2100.00000
G1 Z0.800 F10800.000
G1 X144.243 Y178.589
G1 Z0.200
G1 E0.80000 F2100.00000
G1 F1200.000
G1 X144.465 Y179.118 E0.00435
G1 F8640.000
G1 X144.243 Y178.589 E-0.13250
G1 E-0.66750 F2100.00000
G1 Z0.800 F10800.000
G1 X105.990 Y139.259
G1 Z0.200
G1 E0.80000 F2100.00000
G1 F1200.000
G1 X143.840 Y177.109 E1.68315
G1 X143.840 Y176.574 E0.01682
G1 X106.160 Y138.894 E1.67561
G1 X106.160 Y138.359 E0.01682
G1 X143.840 Y176.039 E1.67561
G1 X143.840 Y175.504 E0.01682
G1 X106.465 Y138.129 E1.66205
G1 X107.000 Y138.129 E0.01682
G1 X143.840 Y174.969 E1.63827
G1 X143.840 Y174.435 E0.01682
G1 X107.534 Y138.129 E1.61449
G1 X108.069 Y138.129 E0.01682
G1 X143.840 Y173.900 E1.59071
G1 X143.840 Y173.365 E0.01682
G1 X108.604 Y138.129 E1.56693
G1 X109.139 Y138.129 E0.01682
G1 X143.840 Y172.830 E1.54314
G1 X143.840 Y172.295 E0.01682
G1 X109.674 Y138.129 E1.51936
G1 X110.208 Y138.129 E0.01682
G1 X143.840 Y171.761 E1.49558
G1 X143.840 Y171.226 E0.01682
G1 X110.743 Y138.129 E1.47180
G1 X111.278 Y138.129 E0.01682
G1 X143.840 Y170.691 E1.44801
G1 X143.840 Y170.156 E0.01682
G1 X111.813 Y138.129 E1.42423
G1 X112.348 Y138.129 E0.01682
G1 X143.840 Y169.621 E1.40045
G1 X143.840 Y169.087 E0.01682
G1 X139.169 Y164.415 E0.20775
G1 X139.547 Y164.258 E0.01287
G1 X143.840 Y168.552 E0.19093
G1 X143.840 Y168.017 E0.01682
G1 X139.925 Y164.102 E0.17411
G1 X140.303 Y163.945 E0.01287
G1 X143.840 Y167.482 E0.15730
G1 X143.840 Y166.947 E0.01682
G1 X140.323 Y163.430 E0.15641
G1 X140.323 Y162.895 E0.01682
G1 X143.840 Y166.413 E0.15641
G1 X143.840 Y165.878 E0.01682
G1 X140.323 Y162.360 E0.15641
G1 X140.323 Y161.826 E0.01682
G1 X143.840 Y165.343 E0.15641
G1 X143.840 Y164.808 E0.01682
G1 X140.323 Y161.291 E0.15641
G1 X140.323 Y160.756 E0.01682
G1 X143.840 Y164.273 E0.15641
G1 X143.840 Y163.739 E0.01682
G1 X140.323 Y160.221 E0.15641
G1 X140.323 Y159.686 E0.01682
G1 X143.840 Y163.204 E0.15641
G1 X143.840 Y162.669 E0.01682
G1 X140.323 Y159.152 E0.15641
G1 X140.323 Y158.617 E0.01682
G1 X143.840 Y162.134 E0.15641
G1 X143.840 Y161.599 E0.01682
G1 X140.323 Y158.082 E0.15641
G1 X140.323 Y157.547 E0.01682
G1 X143.840 Y161.065 E0.15641
G1 X143.840 Y160.530 E0.01682
G1 X140.323 Y157.012 E0.15641
G1 X140.323 Y156.478 E0.01682
G1 X143.840 Y159.995 E0.15641
G1 X143.840 Y159.460 E0.01682
G1 X140.323 Y155.943 E0.15641
G1 X140.323 Y155.408 E0.01682
G1 X143.840 Y158.925 E0.15641
G1 X143.840 Y158.391 E0.01682
G1 X140.323 Y154.873 E0.15641
G1 X140.323 Y154.338 E0.01682
G1 X143.840 Y157.856 E0.15641
G1 X143.840 Y157.321 E0.01682
G1 X140.323 Y153.804 E0.15641
G1 X140.323 Y153.269 E0.01682
G1 X143.840 Y156.786 E0.15641
G1 X143.840 Y156.251 E0.01682
G1 X140.323 Y152.734 E0.15641
G1 X140.323 Y152.199 E0.01682
G1 X143.840 Y155.717 E0.15641
G1 X143.840 Y155.182 E0.01682
G1 X140.323 Y151.664 E0.15641
G1 X140.323 Y151.130 E0.01682
G1 X143.840 Y154.647 E0.15641
G1 X143.840 Y154.112 E0.01682
G1 X140.323 Y150.595 E0.15641
G1 X140.323 Y150.060 E0.01682
G1 X143.840 Y153.577 E0.15641
G1 X143.840 Y153.042 E0.01682
G1 X140.323 Y149.525 E0.15641
G1 X140.323 Y148.990 E0.01682
G1 X143.840 Y152.508 E0.15641
G1 X143.840 Y151.973 E0.01682
G1 X140.323 Y148.456 E0.15641
G1 X140.323 Y147.921 E0.01682
G1 X143.840 Y151.438 E0.15641
G1 X143.840 Y150.903 E0.01682
G1 X140.323 Y147.386 E0.15641
G1 X140.323 Y146.851 E0.01682
G1 X143.840 Y150.368 E0.15641
G1 X143.840 Y149.834 E0.01682
G1 X140.323 Y146.316 E0.15641
G1 X140.323 Y145.782 E0.01682
G1 X143.840 Y149.299 E0.15641
G1 X143.840 Y148.764 E0.01682
G1 X140.323 Y145.247 E0.15641
G1 X140.323 Y144.712 E0.01682
G1 X143.840 Y148.229 E0.15641
G1 X143.840 Y147.694 E0.01682
G1 X140.323 Y144.177 E0.15641
G1 X140.323 Y143.642 E0.01682
G1 X143.840 Y147.160 E0.15641
G1 X143.840 Y146.625 E0.01682
G1 X140.323 Y143.108 E0.15641
G1 X140.323 Y142.573 E0.01682
G1 X143.840 Y146.090 E0.15641
G1 X143.840 Y145.555 E0.01682
G1 X140.323 Y142.038 E0.15641
G1 X140.323 Y141.503 E0.01682
G1 X143.840 Y145.020 E0.15641
G1 X143.840 Y144.486 E0.01682
G1 X140.323 Y140.968 E0.15641
G1 X140.323 Y140.434 E0.01682
G1 X143.840 Y143.951 E0.15641
G1 X143.840 Y143.416 E0.01682
G1 X140.323 Y139.899 E0.15641
G1 X140.323 Y139.364 E0.01682
G1 X143.840 Y142.881 E0.15641
G1 X143.840 Y142.346 E0.01682
G1 X140.323 Y138.829 E0.15641
G1 X140.323 Y138.294 E0.01682
G1 X143.840 Y141.812 E0.15641
G1 X143.840 Y141.277 E0.01682
G1 X140.323 Y137.760 E0.15641
G1 X140.323 Y137.225 E0.01682
G1 X143.840 Y140.742 E0.15641
G1 X143.840 Y140.207 E0.01682
G1 X140.323 Y136.690 E0.15641
G1 X140.323 Y136.155 E0.01682
G1 X143.840 Y139.672 E0.15641
G1 X143.840 Y139.138 E0.01682
G1 X140.323 Y135.620 E0.15641
G1 X140.323 Y135.085 E0.01682
G1 X143.840 Y138.603 E0.15641
G1 X143.840 Y138.068 E0.01682
G1 X140.323 Y134.551 E0.15641
G1 X140.323 Y134.016 E0.01682
G1 X143.840 Y137.533 E0.15641
G1 X143.840 Y136.998 E0.01682
G1 X140.323 Y133.481 E0.15641
G1 X140.323 Y132.946 E0.01682
G1 X143.840 Y136.464 E0.15641
G1 X143.840 Y135.929 E0.01682
G1 X140.323 Y132.411 E0.15641
G1 X140.323 Y131.877 E0.01682
G1 X143.840 Y135.394 E0.15641
G1 X143.840 Y134.859 E0.01682
G1 X140.323 Y131.342 E0.15641
G1 X140.323 Y130.807 E0.01682
G1 X143.840 Y134.324 E0.15641
G1 X143.840 Y133.790 E0.01682
G1 X140.323 Y130.272 E0.15641
G1 X140.323 Y129.737 E0.01682
G1 X143.840 Y133.255 E0.15641
G1 X143.840 Y132.720 E0.01682
G1 X140.323 Y129.203 E0.15641
G1 X140.323 Y128.668 E0.01682
G1 X143.840 Y132.185 E0.15641
G1 X143.840 Y131.650 E0.01682
G1 X140.323 Y128.133 E0.15641
G1 X140.323 Y127.598 E0.01682
G1 X143.840 Y131.116 E0.15641
M73 Q1 S141
G1 X143.840 Y130.581 E0.01682
M73 P1 R139
G1 X140.323 Y127.063 E0.15641
G1 X140.323 Y126.529 E0.01682
G1 X143.840 Y130.046 E0.15641
G1 X143.840 Y129.511 E0.01682
G1 X140.323 Y125.994 E0.15641
G1 X140.323 Y125.459 E0.01682
G1 X143.840 Y128.976 E0.15641
G1 X143.840 Y128.441 E0.01682
G1 X140.323 Y124.924 E0.15641
G1 X140.323 Y124.389 E0.01682
G1 X143.840 Y127.907 E0.15641
G1 X143.840 Y127.372 E0.01682
G1 X140.323 Y123.855 E0.15641
G1 X140.323 Y123.320 E0.01682
G1 X143.840 Y126.837 E0.15641
G1 X143.840 Y126.302 E0.01682
G1 X140.323 Y122.785 E0.15641
G1 X140.323 Y122.250 E0.01682
G1 X143.840 Y125.767 E0.15641
G1 X143.840 Y125.233 E0.01682
G1 X140.323 Y121.715 E0.15641
G1 X140.323 Y121.181 E0.01682
G1 X143.840 Y124.698 E0.15641
G1 X143.840 Y124.163 E0.01682
G1 X140.323 Y120.646 E0.15641
G1 X140.323 Y120.111 E0.01682
G1 X143.840 Y123.628 E0.15641
G1 X143.840 Y123.093 E0.01682
G1 X140.323 Y119.576 E0.15641
G1 X140.323 Y119.041 E0.01682
G1 X143.840 Y122.559 E0.15641
G1 X143.840 Y122.024 E0.01682
G1 X140.323 Y118.507 E0.15641
G1 X140.323 Y117.972 E0.01682
G1 X143.840 Y121.489 E0.15641
G1 X143.840 Y120.954 E0.01682
G1 X140.323 Y117.437 E0.15641
G1 X140.323 Y116.902 E0.01682
G1 X143.840 Y120.419 E0.15641
G1 X143.840 Y119.885 E0.01682
G1 X140.323 Y116.367 E0.15641
G1 X140.323 Y115.833 E0.01682
G1 X143.840 Y119.350 E0.15641
G1 X143.840 Y118.815 E0.01682
G1 X140.323 Y115.298 E0.15641
G1 X140.323 Y114.763 E0.01682
G1 X143.840 Y118.280 E0.15641
G1 X143.840 Y117.745 E0.01682
G1 X140.323 Y114.228 E0.15641
G1 X140.323 Y113.693 E0.01682
G1 X143.840 Y117.211 E0.15641
G1 X143.840 Y116.676 E0.01682
G1 X140.323 Y113.159 E0.15641
G1 X140.323 Y112.624 E0.01682
G1 X143.840 Y116.141 E0.15641
G1 X143.840 Y115.606 E0.01682
G1 X140.323 Y112.089 E0.15641
G1 X140.323 Y111.554 E0.01682
G1 X143.840 Y115.071 E0.15641
G1 X143.840 Y114.537 E0.01682
G1 X140.323 Y111.019 E0.15641
G1 X140.323 Y110.485 E0.01682
G1 X143.840 Y114.002 E0.15641
G1 X143.840 Y113.467 E0.01682
G1 X140.323 Y109.950 E0.15641
G1 X140.323 Y109.415 E0.01682
G1 X143.840 Y112.932 E0.15641
G1 X143.840 Y112.397 E0.01682
G1 X140.323 Y108.880 E0.15641
G1 X140.323 Y108.345 E0.01682
G1 X143.840 Y111.863 E0.15641
G1 X143.840 Y111.328 E0.01682
G1 X140.323 Y107.811 E0.15641
G1 X140.323 Y107.276 E0.01682
G1 X143.840 Y110.793 E0.15641
G1 X143.840 Y110.258 E0.01682
G1 X140.323 Y106.741 E0.15641
G1 X140.323 Y106.206 E0.01682
G1 X143.840 Y109.723 E0.15641
G1 X143.840 Y109.189 E0.01682
G1 X140.323 Y105.671 E0.15641
G1 X140.323 Y105.137 E0.01682
G1 X143.840 Y108.654 E0.15641
G1 X143.840 Y108.119 E0.01682
G1 X140.323 Y104.602 E0.15641
G1 X140.323 Y104.067 E0.01682
G1 X143.840 Y107.584 E0.15641
G1 X143.840 Y107.049 E0.01682
G1 X140.323 Y103.532 E0.15641
G1 X140.323 Y102.997 E0.01682
G1 X143.840 Y106.515 E0.15641
G1 X143.840 Y105.980 E0.01682
G1 X140.323 Y102.463 E0.15641
G1 X140.323 Y101.928 E0.01682
G1 X143.840 Y105.445 E0.15641
G1 X143.840 Y104.910 E0.01682
G1 X140.323 Y101.393 E0.15641
G1 X140.323 Y100.858 E0.01682
G1 X143.840 Y104.375 E0.15641
G1 X143.840 Y103.841 E0.01682
G1 X140.323 Y100.323 E0.15641
G1 X140.323 Y99.788 E0.01682
G1 X143.840 Y103.306 E0.15641
G1 X143.840 Y102.771 E0.01682
G1 X140.323 Y99.254 E0.15641
G1 X140.323 Y98.719 E0.01682
G1 X143.840 Y102.236 E0.15641
G1 X143.840 Y101.701 E0.01682
G1 X140.323 Y98.184 E0.15641
G1 X140.323 Y97.649 E0.01682
G1 X143.840 Y101.166 E0.15641
G1 X143.840 Y100.632 E0.01682
G1 X140.323 Y97.114 E0.15641
G1 X140.323 Y96.580 E0.01682
G1 X143.840 Y100.097 E0.15641
G1 X143.840 Y99.562 E0.01682
G1 X140.323 Y96.045 E0.15641
G1 X140.323 Y95.510 E0.01682
G1 X143.840 Y99.027 E0.15641
G1 X143.840 Y98.492 E0.01682
G1 X140.323 Y94.975 E0.15641
G1 X140.323 Y94.440 E0.01682
G1 X143.840 Y97.958 E0.15641
G1 X143.840 Y97.423 E0.01682
G1 X140.323 Y93.906 E0.15641
G1 X140.323 Y93.371 E0.01682
G1 X143.840 Y96.888 E0.15641
G1 X143.840 Y96.353 E0.01682
G1 X140.323 Y92.836 E0.15641
G1 X140.323 Y92.301 E0.01682
G1 X143.840 Y95.818 E0.15641
G1 X143.840 Y95.284 E0.01682
G1 X140.323 Y91.766 E0.15641
G1 X140.323 Y91.232 E0.01682
G1 X143.840 Y94.749 E0.15641
G1 X143.840 Y94.214 E0.01682
G1 X140.323 Y90.697 E0.15641
G1 X140.323 Y90.162 E0.01682
G1 X143.840 Y93.679 E0.15641
G1 X143.840 Y93.144 E0.01682
G1 X140.323 Y89.627 E0.15641
G1 X140.323 Y89.092 E0.01682
G1 X143.840 Y92.610 E0.15641
G1 X143.840 Y92.075 E0.01682
G1 X140.323 Y88.558 E0.15641
G1 X140.323 Y88.023 E0.01682
G1 X143.840 Y91.540 E0.15641
G1 X143.840 Y91.005 E0.01682
G1 X140.323 Y87.488 E0.15641
G1 X140.323 Y86.953 E0.01682
G1 X143.840 Y90.470 E0.15641
G1 X143.840 Y89.936 E0.01682
G1 X140.323 Y86.418 E0.15641
G1 X140.323 Y85.884 E0.01682
G1 X143.840 Y89.401 E0.15641
G1 X143.840 Y88.866 E0.01682
G1 X140.323 Y85.349 E0.15641
G1 X140.323 Y84.814 E0.01682
G1 X143.840 Y88.331 E0.15641
G1 X143.840 Y87.796 E0.01682
G1 X140.323 Y84.279 E0.15641
G1 X140.323 Y83.744 E0.01682
G1 X143.840 Y87.262 E0.15641
G1 X143.840 Y86.727 E0.01682
G1 X140.323 Y83.210 E0.15641
G1 X140.323 Y82.675 E0.01682
G1 X143.840 Y86.192 E0.15641
G1 X143.840 Y85.657 E0.01682
G1 X140.323 Y82.140 E0.15641
G1 X140.323 Y81.605 E0.01682
G1 X143.840 Y85.122 E0.15641
G1 X143.840 Y84.588 E0.01682
G1 X140.323 Y81.070 E0.15641
G1 X140.323 Y80.536 E0.01682
G1 X143.840 Y84.053 E0.15641
G1 X143.840 Y83.518 E0.01682
G1 X140.323 Y80.001 E0.15641
G1 X140.323 Y79.466 E0.01682
G1 X143.840 Y82.983 E0.15641
G1 X143.840 Y82.448 E0.01682
G1 X140.323 Y78.931 E0.15641
G1 X140.323 Y78.396 E0.01682
G1 X143.840 Y81.914 E0.15641
G1 X143.840 Y81.379 E0.01682
G1 X140.323 Y77.862 E0.15641
G1 X140.323 Y77.327 E0.01682
G1 X143.840 Y80.844 E0.15641
G1 X143.840 Y80.309 E0.01682
G1 X140.323 Y76.792 E0.15641
G1 X140.323 Y76.257 E0.01682
G1 X143.840 Y79.774 E0.15641
G1 X143.840 Y79.240 E0.01682
G1 X140.323 Y75.722 E0.15641
G1 X140.323 Y75.188 E0.01682
G1 X143.840 Y78.705 E0.15641
G1 X143.840 Y78.170 E0.01682
G1 X140.323 Y74.653 E0.15641
G1 X140.323 Y74.118 E0.01682
G1 X143.840 Y77.635 E0.15641
G1 X143.840 Y77.100 E0.01682
G1 X140.323 Y73.583 E0.15641
G1 X140.323 Y73.048 E0.01682
G1 X143.840 Y76.565 E0.15641
G1 X143.840 Y76.031 E0.01682
G1 X140.323 Y72.514 E0.15641
G1 X140.323 Y71.979 E0.01682
G1 X143.840 Y75.496 E0.15641
G1 X143.840 Y74.961 E0.01682
G1 X140.323 Y71.444 E0.15641
G1 X140.323 Y70.909 E0.01682
G1 X143.840 Y74.426 E0.15641
G1 X143.840 Y73.891 E0.01682
G1 X140.323 Y70.374 E0.15641
G1 X140.323 Y69.840 E0.01682
G1 X143.840 Y73.357 E0.15641
G1 X143.840 Y72.822 E0.01682
G1 X140.323 Y69.305 E0.15641
G1 X140.323 Y68.770 E0.01682
G1 X143.840 Y72.287 E0.15640
G1 X143.840 Y71.752 E0.01682
