; generated by PrusaSlicer 2.2.0+win64 on 2020-07-10 at 12:14:51 UTC

; 

; external perimeters extrusion width = 0.45mm
; perimeters extrusion width = 0.45mm
; infill extrusion width = 0.45mm
; solid infill extrusion width = 0.45mm
; top infill extrusion width = 0.40mm
; first layer extrusion width = 0.42mm

M73 P0 R86
M73 Q0 S86
M201 X1000 Y1000 Z200 E5000 ; sets maximum accelerations, mm/sec^2
M203 X200 Y200 Z12 E120 ; sets maximum feedrates, mm/sec
M204 P1250 R1250 T1250 ; sets acceleration (P, T) and retract acceleration (R), mm/sec^2
M205 X8.00 Y8.00 Z0.40 E4.50 ; sets the jerk limits, mm/sec
M205 S0 T0 ; sets the minimum extruding and travel feed rate, mm/sec
M107
M862.3 P "MK3S" ; printer model check
M862.1 P0.4 ; nozzle diameter check
M115 U3.9.0 ; tell printer latest fw version
G90 ; use absolute coordinates
M83 ; extruder relative mode
M104 S215 ; set extruder temp
M140 S60 ; set bed temp
M190 S60 ; wait for bed temp
M109 S215 ; wait for extruder temp
G28 W ; home all without mesh bed level
G80 ; mesh bed leveling
G1 Y-3.0 F1000.0 ; go outside print area
G92 E0.0
G1 X60.0 E9.0 F1000.0 ; intro line
M73 Q0 S86
M73 P0 R86
G1 X100.0 E12.5 F1000.0 ; intro line
G92 E0.0
M221 S95
G21 ; set units to millimeters
G90 ; use absolute coordinates
M83 ; use relative distances for extrusion
M900 K0.06 ; Filament gcode LA 1.5
M900 K30 ; Filament gcode LA 1.0
;BEFORE_LAYER_CHANGE
G92 E0.0
;0.2


G1 E-0.80000 F2100.00000
G1 Z0.600 F10800.000
;AFTER_LAYER_CHANGE
;0.2
G1 X109.098 Y92.398
G1 Z0.200
G1 E0.80000 F2100.00000
M204 S1000
G1 F1200.000
G1 X109.950 Y92.246 E0.02714
G1 X140.004 Y92.246 E0.94232
G1 X141.013 Y92.439 E0.03221
G1 X141.884 Y92.991 E0.03233
G1 X142.489 Y93.821 E0.03221
G1 X142.748 Y94.819 E0.03233
G1 X142.751 Y115.135 E0.63700
G1 X142.657 Y115.725 E0.01873
G1 X142.436 Y116.285 E0.01886
G1 X142.099 Y116.783 E0.01886
G1 X141.665 Y117.194 E0.01873
G1 X140.902 Y117.602 E0.02714
G1 X140.050 Y117.754 E0.02714
G1 X109.959 Y117.754 E0.94348
G1 X109.342 Y117.674 E0.01950
G1 X108.759 Y117.459 E0.01950
G1 X108.239 Y117.118 E0.01950
G1 X107.806 Y116.665 E0.01963
G1 X107.402 Y115.914 E0.02676
G1 X107.247 Y115.070 E0.02689
G1 X107.247 Y94.939 E0.63122
G1 X107.330 Y94.326 E0.01937
G1 X107.547 Y93.748 E0.01937
G1 X107.888 Y93.233 E0.01937
G1 X108.335 Y92.806 E0.01937
G1 X109.045 Y92.426 E0.02526
G1 X109.219 Y92.757 F10800.000
G1 F1200.000
G1 X109.965 Y92.623 E0.02374
G1 X140.004 Y92.623 E0.94186
G1 X140.881 Y92.792 E0.02802
G1 X141.634 Y93.274 E0.02802
G1 X142.154 Y93.995 E0.02790
G1 X142.373 Y94.862 E0.02802
G1 X142.375 Y115.103 E0.63464
G1 X142.293 Y115.625 E0.01657
G1 X142.101 Y116.113 E0.01645
G1 X141.805 Y116.546 E0.01645
G1 X141.422 Y116.905 E0.01645
G1 X140.768 Y117.250 E0.02319
G1 X140.035 Y117.377 E0.02331
G1 X109.966 Y117.377 E0.94281
G1 X109.427 Y117.307 E0.01704
G1 X108.918 Y117.116 E0.01704
G1 X108.465 Y116.815 E0.01704
G1 X108.095 Y116.422 E0.01692
G1 X107.753 Y115.775 E0.02296
G1 X107.623 Y115.051 E0.02308
G1 X107.623 Y94.950 E0.63022
G1 X107.696 Y94.416 E0.01692
G1 X107.885 Y93.914 E0.01680
G1 X108.185 Y93.465 E0.01692
G1 X108.578 Y93.095 E0.01692
G1 X109.166 Y92.785 E0.02086
G1 F8640.000
G1 X109.965 Y92.623 E-0.18808
G1 X112.442 Y92.623 E-0.57192
G1 E-0.04000 F2100.00000
G1 Z0.800 F10800.000
G1 X114.213 Y99.213
G1 Z0.200
G1 E0.80000 F2100.00000
G1 F1200.000
G1 X135.787 Y99.213 E0.67644
G1 X135.787 Y110.787 E0.36290
G1 X114.213 Y110.787 E0.67644
G1 X114.213 Y99.273 E0.36102
G1 X114.590 Y99.590 F10800.000
G1 F1200.000
G1 X135.410 Y99.590 E0.65280
G1 X135.410 Y110.410 E0.33925
G1 X114.590 Y110.410 E0.65280
G1 X114.590 Y99.650 E0.33737
G1 X114.448 Y99.216 F10800.000
G1 F8640.000
G1 X117.881 Y99.641 E-0.76000
G1 E-0.04000 F2100.00000
G1 Z0.800 F10800.000
G1 X110.787 Y95.787
G1 Z0.200
G1 E0.80000 F2100.00000
G1 F1200.000
G1 X139.213 Y95.787 E0.89127
G1 X139.213 Y114.213 E0.57773
G1 X110.787 Y114.213 E0.89127
G1 X110.787 Y95.847 E0.57585
G1 X110.410 Y95.410 F10800.000
G1 F1200.000
G1 X139.590 Y95.410 E0.91492
G1 X139.590 Y114.590 E0.60138
G1 X110.410 Y114.590 E0.91492
G1 X110.410 Y95.470 E0.59950
G1 X110.802 Y95.487 F10800.000
G1 F8640.000
G1 X113.701 Y95.463 E-0.76000
G1 E-0.04000 F2100.00000
G1 Z0.800 F10800.000
G1 X114.100 Y110.660
G1 Z0.200
G1 E0.80000 F2100.00000
G1 F1200.000
G1 X111.070 Y107.630 E0.13459
G1 X111.070 Y107.096 E0.01678
G1 X113.930 Y109.956 E0.12705
G1 X113.930 Y109.422 E0.01678
G1 X111.070 Y106.561 E0.12705
G1 X111.070 Y106.027 E0.01678
G1 X113.930 Y108.887 E0.12705
G1 X113.930 Y108.353 E0.01678
G1 X111.070 Y105.493 E0.12705
G1 X111.070 Y104.959 E0.01678
G1 X113.930 Y107.819 E0.12705
G1 X113.930 Y107.285 E0.01678
G1 X111.070 Y104.425 E0.12705
G1 X111.070 Y103.890 E0.01678
G1 X113.930 Y106.751 E0.12705
G1 X113.930 Y106.217 E0.01678
G1 X111.070 Y103.356 E0.12705
G1 X111.070 Y102.822 E0.01678
G1 X113.930 Y105.682 E0.12705
G1 X113.930 Y105.148 E0.01678
G1 X111.070 Y102.288 E0.12705
G1 X111.070 Y101.754 E0.01678
G1 X113.930 Y104.614 E0.12705
G1 X113.930 Y104.080 E0.01678
G1 X111.070 Y101.219 E0.12705
G1 X111.070 Y100.685 E0.01678
G1 X113.930 Y103.546 E0.12705
G1 X113.930 Y103.011 E0.01678
G1 X111.070 Y100.151 E0.12705
G1 X111.070 Y99.617 E0.01678
G1 X113.930 Y102.477 E0.12705
G1 X113.930 Y101.943 E0.01678
G1 X111.070 Y99.083 E0.12705
G1 X111.070 Y98.549 E0.01678
G1 X113.930 Y101.409 E0.12705
G1 X113.930 Y100.875 E0.01678
G1 X111.070 Y98.014 E0.12705
G1 X111.070 Y97.480 E0.01678
G1 X113.930 Y100.340 E0.12705
G1 X113.930 Y99.806 E0.01678
G1 X111.070 Y96.946 E0.12705
G1 X111.070 Y96.412 E0.01678
G1 X113.930 Y99.272 E0.12705
G1 X113.930 Y98.930 E0.01074
G1 X114.122 Y98.930 E0.00604
G1 X111.262 Y96.070 E0.12705
G1 X111.796 Y96.070 E0.01678
G1 X114.657 Y98.930 E0.12705
G1 X115.191 Y98.930 E0.01678
G1 X112.331 Y96.070 E0.12705
G1 X112.865 Y96.070 E0.01678
G1 X115.725 Y98.930 E0.12705
G1 X116.259 Y98.930 E0.01678
G1 X113.399 Y96.070 E0.12705
G1 X113.933 Y96.070 E0.01678
G1 X116.793 Y98.930 E0.12705
G1 X117.328 Y98.930 E0.01678
G1 X114.467 Y96.070 E0.12705
G1 X115.001 Y96.070 E0.01678
G1 X117.862 Y98.930 E0.12705
G1 X118.396 Y98.930 E0.01678
G1 X115.536 Y96.070 E0.12705
G1 X116.070 Y96.070 E0.01678
G1 X118.930 Y98.930 E0.12705
G1 X119.464 Y98.930 E0.01678
G1 X116.604 Y96.070 E0.12705
G1 X117.138 Y96.070 E0.01678
G1 X119.999 Y98.930 E0.12705
G1 X120.533 Y98.930 E0.01678
G1 X117.672 Y96.070 E0.12705
G1 X118.207 Y96.070 E0.01678
G1 X121.067 Y98.930 E0.12705
G1 X121.601 Y98.930 E0.01678
G1 X118.741 Y96.070 E0.12705
G1 X119.275 Y96.070 E0.01678
G1 X122.135 Y98.930 E0.12705
G1 X122.669 Y98.930 E0.01678
G1 X119.809 Y96.070 E0.12705
G1 X120.343 Y96.070 E0.01678
G1 X123.204 Y98.930 E0.12705
G1 X123.738 Y98.930 E0.01678
G1 X120.878 Y96.070 E0.12705
G1 X121.412 Y96.070 E0.01678
G1 X124.272 Y98.930 E0.12705
G1 X124.806 Y98.930 E0.01678
G1 X121.946 Y96.070 E0.12705
G1 X122.480 Y96.070 E0.01678
G1 X125.340 Y98.930 E0.12705
G1 X125.875 Y98.930 E0.01678
G1 X123.014 Y96.070 E0.12705
G1 X123.549 Y96.070 E0.01678
G1 X126.409 Y98.930 E0.12705
G1 X126.943 Y98.930 E0.01678
G1 X124.083 Y96.070 E0.12705
G1 X124.617 Y96.070 E0.01678
G1 X127.477 Y98.930 E0.12705
G1 X128.011 Y98.930 E0.01678
G1 X125.151 Y96.070 E0.12705
G1 X125.685 Y96.070 E0.01678
G1 X128.546 Y98.930 E0.12705
G1 X129.080 Y98.930 E0.01678
G1 X126.219 Y96.070 E0.12705
G1 X126.754 Y96.070 E0.01678
G1 X129.614 Y98.930 E0.12705
G1 X130.148 Y98.930 E0.01678
G1 X127.288 Y96.070 E0.12705
G1 X127.822 Y96.070 E0.01678
G1 X130.682 Y98.930 E0.12705
G1 X131.217 Y98.930 E0.01678
G1 X128.356 Y96.070 E0.12705
G1 X128.890 Y96.070 E0.01678
G1 X131.751 Y98.930 E0.12705
G1 X132.285 Y98.930 E0.01678
G1 X129.425 Y96.070 E0.12705
G1 X129.959 Y96.070 E0.01678
G1 X132.819 Y98.930 E0.12705
G1 X133.353 Y98.930 E0.01678
G1 X130.493 Y96.070 E0.12705
G1 X131.027 Y96.070 E0.01678
G1 X133.887 Y98.930 E0.12705
G1 X134.422 Y98.930 E0.01678
G1 X131.561 Y96.070 E0.12705
G1 X132.096 Y96.070 E0.01678
G1 X134.956 Y98.930 E0.12705
G1 X135.490 Y98.930 E0.01678
G1 X132.630 Y96.070 E0.12705
G1 X133.164 Y96.070 E0.01678
G1 X138.930 Y101.836 E0.25612
G1 X138.930 Y101.302 E0.01678
G1 X133.698 Y96.070 E0.23240
G1 X134.232 Y96.070 E0.01678
G1 X138.930 Y100.768 E0.20867
G1 X138.930 Y100.233 E0.01678
G1 X134.767 Y96.070 E0.18494
G1 X135.301 Y96.070 E0.01678
G1 X138.930 Y99.699 E0.16121
G1 X138.930 Y99.165 E0.01678
G1 X135.835 Y96.070 E0.13748
G1 X136.369 Y96.070 E0.01678
G1 X138.930 Y98.631 E0.11376
G1 X138.930 Y98.097 E0.01678
G1 X136.903 Y96.070 E0.09003
G1 X137.437 Y96.070 E0.01678
G1 X138.930 Y97.563 E0.06630
G1 X138.930 Y97.028 E0.01678
G1 X137.972 Y96.070 E0.04257
G1 X138.506 Y96.070 E0.01678
G1 X139.100 Y96.664 E0.02638
G1 F8640.000
G1 X138.506 Y96.070 E-0.19396
G1 X137.972 Y96.070 E-0.12335
G1 X138.930 Y97.028 E-0.31298
G1 X138.930 Y97.563 E-0.12335
G1 X138.911 Y97.543 E-0.00637
G1 E-0.04000 F2100.00000
G1 Z0.800 F10800.000
G1 X139.100 Y102.540
G1 Z0.200
G1 E0.80000 F2100.00000
G1 F1200.000
G1 X136.070 Y99.510 E0.13459
G1 X136.070 Y100.044 E0.01678
G1 X138.930 Y102.904 E0.12705
G1 X138.930 Y103.439 E0.01678
G1 X136.070 Y100.578 E0.12705
G1 X136.070 Y101.113 E0.01678
G1 X138.930 Y103.973 E0.12705
G1 X138.930 Y104.507 E0.01678
G1 X136.070 Y101.647 E0.12705
G1 X136.070 Y102.181 E0.01678
G1 X138.930 Y105.041 E0.12705
G1 X138.930 Y105.575 E0.01678
G1 X136.070 Y102.715 E0.12705
G1 X136.070 Y103.249 E0.01678
G1 X138.930 Y106.110 E0.12705
G1 X138.930 Y106.644 E0.01678
G1 X136.070 Y103.783 E0.12705
G1 X136.070 Y104.318 E0.01678
G1 X138.930 Y107.178 E0.12705
G1 X138.930 Y107.712 E0.01678
G1 X136.070 Y104.852 E0.12705
G1 X136.070 Y105.386 E0.01678
G1 X138.930 Y108.246 E0.12705
G1 X138.930 Y108.781 E0.01678
G1 X136.070 Y105.920 E0.12705
G1 X136.070 Y106.454 E0.01678
G1 X138.930 Y109.315 E0.12705
G1 X138.930 Y109.849 E0.01678
G1 X136.070 Y106.989 E0.12705
G1 X136.070 Y107.523 E0.01678
G1 X138.930 Y110.383 E0.12705
G1 X138.930 Y110.917 E0.01678
G1 X136.070 Y108.057 E0.12705
G1 X136.070 Y108.591 E0.01678
G1 X138.930 Y111.451 E0.12705
G1 X138.930 Y111.986 E0.01678
G1 X136.070 Y109.125 E0.12705
G1 X136.070 Y109.660 E0.01678
G1 X138.930 Y112.520 E0.12705
G1 X138.930 Y113.054 E0.01678
G1 X136.070 Y110.194 E0.12705
G1 X136.070 Y110.728 E0.01678
G1 X138.930 Y113.588 E0.12705
G1 X138.930 Y113.930 E0.01074
G1 X138.738 Y113.930 E0.00604
G1 X135.878 Y111.070 E0.12705
G1 X135.343 Y111.070 E0.01678
G1 X138.204 Y113.930 E0.12705
G1 X137.669 Y113.930 E0.01678
G1 X134.809 Y111.070 E0.12705
G1 X134.275 Y111.070 E0.01678
G1 X137.135 Y113.930 E0.12705
G1 X136.601 Y113.930 E0.01678
G1 X133.741 Y111.070 E0.12705
G1 X133.207 Y111.070 E0.01678
G1 X136.067 Y113.930 E0.12705
G1 X135.533 Y113.930 E0.01678
G1 X132.672 Y111.070 E0.12705
G1 X132.138 Y111.070 E0.01678
G1 X134.999 Y113.930 E0.12705
G1 X134.464 Y113.930 E0.01678
G1 X131.604 Y111.070 E0.12705
G1 X131.070 Y111.070 E0.01678
G1 X133.930 Y113.930 E0.12705
G1 X133.396 Y113.930 E0.01678
G1 X130.536 Y111.070 E0.12705
G1 X130.001 Y111.070 E0.01678
G1 X132.862 Y113.930 E0.12705
G1 X132.328 Y113.930 E0.01678
G1 X129.467 Y111.070 E0.12705
M73 Q1 S85
G1 X128.933 Y111.070 E0.01678
G1 X131.793 Y113.930 E0.12705
G1 X131.259 Y113.930 E0.01678
G1 X128.399 Y111.070 E0.12705
M73 P1 R85
G1 X127.865 Y111.070 E0.01678
G1 X130.725 Y113.930 E0.12705
G1 X130.191 Y113.930 E0.01678
G1 X127.331 Y111.070 E0.12705
G1 X126.796 Y111.070 E0.01678
G1 X129.657 Y113.930 E0.12705
G1 X129.122 Y113.930 E0.01678
G1 X126.262 Y111.070 E0.12705
G1 X125.728 Y111.070 E0.01678
G1 X128.588 Y113.930 E0.12705
G1 X128.054 Y113.930 E0.01678
G1 X125.194 Y111.070 E0.12705
G1 X124.660 Y111.070 E0.01678
G1 X127.520 Y113.930 E0.12705
G1 X126.986 Y113.930 E0.01678
G1 X124.125 Y111.070 E0.12705
G1 X123.591 Y111.070 E0.01678
G1 X126.451 Y113.930 E0.12705
G1 X125.917 Y113.930 E0.01678
G1 X123.057 Y111.070 E0.12705
G1 X122.523 Y111.070 E0.01678
G1 X125.383 Y113.930 E0.12705
G1 X124.849 Y113.930 E0.01678
G1 X121.989 Y111.070 E0.12705
G1 X121.454 Y111.070 E0.01678
G1 X124.315 Y113.930 E0.12705
G1 X123.781 Y113.930 E0.01678
G1 X120.920 Y111.070 E0.12705
G1 X120.386 Y111.070 E0.01678
G1 X123.246 Y113.930 E0.12705
G1 X122.712 Y113.930 E0.01678
G1 X119.852 Y111.070 E0.12705
G1 X119.318 Y111.070 E0.01678
G1 X122.178 Y113.930 E0.12705
G1 X121.644 Y113.930 E0.01678
G1 X118.783 Y111.070 E0.12705
G1 X118.249 Y111.070 E0.01678
G1 X121.110 Y113.930 E0.12705
G1 X120.575 Y113.930 E0.01678
G1 X117.715 Y111.070 E0.12705
G1 X117.181 Y111.070 E0.01678
G1 X120.041 Y113.930 E0.12705
G1 X119.507 Y113.930 E0.01678
G1 X116.647 Y111.070 E0.12705
G1 X116.112 Y111.070 E0.01678
G1 X118.973 Y113.930 E0.12705
G1 X118.439 Y113.930 E0.01678
G1 X115.578 Y111.070 E0.12705
G1 X115.044 Y111.070 E0.01678
G1 X117.904 Y113.930 E0.12705
G1 X117.370 Y113.930 E0.01678
G1 X114.340 Y110.900 E0.13459
G1 F8640.000
G1 X116.668 Y113.228 E-0.76000
G1 E-0.04000 F2100.00000
G1 Z0.800 F10800.000
G1 X117.006 Y114.100
G1 Z0.200
G1 E0.80000 F2100.00000
G1 F1200.000
G1 X111.070 Y108.164 E0.26366
G1 X111.070 Y108.698 E0.01678
G1 X116.302 Y113.930 E0.23239
G1 X115.768 Y113.930 E0.01678
G1 X111.070 Y109.232 E0.20867
G1 X111.070 Y109.767 E0.01678
G1 X115.233 Y113.930 E0.18494
G1 X114.699 Y113.930 E0.01678
G1 X111.070 Y110.301 E0.16121
G1 X111.070 Y110.835 E0.01678
G1 X114.165 Y113.930 E0.13748
G1 X113.631 Y113.930 E0.01678
G1 X111.070 Y111.369 E0.11376
G1 X111.070 Y111.903 E0.01678
G1 X113.097 Y113.930 E0.09003
G1 X112.562 Y113.930 E0.01678
G1 X111.070 Y112.438 E0.06630
G1 X111.070 Y112.972 E0.01678
G1 X112.028 Y113.930 E0.04257
G1 X111.494 Y113.930 E0.01678
G1 X110.900 Y113.336 E0.02638
M106 S255
;BEFORE_LAYER_CHANGE
G92 E0.0
;0.35


G1 F8640.000
G1 X111.494 Y113.930 E-0.19395
G1 X112.028 Y113.930 E-0.12335
G1 X111.070 Y112.972 E-0.31298
G1 X111.070 Y112.438 E-0.12335
G1 X111.089 Y112.457 E-0.00638
G1 E-0.04000 F2100.00000
G1 Z0.800 F10800.000
;AFTER_LAYER_CHANGE
;0.35
G1 X107.402 Y115.914
G1 Z0.350
G1 E0.80000 F2100.00000
G1 F3000.000
G1 X107.247 Y115.070 E0.02074
G1 X107.247 Y94.939 E0.48689
G1 X107.330 Y94.326 E0.01494
G1 X107.547 Y93.748 E0.01494
G1 X107.888 Y93.233 E0.01494
G1 X108.335 Y92.806 E0.01494
G1 X109.098 Y92.398 E0.02093
G1 X109.950 Y92.246 E0.02093
G1 X140.004 Y92.246 E0.72685
G1 X141.013 Y92.439 E0.02484
G1 X141.884 Y92.991 E0.02494
G1 X142.489 Y93.821 E0.02484
G1 X142.748 Y94.819 E0.02494
G1 X142.751 Y115.135 E0.49135
G1 X142.657 Y115.725 E0.01445
G1 X142.436 Y116.285 E0.01455
G1 X142.099 Y116.783 E0.01455
G1 X141.665 Y117.194 E0.01445
G1 X140.902 Y117.602 E0.02093
G1 X140.050 Y117.754 E0.02093
G1 X109.959 Y117.754 E0.72775
G1 X109.342 Y117.674 E0.01504
G1 X108.759 Y117.459 E0.01504
G1 X108.239 Y117.118 E0.01504
G1 X107.806 Y116.665 E0.01514
G1 X107.430 Y115.967 E0.01919
G1 X107.761 Y115.791 F10800.000
G1 F3000.000
G1 X107.623 Y115.051 E0.01822
G1 X107.623 Y94.950 E0.48612
G1 X107.696 Y94.416 E0.01305
G1 X107.885 Y93.914 E0.01296
G1 X108.185 Y93.465 E0.01305
G1 X108.578 Y93.095 E0.01305
G1 X109.232 Y92.750 E0.01789
G1 X109.965 Y92.623 E0.01798
G1 X140.004 Y92.623 E0.72649
G1 X140.881 Y92.792 E0.02161
G1 X141.634 Y93.274 E0.02161
G1 X142.154 Y93.995 E0.02152
G1 X142.373 Y94.862 E0.02161
G1 X142.375 Y115.103 E0.48952
G1 X142.293 Y115.625 E0.01278
G1 X142.101 Y116.113 E0.01269
G1 X141.805 Y116.546 E0.01269
G1 X141.422 Y116.905 E0.01269
G1 X140.768 Y117.250 E0.01789
G1 X140.035 Y117.377 E0.01798
G1 X109.966 Y117.377 E0.72723
G1 X109.427 Y117.307 E0.01314
G1 X108.918 Y117.116 E0.01314
G1 X108.465 Y116.815 E0.01314
G1 X108.095 Y116.422 E0.01305
G1 X107.789 Y115.844 E0.01581
G1 F8640.000
G1 X107.623 Y115.051 E-0.18725
G1 X107.623 Y112.570 E-0.57275
G1 E-0.04000 F2100.00000
G1 Z0.950 F10800.000
G1 X114.357 Y110.643
G1 Z0.350
G1 E0.80000 F2100.00000
M204 S800
G1 F2700.000
G1 X114.357 Y99.357 E0.29406
G1 X135.643 Y99.357 E0.55461
G1 X135.643 Y110.643 E0.29406
G1 X114.417 Y110.643 E0.55305
M204 S1000
G1 X114.775 Y110.225 F10800.000
M204 S800
G1 F1500.000
G1 X114.775 Y99.775 E0.27228
G1 X135.225 Y99.775 E0.53284
G1 X135.225 Y110.225 E0.27228
G1 X114.835 Y110.225 E0.53128
M204 S1000
G1 X114.380 Y110.288 F10800.000
G1 F8640.000
G1 X114.816 Y106.934 E-0.76000
