; generated by PrusaSlicer 2.2.0+win64 on 2020-07-10 at 19:43:54 UTC

; 

; external perimeters extrusion width = 0.45mm
; perimeters extrusion width = 0.45mm
; infill extrusion width = 0.45mm
; solid infill extrusion width = 0.45mm
; top infill extrusion width = 0.40mm
; first layer extrusion width = 0.42mm

M73 P0 R74
M73 Q0 S74
M201 X1000 Y1000 Z200 E5000 ; sets maximum accelerations, mm/sec^2
M203 X200 Y200 Z12 E120 ; sets maximum feedrates, mm/sec
M204 P1250 R1250 T1250 ; sets acceleration (P, T) and retract acceleration (R), mm/sec^2
M205 X8.00 Y8.00 Z0.40 E4.50 ; sets the jerk limits, mm/sec
M205 S0 T0 ; sets the minimum extruding and travel feed rate, mm/sec
M107
M862.3 P "MK3S" ; printer model check
M862.1 P0.4 ; nozzle diameter check
M115 U3.9.0 ; tell printer latest fw version
G90 ; use absolute coordinates
M83 ; extruder relative mode
M104 S215 ; set extruder temp
M140 S60 ; set bed temp
M190 S60 ; wait for bed temp
M109 S215 ; wait for extruder temp
G28 W ; home all without mesh bed level
G80 ; mesh bed leveling
G1 Y-3.0 F1000.0 ; go outside print area
G92 E0.0
G1 X60.0 E9.0 F1000.0 ; intro line
M73 Q0 S74
M73 P0 R74
G1 X100.0 E12.5 F1000.0 ; intro line
G92 E0.0
M221 S95
G21 ; set units to millimeters
G90 ; use absolute coordinates
M83 ; use relative distances for extrusion
M900 K0.06 ; Filament gcode LA 1.5
M900 K30 ; Filament gcode LA 1.0
;BEFORE_LAYER_CHANGE
G92 E0.0
;0.2


G1 E-0.80000 F2100.00000
G1 Z0.600 F10800.000
;AFTER_LAYER_CHANGE
;0.2
G1 X108.504 Y84.932
G1 Z0.200
G1 E0.80000 F2100.00000
M204 S1000
G1 F1200.000
G1 X109.932 Y83.504 E0.06330
G1 X110.767 Y83.085 E0.02931
G1 X111.991 Y82.786 E0.03949
G1 X137.987 Y82.790 E0.81508
G1 X138.935 Y82.974 E0.03028
G1 X139.843 Y83.365 E0.03101
G1 X141.062 Y84.388 E0.04990
G1 X141.853 Y85.606 E0.04551
G1 X142.213 Y86.989 E0.04481
G1 X142.213 Y123.010 E1.12942
G1 X141.915 Y124.233 E0.03948
G1 X141.496 Y125.068 E0.02931
G1 X140.068 Y126.496 E0.06329
G1 X139.233 Y126.915 E0.02931
G1 X138.010 Y127.213 E0.03948
G1 X111.990 Y127.213 E0.81582
G1 X110.767 Y126.915 E0.03948
G1 X109.932 Y126.496 E0.02931
G1 X108.504 Y125.068 E0.06329
G1 X108.085 Y124.233 E0.02931
G1 X107.787 Y123.010 E0.03948
G1 X107.787 Y86.990 E1.12936
G1 X108.085 Y85.767 E0.03948
G1 X108.477 Y84.985 E0.02743
G1 X108.813 Y85.156 F10800.000
G1 F1200.000
G1 X110.129 Y83.827 E0.05865
G1 X110.880 Y83.445 E0.02639
G1 X112.014 Y83.164 E0.03665
G1 X137.968 Y83.167 E0.81376
G1 X138.841 Y83.340 E0.02791
G1 X139.666 Y83.699 E0.02823
G1 X140.797 Y84.658 E0.04647
G1 X141.496 Y85.732 E0.04018
G1 X141.836 Y87.013 E0.04157
G1 X141.836 Y122.986 E1.12790
G1 X141.555 Y124.120 E0.03664
G1 X141.173 Y124.871 E0.02639
G1 X139.871 Y126.173 E0.05777
G1 X139.120 Y126.555 E0.02639
G1 X137.986 Y126.836 E0.03664
G1 X112.014 Y126.836 E0.81435
G1 X110.880 Y126.555 E0.03664
G1 X110.129 Y126.173 E0.02639
G1 X108.827 Y124.871 E0.05777
G1 X108.445 Y124.120 E0.02639
G1 X108.164 Y122.986 E0.03664
G1 X108.164 Y87.014 E1.12789
G1 X108.445 Y85.880 E0.03664
G1 X108.786 Y85.209 E0.02357
G1 X109.121 Y85.382 F10800.000
G1 F1200.000
G1 X109.148 Y85.328 E0.00188
G1 X110.328 Y84.148 E0.05234
G1 X110.994 Y83.805 E0.02348
G1 X112.038 Y83.541 E0.03377
G1 X137.949 Y83.544 E0.81241
G1 X138.746 Y83.705 E0.02550
G1 X139.488 Y84.033 E0.02545
G1 X140.530 Y84.926 E0.04302
G1 X141.163 Y85.910 E0.03669
G1 X141.459 Y87.038 E0.03655
G1 X141.459 Y122.962 E1.12640
G1 X141.195 Y124.006 E0.03376
G1 X140.852 Y124.672 E0.02348
G1 X139.672 Y125.852 E0.05234
G1 X139.006 Y126.195 E0.02348
G1 X137.962 Y126.459 E0.03376
G1 X112.038 Y126.459 E0.81285
G1 X110.994 Y126.195 E0.03376
G1 X110.328 Y125.852 E0.02348
G1 X109.148 Y124.672 E0.05234
G1 X108.805 Y124.006 E0.02348
G1 X108.541 Y122.962 E0.03376
G1 X108.541 Y87.038 E1.12639
G1 X108.805 Y85.994 E0.03376
G1 X109.093 Y85.435 E0.01971
G1 X109.469 Y85.529 F10800.000
G1 F1200.000
G1 X110.529 Y84.469 E0.04702
G1 X111.111 Y84.165 E0.02058
G1 X112.062 Y83.918 E0.03083
G1 X137.929 Y83.921 E0.81102
G1 X138.648 Y84.070 E0.02304
G1 X139.308 Y84.365 E0.02266
G1 X140.262 Y85.192 E0.03960
G1 X140.806 Y86.037 E0.03149
G1 X141.082 Y87.063 E0.03331
G1 X141.082 Y122.938 E1.12484
G1 X140.835 Y123.889 E0.03083
G1 X140.531 Y124.471 E0.02058
G1 X139.471 Y125.531 E0.04702
G1 X138.889 Y125.835 E0.02058
G1 X137.938 Y126.082 E0.03083
G1 X112.062 Y126.082 E0.81131
G1 X111.111 Y125.835 E0.03083
G1 X110.529 Y125.531 E0.02058
G1 X109.469 Y124.471 E0.04702
G1 X109.165 Y123.889 E0.02058
G1 X108.918 Y122.938 E0.03083
G1 X108.918 Y87.062 E1.12486
G1 X109.165 Y86.111 E0.03083
G1 X109.441 Y85.582 E0.01870
G1 X109.773 Y85.759 F10800.000
G1 F1200.000
G1 X110.731 Y84.788 E0.04276
G1 X111.229 Y84.523 E0.01770
G1 X112.087 Y84.295 E0.02784
G1 X137.910 Y84.298 E0.80964
G1 X138.513 Y84.423 E0.01932
G1 X139.128 Y84.697 E0.02110
G1 X139.992 Y85.457 E0.03609
G1 X140.472 Y86.214 E0.02809
G1 X140.705 Y87.087 E0.02835
G1 X140.705 Y122.913 E1.12328
G1 X140.477 Y123.771 E0.02783
G1 X140.212 Y124.269 E0.01770
G1 X139.269 Y125.212 E0.04182
G1 X138.771 Y125.477 E0.01770
G1 X137.913 Y125.705 E0.02783
G1 X112.087 Y125.705 E0.80974
G1 X111.229 Y125.477 E0.02783
G1 X110.731 Y125.212 E0.01770
G1 X109.788 Y124.269 E0.04182
G1 X109.523 Y123.771 E0.01770
G1 X109.295 Y122.913 E0.02783
G1 X109.295 Y87.087 E1.12328
G1 X109.523 Y86.229 E0.02783
G1 X109.745 Y85.812 E0.01483
G1 X110.076 Y85.991 F10800.000
G1 F1200.000
G1 X110.106 Y85.935 E0.00198
G1 X110.935 Y85.106 E0.03678
G1 X111.351 Y84.880 E0.01484
G1 X112.113 Y84.672 E0.02477
G1 X137.889 Y84.676 E0.80819
G1 X138.414 Y84.787 E0.01681
G1 X138.945 Y85.028 E0.01829
G1 X139.722 Y85.721 E0.03263
G1 X140.116 Y86.341 E0.02306
G1 X140.328 Y87.113 E0.02510
G1 X140.328 Y122.887 E1.12166
G1 X140.120 Y123.649 E0.02477
G1 X139.894 Y124.065 E0.01483
G1 X139.065 Y124.894 E0.03678
G1 X138.649 Y125.120 E0.01483
G1 X137.887 Y125.328 E0.02477
G1 X112.113 Y125.328 E0.80811
G1 X111.351 Y125.120 E0.02477
G1 X110.935 Y124.894 E0.01483
G1 X110.106 Y124.065 E0.03678
G1 X109.880 Y123.649 E0.01483
G1 X109.672 Y122.887 E0.02477
G1 X109.672 Y87.113 E1.12166
G1 X109.880 Y86.351 E0.02477
G1 X110.047 Y86.044 E0.01097
G1 X110.422 Y86.142 F10800.000
G1 F1200.000
G1 X111.142 Y85.422 E0.03191
G1 X111.476 Y85.237 E0.01200
G1 X112.140 Y85.049 E0.02163
G1 X137.868 Y85.053 E0.80668
G1 X138.311 Y85.150 E0.01423
G1 X138.759 Y85.358 E0.01548
G1 X139.450 Y85.983 E0.02920
G1 X139.762 Y86.471 E0.01818
G1 X139.951 Y87.140 E0.02179
G1 X139.951 Y122.860 E1.11997
G1 X139.763 Y123.524 E0.02162
G1 X139.578 Y123.858 E0.01200
G1 X138.858 Y124.578 E0.03191
G1 X138.524 Y124.763 E0.01200
G1 X137.860 Y124.951 E0.02162
G1 X112.140 Y124.951 E0.80643
G1 X111.476 Y124.763 E0.02162
G1 X111.142 Y124.578 E0.01200
G1 X110.422 Y123.858 E0.03191
G1 X110.237 Y123.524 E0.01200
G1 X110.049 Y122.860 E0.02162
G1 X110.049 Y87.140 E1.11997
G1 X110.237 Y86.476 E0.02162
G1 X110.393 Y86.194 E0.01011
G1 X110.426 Y87.168 F10800.000
G1 F1200.000
G1 X110.591 Y86.606 E0.01838
G1 X110.737 Y86.351 E0.00919
G1 X111.351 Y85.737 E0.02726
G1 X111.606 Y85.591 E0.00919
G1 X112.168 Y85.426 E0.01838
G1 X137.846 Y85.430 E0.80510
G1 X138.205 Y85.513 E0.01157
G1 X138.571 Y85.685 E0.01268
G1 X139.176 Y86.243 E0.02580
G1 X139.408 Y86.605 E0.01347
G1 X139.574 Y87.168 E0.01841
G1 X139.574 Y122.832 E1.11822
G1 X139.409 Y123.394 E0.01838
G1 X139.263 Y123.649 E0.00919
G1 X138.649 Y124.263 E0.02726
G1 X138.394 Y124.409 E0.00919
G1 X137.832 Y124.574 E0.01838
G1 X112.168 Y124.574 E0.80467
G1 X111.606 Y124.409 E0.01838
G1 X111.351 Y124.263 E0.00919
G1 X110.737 Y123.649 E0.02726
G1 X110.591 Y123.394 E0.00919
G1 X110.426 Y122.832 E0.01838
G1 X110.426 Y87.228 E1.11633
M73 Q1 S73
M73 P1 R73
G1 X110.803 Y87.198 F10800.000
G1 F1200.000
G1 X110.944 Y86.741 E0.01500
G1 X111.048 Y86.564 E0.00641
G1 X111.564 Y86.048 E0.02289
G1 X111.741 Y85.944 E0.00641
G1 X112.198 Y85.803 E0.01500
G1 X137.824 Y85.807 E0.80350
G1 X138.062 Y85.862 E0.00767
G1 X138.382 Y86.013 E0.01109
G1 X138.901 Y86.501 E0.02233
G1 X139.056 Y86.742 E0.00898
G1 X139.197 Y87.198 E0.01495
G1 X139.197 Y122.802 E1.11636
G1 X139.056 Y123.259 E0.01500
G1 X138.952 Y123.436 E0.00641
G1 X138.436 Y123.952 E0.02289
G1 X138.259 Y124.056 E0.00641
G1 X137.802 Y124.197 E0.01500
G1 X112.198 Y124.197 E0.80282
G1 X111.741 Y124.056 E0.01500
G1 X111.564 Y123.952 E0.00641
G1 X111.048 Y123.436 E0.02289
G1 X110.944 Y123.259 E0.00641
G1 X110.803 Y122.802 E0.01500
G1 X110.803 Y87.258 E1.11448
G1 X111.294 Y86.883 F10800.000
G1 F1200.000
G1 X111.356 Y86.783 E0.00369
G1 X111.783 Y86.356 E0.01893
G1 X111.883 Y86.294 E0.00369
G1 X112.229 Y86.180 E0.01144
G1 X137.802 Y86.184 E0.80181
G1 X137.919 Y86.211 E0.00377
G1 X138.192 Y86.340 E0.00947
G1 X138.623 Y86.757 E0.01880
G1 X138.707 Y86.885 E0.00479
G1 X138.820 Y87.229 E0.01136
G1 X138.820 Y122.771 E1.11437
G1 X138.706 Y123.117 E0.01144
G1 X138.644 Y123.217 E0.00369
G1 X138.217 Y123.644 E0.01893
G1 X138.117 Y123.706 E0.00369
G1 X137.771 Y123.820 E0.01144
G1 X112.229 Y123.820 E0.80083
G1 X111.883 Y123.706 E0.01144
G1 X111.783 Y123.644 E0.00369
G1 X111.356 Y123.217 E0.01893
G1 X111.294 Y123.117 E0.00369
G1 X111.180 Y122.771 E0.01144
G1 X111.180 Y87.229 E1.11437
G1 X111.275 Y86.940 E0.00955
G1 X111.639 Y87.037 F10800.000
G1 F1200.000
G1 X112.010 Y86.657 E0.01666
G1 X112.264 Y86.557 E0.00856
G1 X137.750 Y86.557 E0.79908
G1 X138.000 Y86.667 E0.00856
G1 X138.343 Y87.010 E0.01522
G1 X138.443 Y87.264 E0.00856
G1 X138.443 Y122.736 E1.11217
G1 X138.343 Y122.990 E0.00856
G1 X137.990 Y123.343 E0.01566
G1 X137.736 Y123.443 E0.00856
G1 X112.264 Y123.443 E0.79863
G1 X112.010 Y123.343 E0.00856
G1 X111.657 Y122.990 E0.01566
G1 X111.557 Y122.736 E0.00856
G1 X111.557 Y87.264 E1.11217
G1 X111.619 Y87.094 E0.00569
G1 X111.963 Y87.237 F10800.000
G1 F1200.000
G1 X112.237 Y86.963 E0.01215
G1 X112.306 Y86.934 E0.00235
G1 X137.694 Y86.934 E0.79600
G1 X137.763 Y86.963 E0.00235
G1 X138.037 Y87.237 E0.01215
G1 X138.066 Y87.306 E0.00235
G1 X138.066 Y122.694 E1.10955
G1 X138.037 Y122.763 E0.00235
G1 X137.763 Y123.037 E0.01215
G1 X137.694 Y123.066 E0.00235
G1 X112.306 Y123.066 E0.79600
G1 X112.237 Y123.037 E0.00235
G1 X111.963 Y122.763 E0.01215
G1 X111.934 Y122.694 E0.00235
G1 X111.940 Y87.292 E1.10998
G1 X112.311 Y87.422 F10800.000
G1 F1200.000
G1 X112.422 Y87.311 E0.00490
G1 X137.578 Y87.311 E0.78875
G1 X137.689 Y87.422 E0.00490
G1 X137.689 Y122.578 E1.10230
G1 X137.578 Y122.689 E0.00490
G1 X112.422 Y122.689 E0.78875
G1 X112.311 Y122.578 E0.00490
G1 X112.311 Y87.482 E1.10042
G1 F8640.000
G1 X112.422 Y87.311 E-0.04690
G1 X115.510 Y87.311 E-0.71310
G1 E-0.04000 F2100.00000
G1 Z0.800 F10800.000
G1 X114.213 Y89.213
G1 Z0.200
G1 E0.80000 F2100.00000
G1 F1200.000
G1 X135.787 Y89.213 E0.67644
G1 X135.787 Y120.787 E0.98999
G1 X114.213 Y120.787 E0.67644
G1 X114.213 Y89.273 E0.98810
G1 X114.590 Y89.590 F10800.000
G1 F1200.000
G1 X135.410 Y89.590 E0.65280
G1 X135.410 Y120.410 E0.96634
G1 X114.590 Y120.410 E0.65280
G1 X114.590 Y89.650 E0.96446
G1 X114.511 Y89.198 F10800.000
G1 F8640.000
G1 X117.881 Y89.641 E-0.76000
G1 E-0.04000 F2100.00000
G1 Z0.800 F10800.000
G1 X113.287 Y88.287
G1 Z0.200
G1 E0.80000 F2100.00000
G1 F1200.000
G1 X136.713 Y88.287 E0.73450
G1 X136.713 Y121.713 E1.04804
G1 X113.287 Y121.713 E0.73450
G1 X113.287 Y88.347 E1.04616
G1 X112.910 Y87.910 F10800.000
G1 F1200.000
G1 X137.090 Y87.910 E0.75815
G1 X137.090 Y122.090 E1.07169
G1 X112.910 Y122.090 E0.75815
G1 X112.910 Y87.970 E1.06981
G1 X113.290 Y88.035 F10800.000
G1 F8640.000
G1 X116.201 Y87.962 E-0.76000
G1 E-0.04000 F2100.00000
G1 Z0.800 F10800.000
G1 X135.455 Y89.100
G1 Z0.200
G1 E0.80000 F2100.00000
G1 F1200.000
G1 X134.925 Y88.570 E0.02370
G1 X134.387 Y88.570 E0.01701
G1 X134.747 Y88.930 E0.01611
G1 X134.209 Y88.930 E0.01701
G1 X133.849 Y88.570 E0.01611
G1 X133.311 Y88.570 E0.01701
G1 X133.671 Y88.930 E0.01611
G1 X133.133 Y88.930 E0.01701
G1 X132.773 Y88.570 E0.01611
G1 X132.235 Y88.570 E0.01701
G1 X132.596 Y88.930 E0.01611
G1 X132.058 Y88.930 E0.01701
G1 X131.698 Y88.570 E0.01611
G1 X131.160 Y88.570 E0.01701
G1 X131.520 Y88.930 E0.01611
G1 X130.982 Y88.930 E0.01701
G1 X130.622 Y88.570 E0.01611
G1 X130.084 Y88.570 E0.01701
G1 X130.444 Y88.930 E0.01611
G1 X129.906 Y88.930 E0.01701
G1 X129.546 Y88.570 E0.01611
G1 X129.008 Y88.570 E0.01701
G1 X129.368 Y88.930 E0.01611
G1 X128.831 Y88.930 E0.01701
G1 X128.470 Y88.570 E0.01611
G1 X127.933 Y88.570 E0.01701
G1 X128.293 Y88.930 E0.01611
G1 X127.755 Y88.930 E0.01701
G1 X127.395 Y88.570 E0.01611
G1 X126.857 Y88.570 E0.01701
G1 X127.217 Y88.930 E0.01611
G1 X126.679 Y88.930 E0.01701
G1 X126.319 Y88.570 E0.01611
G1 X125.781 Y88.570 E0.01701
G1 X126.141 Y88.930 E0.01611
G1 X125.604 Y88.930 E0.01701
G1 X125.243 Y88.570 E0.01611
G1 X124.705 Y88.570 E0.01701
G1 X125.066 Y88.930 E0.01611
G1 X124.528 Y88.930 E0.01701
G1 X124.168 Y88.570 E0.01611
G1 X123.630 Y88.570 E0.01701
G1 X123.990 Y88.930 E0.01611
G1 X123.452 Y88.930 E0.01701
G1 X123.092 Y88.570 E0.01611
G1 X122.554 Y88.570 E0.01701
G1 X122.914 Y88.930 E0.01611
G1 X122.376 Y88.930 E0.01701
G1 X122.016 Y88.570 E0.01611
G1 X121.478 Y88.570 E0.01701
G1 X121.839 Y88.930 E0.01611
G1 X121.301 Y88.930 E0.01701
G1 X120.940 Y88.570 E0.01611
G1 X120.403 Y88.570 E0.01701
G1 X120.763 Y88.930 E0.01611
G1 X120.225 Y88.930 E0.01701
G1 X119.865 Y88.570 E0.01611
G1 X119.327 Y88.570 E0.01701
G1 X119.687 Y88.930 E0.01611
G1 X119.149 Y88.930 E0.01701
G1 X118.789 Y88.570 E0.01611
G1 X118.251 Y88.570 E0.01701
G1 X118.611 Y88.930 E0.01611
G1 X118.074 Y88.930 E0.01701
G1 X117.713 Y88.570 E0.01611
G1 X117.175 Y88.570 E0.01701
G1 X117.536 Y88.930 E0.01611
G1 X116.998 Y88.930 E0.01701
G1 X116.638 Y88.570 E0.01611
G1 X116.100 Y88.570 E0.01701
G1 X116.460 Y88.930 E0.01611
G1 X115.922 Y88.930 E0.01701
G1 X115.562 Y88.570 E0.01611
G1 X115.024 Y88.570 E0.01701
G1 X115.384 Y88.930 E0.01611
G1 X114.846 Y88.930 E0.01701
G1 X114.486 Y88.570 E0.01611
G1 X113.948 Y88.570 E0.01701
G1 X114.309 Y88.930 E0.01611
G1 X113.930 Y88.930 E0.01197
G1 X113.930 Y89.090 E0.00504
G1 X113.570 Y88.729 E0.01611
G1 X113.570 Y89.267 E0.01701
G1 X113.930 Y89.627 E0.01611
G1 X113.930 Y90.165 E0.01701
G1 X113.570 Y89.805 E0.01611
G1 X113.570 Y90.343 E0.01701
G1 X113.930 Y90.703 E0.01611
G1 X113.930 Y91.241 E0.01701
G1 X113.570 Y90.881 E0.01611
G1 X113.570 Y91.419 E0.01701
G1 X113.930 Y91.779 E0.01611
G1 X113.930 Y92.317 E0.01701
G1 X113.570 Y91.956 E0.01611
G1 X113.570 Y92.494 E0.01701
G1 X113.930 Y92.854 E0.01611
G1 X113.930 Y93.392 E0.01701
G1 X113.570 Y93.032 E0.01611
G1 X113.570 Y93.570 E0.01701
G1 X113.930 Y93.930 E0.01611
G1 X113.930 Y94.468 E0.01701
G1 X113.570 Y94.108 E0.01611
G1 X113.570 Y94.646 E0.01701
G1 X113.930 Y95.006 E0.01611
G1 X113.930 Y95.544 E0.01701
G1 X113.570 Y95.184 E0.01611
G1 X113.570 Y95.721 E0.01701
G1 X113.930 Y96.082 E0.01611
G1 X113.930 Y96.619 E0.01701
G1 X113.570 Y96.259 E0.01611
G1 X113.570 Y96.797 E0.01701
G1 X113.930 Y97.157 E0.01611
G1 X113.930 Y97.695 E0.01701
G1 X113.570 Y97.335 E0.01611
G1 X113.570 Y97.873 E0.01701
G1 X113.930 Y98.233 E0.01611
G1 X113.930 Y98.771 E0.01701
G1 X113.570 Y98.411 E0.01611
G1 X113.570 Y98.948 E0.01701
G1 X113.930 Y99.309 E0.01611
G1 X113.930 Y99.847 E0.01701
G1 X113.570 Y99.486 E0.01611
G1 X113.570 Y100.024 E0.01701
G1 X113.930 Y100.384 E0.01611
G1 X113.930 Y100.922 E0.01701
G1 X113.570 Y100.562 E0.01611
G1 X113.570 Y101.100 E0.01701
G1 X113.930 Y101.460 E0.01611
G1 X113.930 Y101.998 E0.01701
G1 X113.570 Y101.638 E0.01611
G1 X113.570 Y102.176 E0.01701
G1 X113.930 Y102.536 E0.01611
G1 X113.930 Y103.074 E0.01701
G1 X113.570 Y102.713 E0.01611
G1 X113.570 Y103.251 E0.01701
G1 X113.930 Y103.612 E0.01611
G1 X113.930 Y104.149 E0.01701
G1 X113.570 Y103.789 E0.01611
G1 X113.570 Y104.327 E0.01701
G1 X113.930 Y104.687 E0.01611
G1 X113.930 Y105.225 E0.01701
G1 X113.570 Y104.865 E0.01611
G1 X113.570 Y105.403 E0.01701
G1 X113.930 Y105.763 E0.01611
G1 X113.930 Y106.301 E0.01701
M73 Q2 S72
G1 X113.570 Y105.941 E0.01611
G1 X113.570 Y106.478 E0.01701
M73 P2 R72
G1 X113.930 Y106.839 E0.01611
G1 X113.930 Y107.377 E0.01701
G1 X113.570 Y107.016 E0.01611
G1 X113.570 Y107.554 E0.01701
G1 X113.930 Y107.914 E0.01611
