; generated by PrusaSlicer 2.2.0+win64 on 2020-07-08 at 19:08:51 UTC

; 

; external perimeters extrusion width = 0.45mm
; perimeters extrusion width = 0.45mm
; infill extrusion width = 0.45mm
; solid infill extrusion width = 0.45mm
; top infill extrusion width = 0.40mm
; first layer extrusion width = 0.42mm

M73 P0 R116
M73 Q0 S117
M201 X1000 Y1000 Z200 E5000 ; sets maximum accelerations, mm/sec^2
M203 X200 Y200 Z12 E120 ; sets maximum feedrates, mm/sec
M204 P1250 R1250 T1250 ; sets acceleration (P, T) and retract acceleration (R), mm/sec^2
M205 X8.00 Y8.00 Z0.40 E4.50 ; sets the jerk limits, mm/sec
M205 S0 T0 ; sets the minimum extruding and travel feed rate, mm/sec
M107
M862.3 P "MK3S" ; printer model check
M862.1 P0.4 ; nozzle diameter check
M115 U3.9.0 ; tell printer latest fw version
G90 ; use absolute coordinates
M83 ; extruder relative mode
M104 S215 ; set extruder temp
M140 S60 ; set bed temp
M190 S60 ; wait for bed temp
M109 S215 ; wait for extruder temp
G28 W ; home all without mesh bed level
G80 ; mesh bed leveling
G1 Y-3.0 F1000.0 ; go outside print area
G92 E0.0
G1 X60.0 E9.0 F1000.0 ; intro line
M73 Q0 S117
M73 P0 R116
G1 X100.0 E12.5 F1000.0 ; intro line
G92 E0.0
M221 S95
G21 ; set units to millimeters
G90 ; use absolute coordinates
M83 ; use relative distances for extrusion
M900 K0.06 ; Filament gcode LA 1.5
M900 K30 ; Filament gcode LA 1.0
;BEFORE_LAYER_CHANGE
G92 E0.0
;0.2


G1 E-0.80000 F2100.00000
G1 Z0.600 F10800.000
;AFTER_LAYER_CHANGE
;0.2
G1 X168.823 Y73.713
G1 Z0.200
G1 E0.80000 F2100.00000
M204 S1000
G1 F1200.000
G1 X169.565 Y73.720 E0.02326
G1 X170.716 Y73.898 E0.03652
G1 X172.362 Y74.626 E0.05644
G1 X173.395 Y75.484 E0.04210
G1 X174.184 Y76.528 E0.04102
G1 X174.813 Y78.097 E0.05302
G1 X174.970 Y79.289 E0.03770
G1 X174.970 Y110.144 E0.96743
G1 X174.854 Y111.163 E0.03215
G1 X174.296 Y112.693 E0.05105
G1 X173.344 Y113.994 E0.05055
G1 X172.283 Y114.848 E0.04271
G1 X171.018 Y115.438 E0.04377
G1 X169.645 Y115.699 E0.04382
G1 X154.969 Y115.714 E0.46015
G1 X154.947 Y128.426 E0.39857
G1 X154.722 Y129.384 E0.03084
G1 X154.275 Y130.295 E0.03184
G1 X153.310 Y131.379 E0.04551
G1 X152.581 Y131.916 E0.02840
G1 X150.794 Y132.482 E0.05877
G1 X129.287 Y132.506 E0.67432
G1 X128.010 Y132.229 E0.04099
G1 X126.981 Y131.710 E0.03612
G1 X106.626 Y115.716 E0.81166
G1 X104.957 Y115.716 E0.05232
G1 X104.949 Y117.443 E0.05416
G1 X104.690 Y118.772 E0.04245
G1 X104.133 Y119.978 E0.04165
G1 X103.331 Y121.005 E0.04085
G1 X102.145 Y121.931 E0.04716
G1 X100.711 Y122.526 E0.04870
G1 X99.449 Y122.712 E0.04000
G1 X98.201 Y122.716 E0.03914
G1 X94.682 Y126.219 E0.15566
G1 X93.630 Y126.908 E0.03943
G1 X92.188 Y127.489 E0.04875
G1 X90.988 Y127.711 E0.03825
G1 X79.906 Y127.645 E0.34749
G1 X78.803 Y127.297 E0.03625
G1 X77.807 Y126.692 E0.03654
G1 X76.207 Y125.127 E0.07017
G1 X75.615 Y124.295 E0.03203
G1 X75.030 Y122.396 E0.06227
G1 X75.030 Y110.157 E0.38374
G1 X75.315 Y108.822 E0.04281
G1 X75.959 Y107.627 E0.04257
G1 X77.917 Y105.665 E0.08689
G1 X79.198 Y104.992 E0.04538
G1 X80.272 Y104.752 E0.03453
G1 X83.303 Y104.735 E0.09502
G1 X85.543 Y102.495 E0.09933
G1 X85.543 Y95.500 E0.21933
G1 X83.301 Y93.258 E0.09941
G1 X80.157 Y93.229 E0.09859
G1 X79.082 Y92.961 E0.03473
G1 X78.025 Y92.408 E0.03740
G1 X76.026 Y90.454 E0.08765
G1 X75.468 Y89.542 E0.03355
G1 X75.121 Y88.522 E0.03377
G1 X75.072 Y75.314 E0.41411
G1 X75.350 Y74.293 E0.03320
G1 X76.067 Y73.027 E0.04561
G1 X77.618 Y71.457 E0.06917
G1 X78.439 Y70.874 E0.03159
G1 X80.276 Y70.294 E0.06040
G1 X90.702 Y70.305 E0.32692
G1 X91.671 Y70.504 E0.03100
G1 X93.083 Y71.071 E0.04769
G1 X93.903 Y71.561 E0.02998
G1 X96.110 Y73.709 E0.09655
G1 X151.610 Y73.709 E1.74017
G1 X152.146 Y72.942 E0.02934
G1 X153.695 Y71.379 E0.06899
G1 X155.550 Y70.423 E0.06543
G1 X156.467 Y70.284 E0.02910
G1 X164.185 Y70.293 E0.24199
G1 X165.488 Y70.616 E0.04208
G1 X166.671 Y71.296 E0.04281
G1 X168.450 Y73.073 E0.07883
G1 X168.793 Y73.661 E0.02134
G1 X168.601 Y74.089 F10800.000
G1 F1200.000
G1 X169.521 Y74.095 E0.02883
G1 X170.634 Y74.267 E0.03531
G1 X172.143 Y74.933 E0.05172
G1 X173.108 Y75.729 E0.03922
G1 X173.867 Y76.735 E0.03951
G1 X174.453 Y78.214 E0.04989
G1 X174.593 Y79.301 E0.03437
G1 X174.593 Y110.133 E0.96672
G1 X174.482 Y111.097 E0.03041
G1 X173.952 Y112.537 E0.04810
G1 X173.056 Y113.749 E0.04727
G1 X172.066 Y114.539 E0.03972
G1 X170.924 Y115.072 E0.03952
G1 X169.626 Y115.322 E0.04141
G1 X154.592 Y115.337 E0.47138
G1 X154.575 Y128.361 E0.40834
G1 X154.360 Y129.276 E0.02947
G1 X153.949 Y130.104 E0.02899
G1 X153.043 Y131.112 E0.04249
G1 X152.384 Y131.593 E0.02561
G1 X150.764 Y132.105 E0.05324
G1 X129.308 Y132.129 E0.67277
G1 X128.115 Y131.866 E0.03830
G1 X127.200 Y131.402 E0.03216
G1 X106.757 Y115.339 E0.81518
G1 X104.582 Y115.339 E0.06818
G1 X104.572 Y117.424 E0.06538
G1 X104.337 Y118.636 E0.03871
G1 X103.821 Y119.765 E0.03893
G1 X103.080 Y120.723 E0.03796
G1 X101.934 Y121.617 E0.04559
G1 X100.590 Y122.168 E0.04554
G1 X99.409 Y122.337 E0.03741
G1 X98.044 Y122.339 E0.04278
G1 X94.459 Y125.915 E0.15877
G1 X93.471 Y126.566 E0.03709
G1 X92.099 Y127.122 E0.04641
G1 X90.972 Y127.334 E0.03596
G1 X79.992 Y127.277 E0.34427
G1 X78.939 Y126.944 E0.03462
G1 X78.023 Y126.382 E0.03371
G1 X76.483 Y124.870 E0.06766
G1 X75.940 Y124.102 E0.02951
G1 X75.407 Y122.368 E0.05686
G1 X75.407 Y110.177 E0.38226
G1 X75.660 Y108.975 E0.03851
G1 X76.247 Y107.872 E0.03916
G1 X78.118 Y105.986 E0.08332
G1 X79.350 Y105.338 E0.04365
G1 X80.332 Y105.125 E0.03151
G1 X83.460 Y105.112 E0.09806
G1 X85.920 Y102.651 E0.10910
G1 X85.920 Y95.344 E0.22912
G1 X83.458 Y92.882 E0.10916
G1 X80.224 Y92.858 E0.10140
G1 X79.236 Y92.616 E0.03189
G1 X78.225 Y92.087 E0.03580
G1 X76.335 Y90.237 E0.08294
G1 X75.818 Y89.400 E0.03084
G1 X75.488 Y88.429 E0.03213
G1 X75.443 Y75.387 E0.40894
G1 X75.691 Y74.457 E0.03017
G1 X76.383 Y73.235 E0.04404
G1 X77.873 Y71.735 E0.06630
G1 X78.632 Y71.198 E0.02915
G1 X80.305 Y70.671 E0.05498
G1 X90.646 Y70.678 E0.32426
G1 X91.547 Y70.860 E0.02880
G1 X92.928 Y71.415 E0.04667
G1 X93.690 Y71.873 E0.02788
G1 X95.956 Y74.086 E0.09932
G1 X151.856 Y74.086 E1.75271
G1 X151.944 Y73.889 E0.00676
G1 X152.426 Y73.195 E0.02648
G1 X153.942 Y71.666 E0.06753
G1 X155.637 Y70.791 E0.05982
G1 X156.482 Y70.661 E0.02678
G1 X164.161 Y70.670 E0.24078
G1 X165.369 Y70.975 E0.03906
G1 X166.460 Y71.609 E0.03957
G1 X168.165 Y73.320 E0.07573
G1 X168.572 Y74.037 E0.02584
G1 X168.378 Y74.465 F10800.000
G1 F1200.000
G1 X169.477 Y74.470 E0.03446
G1 X170.552 Y74.636 E0.03408
G1 X171.923 Y75.241 E0.04699
G1 X172.850 Y76.005 E0.03769
G1 X173.550 Y76.940 E0.03659
G1 X174.094 Y78.329 E0.04677
G1 X174.216 Y79.312 E0.03109
G1 X174.216 Y110.122 E0.96602
G1 X174.110 Y111.030 E0.02867
G1 X173.608 Y112.379 E0.04513
G1 X172.769 Y113.504 E0.04400
G1 X171.885 Y114.208 E0.03542
G1 X170.828 Y114.707 E0.03665
G1 X169.608 Y114.944 E0.03897
G1 X154.216 Y114.961 E0.48261
G1 X154.203 Y128.298 E0.41817
G1 X154.012 Y129.129 E0.02673
G1 X153.623 Y129.913 E0.02744
G1 X152.778 Y130.843 E0.03942
G1 X152.188 Y131.270 E0.02283
G1 X150.735 Y131.728 E0.04776
G1 X129.328 Y131.752 E0.67120
G1 X128.221 Y131.503 E0.03559
G1 X127.419 Y131.094 E0.02823
G1 X106.887 Y114.962 E0.81870
G1 X104.207 Y114.962 E0.08403
G1 X104.195 Y117.404 E0.07658
G1 X103.972 Y118.541 E0.03634
G1 X103.509 Y119.553 E0.03488
G1 X102.828 Y120.442 E0.03511
G1 X101.766 Y121.279 E0.04237
G1 X100.469 Y121.810 E0.04394
G1 X99.371 Y121.962 E0.03478
G1 X97.888 Y121.962 E0.04647
G1 X94.234 Y125.611 E0.16192
G1 X93.311 Y126.224 E0.03476
G1 X92.009 Y126.755 E0.04407
G1 X90.955 Y126.957 E0.03366
G1 X80.077 Y126.909 E0.34109
G1 X79.116 Y126.611 E0.03154
G1 X78.239 Y126.072 E0.03227
G1 X76.760 Y124.614 E0.06510
G1 X76.266 Y123.909 E0.02699
G1 X75.784 Y122.340 E0.05147
G1 X75.784 Y110.196 E0.38078
G1 X76.007 Y109.126 E0.03427
G1 X76.535 Y108.116 E0.03573
G1 X78.319 Y106.306 E0.07970
G1 X79.502 Y105.684 E0.04188
G1 X80.390 Y105.498 E0.02846
G1 X83.616 Y105.488 E0.10116
G1 X86.297 Y102.807 E0.11887
G1 X86.297 Y95.187 E0.23892
G1 X83.615 Y92.506 E0.11892
G1 X80.290 Y92.486 E0.10425
G1 X79.390 Y92.271 E0.02903
G1 X78.424 Y91.766 E0.03417
G1 X76.642 Y90.018 E0.07827
G1 X76.168 Y89.257 E0.02810
G1 X75.855 Y88.337 E0.03047
G1 X75.814 Y75.457 E0.40383
G1 X76.031 Y74.621 E0.02710
G1 X76.698 Y73.443 E0.04244
G1 X78.128 Y72.014 E0.06339
G1 X78.825 Y71.524 E0.02672
G1 X80.333 Y71.048 E0.04959
G1 X90.591 Y71.052 E0.32163
G1 X91.423 Y71.217 E0.02657
G1 X92.773 Y71.759 E0.04562
G1 X93.476 Y72.184 E0.02576
G1 X95.802 Y74.463 E0.10211
G1 X152.118 Y74.463 E1.76576
G1 X152.270 Y74.082 E0.01286
G1 X152.705 Y73.449 E0.02411
G1 X154.189 Y71.952 E0.06607
G1 X155.726 Y71.158 E0.05423
G1 X156.496 Y71.038 E0.02444
G1 X164.136 Y71.047 E0.23956
G1 X165.248 Y71.333 E0.03600
G1 X166.247 Y71.921 E0.03634
G1 X167.878 Y73.566 E0.07263
G1 X168.349 Y74.413 E0.03037
G1 X168.153 Y74.842 F10800.000
G1 F1200.000
G1 X169.434 Y74.845 E0.04016
G1 X170.470 Y75.005 E0.03286
G1 X171.704 Y75.549 E0.04231
G1 X172.562 Y76.250 E0.03475
G1 X173.232 Y77.144 E0.03504
G1 X173.733 Y78.442 E0.04360
G1 X173.839 Y79.323 E0.02784
G1 X173.839 Y110.111 E0.96533
G1 X173.738 Y110.963 E0.02690
G1 X173.265 Y112.221 E0.04213
G1 X172.483 Y113.257 E0.04071
G1 X171.669 Y113.898 E0.03250
G1 X170.731 Y114.341 E0.03251
G1 X169.589 Y114.567 E0.03652
G1 X153.839 Y114.584 E0.49383
G1 X153.830 Y128.236 E0.42806
G1 X153.663 Y128.985 E0.02405
G1 X153.326 Y129.680 E0.02422
G1 X152.513 Y130.575 E0.03790
G1 X151.994 Y130.945 E0.02001
G1 X150.706 Y131.351 E0.04232
G1 X129.350 Y131.375 E0.66962
G1 X128.328 Y131.141 E0.03285
G1 X127.637 Y130.787 E0.02435
G1 X107.017 Y114.585 E0.82223
G1 X103.832 Y114.585 E0.09988
M73 Q0 S116
G1 X103.818 Y117.384 E0.08776
M73 P0 R115
G1 X103.606 Y118.445 E0.03393
G1 X103.176 Y119.376 E0.03216
G1 X102.575 Y120.160 E0.03097
G1 X101.554 Y120.966 E0.04077
G1 X100.351 Y121.451 E0.04068
G1 X99.358 Y121.585 E0.03141
G1 X97.732 Y121.585 E0.05098
G1 X94.009 Y125.308 E0.16509
G1 X93.149 Y125.882 E0.03242
G1 X91.918 Y126.389 E0.04173
G1 X90.937 Y126.580 E0.03133
G1 X80.161 Y126.540 E0.33787
G1 X79.251 Y126.258 E0.02988
G1 X78.457 Y125.763 E0.02934
G1 X77.038 Y124.358 E0.06259
G1 X76.592 Y123.718 E0.02447
G1 X76.161 Y122.312 E0.04611
G1 X76.161 Y110.215 E0.37931
G1 X76.354 Y109.275 E0.03010
G1 X76.825 Y108.359 E0.03228
G1 X78.521 Y106.626 E0.07604
G1 X79.653 Y106.031 E0.04007
G1 X80.445 Y105.871 E0.02535
G1 X83.773 Y105.865 E0.10433
G1 X86.674 Y102.964 E0.12866
G1 X86.674 Y95.031 E0.24871
G1 X83.772 Y92.129 E0.12869
G1 X80.354 Y92.114 E0.10716
G1 X79.543 Y91.925 E0.02612
G1 X78.624 Y91.445 E0.03253
G1 X76.949 Y89.798 E0.07365
G1 X76.517 Y89.114 E0.02534
G1 X76.222 Y88.245 E0.02880
G1 X76.185 Y75.526 E0.39879
G1 X76.373 Y74.782 E0.02405
G1 X76.984 Y73.691 E0.03921
G1 X78.383 Y72.292 E0.06203
G1 X79.017 Y71.849 E0.02426
G1 X80.362 Y71.425 E0.04423
G1 X90.538 Y71.425 E0.31904
G1 X91.299 Y71.573 E0.02433
G1 X92.618 Y72.103 E0.04455
G1 X93.261 Y72.495 E0.02362
G1 X95.648 Y74.840 E0.10492
G1 X152.382 Y74.840 E1.77886
G1 X152.595 Y74.274 E0.01897
G1 X152.986 Y73.702 E0.02173
G1 X154.436 Y72.239 E0.06459
G1 X155.815 Y71.526 E0.04868
G1 X156.511 Y71.415 E0.02209
G1 X164.111 Y71.424 E0.23831
G1 X165.127 Y71.691 E0.03292
G1 X165.996 Y72.204 E0.03166
G1 X167.591 Y73.812 E0.07102
G1 X168.125 Y74.789 E0.03490
G1 X167.853 Y75.219 F10800.000
G1 F1200.000
G1 X169.419 Y75.222 E0.04909
G1 X170.387 Y75.374 E0.03073
G1 X171.486 Y75.857 E0.03764
G1 X172.305 Y76.527 E0.03320
G1 X172.914 Y77.347 E0.03202
G1 X173.372 Y78.553 E0.04044
G1 X173.462 Y79.334 E0.02464
G1 X173.462 Y110.100 E0.96465
G1 X173.366 Y110.896 E0.02514
G1 X172.947 Y112.017 E0.03753
G1 X172.229 Y112.977 E0.03760
G1 X171.488 Y113.567 E0.02969
G1 X170.592 Y113.990 E0.03106
G1 X169.535 Y114.194 E0.03374
G1 X153.462 Y114.207 E0.50398
G1 X153.457 Y128.174 E0.43793
G1 X153.300 Y128.880 E0.02267
G1 X153.000 Y129.488 E0.02124
G1 X152.250 Y130.304 E0.03475
G1 X151.801 Y130.620 E0.01722
G1 X150.677 Y130.974 E0.03694
G1 X129.370 Y130.998 E0.66806
G1 X128.478 Y130.794 E0.02870
G1 X127.856 Y130.478 E0.02188
G1 X107.148 Y114.208 E0.82572
G1 X103.456 Y114.208 E0.11574
G1 X103.441 Y117.363 E0.09894
G1 X103.241 Y118.348 E0.03151
G1 X102.862 Y119.165 E0.02823
G1 X102.321 Y119.881 E0.02815
G1 X101.387 Y120.626 E0.03745
G1 X100.233 Y121.092 E0.03904
G1 X99.346 Y121.208 E0.02802
G1 X97.576 Y121.208 E0.05551
G1 X93.756 Y125.028 E0.16941
G1 X92.988 Y125.541 E0.02895
G1 X91.826 Y126.022 E0.03942
G1 X90.919 Y126.203 E0.02898
G1 X80.244 Y126.171 E0.33472
G1 X79.429 Y125.924 E0.02670
G1 X78.674 Y125.455 E0.02787
G1 X77.317 Y124.104 E0.06004
G1 X76.919 Y123.528 E0.02195
G1 X76.538 Y122.284 E0.04078
G1 X76.538 Y110.233 E0.37785
G1 X76.703 Y109.421 E0.02599
G1 X77.116 Y108.600 E0.02882
G1 X78.724 Y106.945 E0.07233
G1 X79.803 Y106.378 E0.03822
G1 X80.498 Y106.245 E0.02219
G1 X83.929 Y106.242 E0.10759
G1 X87.051 Y103.120 E0.13845
G1 X87.051 Y94.875 E0.25851
G1 X83.929 Y91.752 E0.13846
G1 X80.416 Y91.741 E0.11014
G1 X79.695 Y91.579 E0.02316
G1 X78.823 Y91.123 E0.03085
G1 X77.255 Y89.576 E0.06909
G1 X76.867 Y88.971 E0.02254
G1 X76.589 Y88.153 E0.02710
G1 X76.557 Y75.592 E0.39382
G1 X76.715 Y74.941 E0.02100
G1 X77.269 Y73.939 E0.03592
G1 X78.637 Y72.571 E0.06064
G1 X79.208 Y72.176 E0.02178
G1 X80.391 Y71.802 E0.03891
G1 X90.485 Y71.799 E0.31648
G1 X91.176 Y71.930 E0.02205
G1 X92.462 Y72.447 E0.04346
G1 X93.045 Y72.805 E0.02145
G1 X95.493 Y75.217 E0.10776
G1 X152.648 Y75.217 E1.79206
G1 X152.920 Y74.466 E0.02505
G1 X153.287 Y73.929 E0.02041
G1 X154.683 Y72.525 E0.06205
G1 X155.906 Y71.893 E0.04317
G1 X156.526 Y71.792 E0.01971
G1 X164.086 Y71.801 E0.23702
G1 X165.004 Y72.048 E0.02980
G1 X165.746 Y72.486 E0.02702
G1 X167.304 Y74.058 E0.06939
G1 X167.766 Y74.919 E0.03064
G1 X167.836 Y75.161 E0.00790
G1 X167.558 Y75.595 F10800.000
G1 F1200.000
G1 X169.403 Y75.599 E0.05784
G1 X170.303 Y75.742 E0.02859
G1 X171.269 Y76.166 E0.03305
G1 X172.017 Y76.771 E0.03017
G1 X172.595 Y77.550 E0.03041
G1 X173.010 Y78.662 E0.03721
G1 X173.085 Y79.343 E0.02149
G1 X173.085 Y110.088 E0.96399
G1 X172.995 Y110.827 E0.02334
G1 X172.604 Y111.858 E0.03457
G1 X171.975 Y112.697 E0.03288
G1 X171.271 Y113.257 E0.02823
G1 X170.455 Y113.638 E0.02822
G1 X169.484 Y113.820 E0.03099
G1 X153.085 Y113.830 E0.51418
G1 X153.085 Y128.115 E0.44790
G1 X152.951 Y128.735 E0.01986
G1 X152.674 Y129.295 E0.01961
G1 X151.989 Y130.031 E0.03152
G1 X151.610 Y130.294 E0.01445
G1 X150.648 Y130.596 E0.03163
G1 X129.392 Y130.621 E0.66646
G1 X128.587 Y130.433 E0.02594
G1 X128.074 Y130.171 E0.01803
G1 X107.278 Y113.831 E0.82925
G1 X103.081 Y113.831 E0.13159
G1 X103.064 Y117.342 E0.11011
G1 X102.877 Y118.250 E0.02906
G1 X102.548 Y118.956 E0.02440
G1 X102.066 Y119.602 E0.02528
G1 X101.175 Y120.314 E0.03578
G1 X100.117 Y120.732 E0.03566
G1 X99.335 Y120.831 E0.02471
G1 X97.420 Y120.831 E0.06005
G1 X93.502 Y124.748 E0.17372
G1 X92.826 Y125.200 E0.02548
G1 X91.699 Y125.667 E0.03826
G1 X90.901 Y125.826 E0.02549
G1 X80.327 Y125.802 E0.33156
G1 X79.563 Y125.571 E0.02501
G1 X78.894 Y125.148 E0.02483
G1 X77.596 Y123.850 E0.05755
G1 X77.246 Y123.339 E0.01942
G1 X76.915 Y122.256 E0.03550
G1 X76.915 Y110.252 E0.37640
G1 X77.052 Y109.564 E0.02197
G1 X77.409 Y108.840 E0.02532
G1 X78.926 Y107.265 E0.06857
G1 X79.951 Y106.726 E0.03632
G1 X80.546 Y106.619 E0.01895
G1 X84.085 Y106.619 E0.11095
G1 X87.428 Y103.276 E0.14825
G1 X87.428 Y94.719 E0.26830
G1 X84.085 Y91.376 E0.14825
G1 X80.475 Y91.368 E0.11319
G1 X79.847 Y91.233 E0.02016
G1 X79.023 Y90.802 E0.02913
G1 X77.559 Y89.353 E0.06460
G1 X77.216 Y88.826 E0.01971
G1 X76.956 Y88.060 E0.02537
G1 X76.929 Y75.656 E0.38894
G1 X77.059 Y75.098 E0.01796
G1 X77.556 Y74.186 E0.03256
G1 X78.891 Y72.850 E0.05921
G1 X79.398 Y72.503 E0.01928
G1 X80.421 Y72.179 E0.03362
G1 X90.434 Y72.173 E0.31397
G1 X91.053 Y72.287 E0.01974
G1 X92.306 Y72.791 E0.04233
G1 X92.828 Y73.114 E0.01925
G1 X95.338 Y75.594 E0.11064
G1 X152.916 Y75.594 E1.80533
G1 X153.246 Y74.658 E0.03114
G1 X153.589 Y74.156 E0.01906
G1 X154.929 Y72.813 E0.05949
G1 X155.997 Y72.260 E0.03771
G1 X156.542 Y72.169 E0.01732
G1 X164.059 Y72.178 E0.23570
