; generated by PrusaSlicer 2.2.0+win64 on 2020-07-08 at 14:18:54 UTC

; 

; external perimeters extrusion width = 0.45mm
; perimeters extrusion width = 0.45mm
; infill extrusion width = 0.45mm
; solid infill extrusion width = 0.45mm
; top infill extrusion width = 0.40mm
; first layer extrusion width = 0.42mm

M73 P0 R31
M73 Q0 S31
M201 X1000 Y1000 Z200 E5000 ; sets maximum accelerations, mm/sec^2
M203 X200 Y200 Z12 E120 ; sets maximum feedrates, mm/sec
M204 P1250 R1250 T1250 ; sets acceleration (P, T) and retract acceleration (R), mm/sec^2
M205 X8.00 Y8.00 Z0.40 E4.50 ; sets the jerk limits, mm/sec
M205 S0 T0 ; sets the minimum extruding and travel feed rate, mm/sec
M107
M862.3 P "MK3S" ; printer model check
M862.1 P0.4 ; nozzle diameter check
M115 U3.9.0 ; tell printer latest fw version
G90 ; use absolute coordinates
M83 ; extruder relative mode
M104 S215 ; set extruder temp
M140 S60 ; set bed temp
M190 S60 ; wait for bed temp
M109 S215 ; wait for extruder temp
G28 W ; home all without mesh bed level
G80 ; mesh bed leveling
G1 Y-3.0 F1000.0 ; go outside print area
G92 E0.0
G1 X60.0 E9.0 F1000.0 ; intro line
M73 Q0 S31
M73 P0 R31
G1 X100.0 E12.5 F1000.0 ; intro line
G92 E0.0
M221 S95
G21 ; set units to millimeters
G90 ; use absolute coordinates
M83 ; use relative distances for extrusion
M900 K0.06 ; Filament gcode LA 1.5
M900 K30 ; Filament gcode LA 1.0
;BEFORE_LAYER_CHANGE
G92 E0.0
;0.2


G1 E-0.80000 F2100.00000
G1 Z0.600 F10800.000
;AFTER_LAYER_CHANGE
;0.2
G1 X151.868 Y92.298
G1 Z0.200
G1 E0.80000 F2100.00000
M204 S1000
G1 F1200.000
G1 X152.119 Y92.871 E0.01961
G1 X152.321 Y93.908 E0.03312
G1 X152.307 Y110.531 E0.52122
G1 X152.328 Y122.489 E0.37494
G1 X152.030 Y123.717 E0.03960
G1 X151.620 Y124.536 E0.02874
G1 X150.641 Y125.631 E0.04605
G1 X149.429 Y126.372 E0.04454
G1 X148.071 Y126.700 E0.04382
G1 X101.836 Y126.696 E1.44966
G1 X100.104 Y126.155 E0.05689
G1 X99.347 Y125.615 E0.02914
G1 X98.686 Y124.950 E0.02941
G1 X97.993 Y123.786 E0.04248
G1 X97.672 Y122.438 E0.04346
G1 X97.693 Y95.926 E0.83124
G1 X97.664 Y88.199 E0.24228
G1 X97.804 Y87.216 E0.03116
G1 X98.131 Y86.250 E0.03195
G1 X99.430 Y84.577 E0.06644
G1 X100.039 Y84.162 E0.02310
G1 X100.969 Y83.695 E0.03263
G1 X102.826 Y83.343 E0.05927
G1 X146.717 Y83.345 E1.37615
G1 X148.008 Y83.521 E0.04085
G1 X149.214 Y83.987 E0.04055
G1 X150.433 Y84.896 E0.04768
G1 X151.135 Y85.801 E0.03591
G1 X151.594 Y86.772 E0.03367
G1 X151.858 Y88.061 E0.04126
G1 X151.868 Y92.238 E0.13098
G1 X151.491 Y92.380 F10800.000
G1 F1200.000
G1 X151.753 Y92.966 E0.02014
G1 X151.943 Y93.927 E0.03070
G1 X151.930 Y110.532 E0.52064
G1 X151.951 Y122.467 E0.37421
G1 X151.670 Y123.605 E0.03675
G1 X151.295 Y124.343 E0.02595
G1 X150.380 Y125.358 E0.04287
G1 X149.311 Y126.013 E0.03930
G1 X148.048 Y126.323 E0.04077
G1 X101.865 Y126.319 E1.44804
G1 X100.298 Y125.830 E0.05146
G1 X99.603 Y125.338 E0.02670
G1 X98.970 Y124.701 E0.02814
G1 X98.333 Y123.620 E0.03937
G1 X98.049 Y122.416 E0.03876
G1 X98.070 Y95.926 E0.83059
G1 X98.041 Y88.212 E0.24186
G1 X98.174 Y87.287 E0.02929
G1 X98.477 Y86.402 E0.02933
G1 X99.667 Y84.871 E0.06080
G1 X100.220 Y84.493 E0.02100
G1 X101.114 Y84.044 E0.03139
G1 X102.844 Y83.721 E0.05515
G1 X146.705 Y83.722 E1.37523
G1 X147.893 Y83.880 E0.03759
G1 X149.054 Y84.329 E0.03901
G1 X150.185 Y85.181 E0.04442
G1 X150.823 Y86.013 E0.03288
G1 X151.243 Y86.911 E0.03107
G1 X151.481 Y88.080 E0.03742
G1 X151.491 Y92.320 E0.13292
G1 X151.114 Y92.463 F10800.000
G1 F1200.000
G1 X151.388 Y93.063 E0.02068
G1 X151.566 Y93.945 E0.02823
G1 X151.552 Y110.532 E0.52005
G1 X151.574 Y122.443 E0.37348
G1 X151.310 Y123.490 E0.03386
G1 X150.972 Y124.148 E0.02316
G1 X150.120 Y125.084 E0.03969
G1 X149.141 Y125.675 E0.03586
G1 X148.025 Y125.945 E0.03599
G1 X101.893 Y125.942 E1.44645
G1 X100.491 Y125.505 E0.04607
G1 X99.859 Y125.060 E0.02423
G1 X99.254 Y124.452 E0.02688
G1 X98.693 Y123.504 E0.03455
G1 X98.426 Y122.394 E0.03578
G1 X98.448 Y95.925 E0.82990
G1 X98.418 Y88.225 E0.24144
G1 X98.545 Y87.360 E0.02741
G1 X98.823 Y86.555 E0.02670
G1 X99.905 Y85.165 E0.05522
G1 X100.401 Y84.824 E0.01888
G1 X101.260 Y84.393 E0.03013
G1 X102.861 Y84.098 E0.05104
G1 X146.692 Y84.099 E1.37430
G1 X147.820 Y84.251 E0.03569
G1 X148.891 Y84.670 E0.03606
G1 X149.935 Y85.465 E0.04115
G1 X150.510 Y86.224 E0.02984
G1 X150.891 Y87.049 E0.02849
G1 X151.104 Y88.100 E0.03363
G1 X151.114 Y92.403 E0.13492
G1 X150.738 Y92.548 F10800.000
G1 F1200.000
G1 X151.024 Y93.162 E0.02125
G1 X151.189 Y93.965 E0.02571
G1 X151.175 Y110.532 E0.51945
G1 X151.197 Y122.419 E0.37272
G1 X150.950 Y123.374 E0.03092
G1 X150.650 Y123.950 E0.02037
G1 X149.862 Y124.807 E0.03651
G1 X148.974 Y125.336 E0.03241
G1 X148.004 Y125.568 E0.03127
G1 X101.922 Y125.565 E1.44486
G1 X100.682 Y125.179 E0.04071
G1 X100.114 Y124.782 E0.02174
G1 X99.538 Y124.203 E0.02558
G1 X99.033 Y123.338 E0.03142
G1 X98.803 Y122.372 E0.03112
G1 X98.825 Y95.925 E0.82925
G1 X98.795 Y88.237 E0.24104
G1 X98.907 Y87.466 E0.02443
G1 X99.169 Y86.708 E0.02516
G1 X100.143 Y85.459 E0.04965
G1 X100.582 Y85.155 E0.01675
G1 X101.405 Y84.742 E0.02885
G1 X102.877 Y84.475 E0.04693
G1 X146.679 Y84.476 E1.37337
G1 X147.746 Y84.621 E0.03376
G1 X148.727 Y85.010 E0.03309
G1 X149.684 Y85.747 E0.03787
G1 X150.195 Y86.432 E0.02680
G1 X150.539 Y87.185 E0.02595
G1 X150.727 Y88.119 E0.02987
G1 X150.737 Y92.488 E0.13697
G1 X150.361 Y92.634 F10800.000
G1 F1200.000
G1 X150.660 Y93.263 E0.02183
G1 X150.812 Y93.985 E0.02314
G1 X150.798 Y110.532 E0.51884
G1 X150.820 Y122.395 E0.37195
G1 X150.592 Y123.256 E0.02792
G1 X150.329 Y123.751 E0.01758
G1 X149.605 Y124.530 E0.03333
G1 X148.808 Y124.996 E0.02895
G1 X147.982 Y125.191 E0.02662
G1 X101.950 Y125.188 E1.44329
G1 X100.873 Y124.852 E0.03538
G1 X100.369 Y124.503 E0.01923
G1 X99.823 Y123.955 E0.02424
G1 X99.373 Y123.175 E0.02825
G1 X99.181 Y122.351 E0.02652
G1 X99.202 Y95.924 E0.82860
G1 X99.172 Y88.250 E0.24061
G1 X99.277 Y87.540 E0.02252
G1 X99.515 Y86.862 E0.02251
G1 X100.382 Y85.752 E0.04417
G1 X100.764 Y85.486 E0.01460
G1 X101.549 Y85.091 E0.02755
G1 X102.894 Y84.852 E0.04281
G1 X146.666 Y84.853 E1.37245
G1 X147.671 Y84.992 E0.03180
G1 X148.561 Y85.350 E0.03008
G1 X149.431 Y86.028 E0.03458
G1 X149.879 Y86.638 E0.02375
G1 X150.187 Y87.320 E0.02345
G1 X150.350 Y88.138 E0.02616
G1 X150.361 Y92.574 E0.13908
G1 X149.984 Y92.774 F10800.000
G1 F1200.000
G1 X150.080 Y92.908 E0.00518
G1 X150.296 Y93.364 E0.01580
G1 X150.435 Y94.005 E0.02057
G1 X150.421 Y110.532 E0.51820
G1 X150.443 Y122.370 E0.37115
G1 X150.234 Y123.134 E0.02485
G1 X150.010 Y123.549 E0.01479
G1 X149.350 Y124.250 E0.03018
G1 X148.646 Y124.655 E0.02549
G1 X147.961 Y124.814 E0.02204
G1 X101.979 Y124.811 E1.44173
G1 X101.062 Y124.525 E0.03011
G1 X100.623 Y124.224 E0.01669
G1 X100.109 Y123.708 E0.02286
G1 X99.715 Y123.013 E0.02503
G1 X99.558 Y122.330 E0.02198
G1 X99.579 Y95.924 E0.82796
G1 X99.550 Y88.264 E0.24018
G1 X99.647 Y87.615 E0.02058
G1 X99.860 Y87.018 E0.01986
G1 X100.622 Y86.044 E0.03875
G1 X100.946 Y85.816 E0.01244
G1 X101.694 Y85.441 E0.02623
G1 X102.909 Y85.229 E0.03870
G1 X146.653 Y85.230 E1.37153
G1 X147.594 Y85.362 E0.02982
G1 X148.392 Y85.688 E0.02703
G1 X149.176 Y86.307 E0.03131
G1 X149.544 Y86.813 E0.01962
G1 X149.821 Y87.416 E0.02081
G1 X149.977 Y88.194 E0.02487
G1 X149.984 Y92.714 E0.14174
G1 X149.607 Y92.909 F10800.000
G1 F1200.000
G1 X149.750 Y93.092 E0.00728
G1 X149.946 Y93.506 E0.01435
G1 X150.058 Y94.025 E0.01666
G1 X150.044 Y110.533 E0.51758
G1 X150.065 Y122.343 E0.37032
G1 X149.878 Y123.009 E0.02169
G1 X149.692 Y123.344 E0.01200
G1 X149.098 Y123.969 E0.02704
G1 X148.486 Y124.313 E0.02201
G1 X147.940 Y124.437 E0.01755
G1 X102.008 Y124.434 E1.44018
M73 Q3 S30
M73 P3 R30
G1 X101.250 Y124.197 E0.02489
G1 X100.877 Y123.945 E0.01411
G1 X100.395 Y123.461 E0.02142
G1 X100.058 Y122.855 E0.02174
G1 X99.935 Y122.310 E0.01752
G1 X99.956 Y95.923 E0.82734
G1 X99.927 Y88.276 E0.23976
G1 X100.009 Y87.723 E0.01752
G1 X100.205 Y87.173 E0.01832
G1 X100.862 Y86.336 E0.03337
G1 X101.129 Y86.147 E0.01025
G1 X101.837 Y85.791 E0.02487
G1 X102.925 Y85.606 E0.03459
G1 X146.640 Y85.607 E1.37066
G1 X147.477 Y85.721 E0.02648
G1 X148.183 Y86.003 E0.02383
G1 X148.887 Y86.551 E0.02797
G1 X149.228 Y87.019 E0.01815
G1 X149.469 Y87.551 E0.01832
G1 X149.600 Y88.213 E0.02114
G1 X149.607 Y92.849 E0.14537
G1 X149.230 Y93.049 F10800.000
G1 F1200.000
G1 X149.421 Y93.277 E0.00932
G1 X149.595 Y93.647 E0.01282
G1 X149.681 Y94.045 E0.01275
G1 X149.667 Y110.533 E0.51697
G1 X149.688 Y122.316 E0.36946
G1 X149.523 Y122.880 E0.01844
G1 X149.377 Y123.136 E0.00922
G1 X148.848 Y123.686 E0.02394
G1 X148.330 Y123.969 E0.01850
G1 X147.920 Y124.060 E0.01316
G1 X102.037 Y124.057 E1.43864
G1 X101.436 Y123.868 E0.01974
G1 X101.131 Y123.665 E0.01150
G1 X100.682 Y123.215 E0.01993
G1 X100.403 Y122.699 E0.01838
G1 X100.312 Y122.290 E0.01315
G1 X100.333 Y95.922 E0.82673
G1 X100.304 Y88.290 E0.23932
G1 X100.379 Y87.800 E0.01555
G1 X100.548 Y87.330 E0.01564
G1 X101.104 Y86.626 E0.02812
G1 X101.312 Y86.477 E0.00803
G1 X101.981 Y86.141 E0.02347
G1 X102.940 Y85.983 E0.03047
G1 X146.628 Y85.984 E1.36983
G1 X147.363 Y86.081 E0.02323
G1 X147.977 Y86.319 E0.02064
G1 X148.599 Y86.795 E0.02456
G1 X148.911 Y87.224 E0.01663
G1 X149.115 Y87.684 E0.01578
G1 X149.222 Y88.231 E0.01748
G1 X149.230 Y92.989 E0.14919
G1 X148.853 Y93.196 F10800.000
G1 F1200.000
G1 X149.093 Y93.466 E0.01130
G1 X149.245 Y93.788 E0.01119
G1 X149.304 Y94.064 E0.00884
G1 X149.290 Y110.533 E0.51637
G1 X149.311 Y122.287 E0.36854
G1 X149.170 Y122.746 E0.01505
G1 X149.065 Y122.923 E0.00645
G1 X148.600 Y123.400 E0.02090
G1 X148.178 Y123.623 E0.01496
G1 X147.900 Y123.683 E0.00891
G1 X102.568 Y123.686 E1.42136
G1 X102.070 Y123.680 E0.01563
G1 X101.619 Y123.538 E0.01481
G1 X101.383 Y123.384 E0.00884
G1 X100.970 Y122.969 E0.01835
G1 X100.749 Y122.548 E0.01492
G1 X100.689 Y122.271 E0.00890
G1 X100.710 Y95.922 E0.82615
G1 X100.681 Y88.304 E0.23886
G1 X100.748 Y87.878 E0.01353
G1 X100.891 Y87.490 E0.01296
G1 X101.348 Y86.915 E0.02302
G1 X101.496 Y86.806 E0.00577
G1 X102.123 Y86.491 E0.02201
G1 X102.954 Y86.360 E0.02636
G1 X146.617 Y86.361 E1.36903
G1 X147.252 Y86.442 E0.02008
G1 X147.773 Y86.638 E0.01746
G1 X148.313 Y87.043 E0.02115
G1 X148.575 Y87.397 E0.01380
G1 X148.762 Y87.817 E0.01443
G1 X148.845 Y88.249 E0.01379
G1 X148.853 Y93.136 E0.15323
G1 X148.476 Y93.350 F10800.000
G1 F1200.000
G1 X148.766 Y93.656 E0.01322
G1 X148.895 Y93.929 E0.00946
G1 X148.927 Y94.083 E0.00493
G1 X148.913 Y110.533 E0.51579
G1 X148.934 Y122.256 E0.36756
G1 X148.820 Y122.604 E0.01147
G1 X148.758 Y122.704 E0.00372
G1 X148.355 Y123.111 E0.01795
G1 X148.032 Y123.274 E0.01133
G1 X147.881 Y123.306 E0.00484
G1 X102.571 Y123.309 E1.42068
G1 X102.105 Y123.304 E0.01461
G1 X101.765 Y123.189 E0.01125
G1 X101.637 Y123.105 E0.00479
G1 X101.260 Y122.726 E0.01677
G1 X101.097 Y122.403 E0.01134
G1 X101.066 Y122.252 E0.00483
G1 X101.087 Y95.921 E0.82559
G1 X101.058 Y88.317 E0.23843
G1 X101.108 Y87.990 E0.01036
G1 X101.234 Y87.650 E0.01139
G1 X101.594 Y87.201 E0.01802
G1 X101.682 Y87.135 E0.00345
G1 X102.265 Y86.842 E0.02047
G1 X102.967 Y86.737 E0.02225
G1 X146.606 Y86.739 E1.36827
G1 X147.146 Y86.804 E0.01704
G1 X147.574 Y86.959 E0.01429
G1 X148.030 Y87.293 E0.01773
G1 X148.239 Y87.570 E0.01088
G1 X148.408 Y87.950 E0.01303
G1 X148.468 Y88.267 E0.01011
G1 X148.476 Y93.290 E0.15748
G1 X148.100 Y93.510 F10800.000
G1 F1200.000
G1 X148.440 Y93.849 E0.01508
G1 X148.550 Y94.100 E0.00858
G1 X148.536 Y110.533 E0.51525
G1 X148.557 Y122.221 E0.36647
G1 X148.457 Y122.477 E0.00859
G1 X148.114 Y122.820 E0.01522
G1 X147.864 Y122.929 E0.00856
G1 X102.574 Y122.931 E1.42004
G1 X102.144 Y122.927 E0.01349
G1 X101.919 Y122.845 E0.00750
G1 X101.552 Y122.485 E0.01612
G1 X101.443 Y122.235 E0.00855
G1 X101.464 Y95.921 E0.82506
G1 X101.435 Y88.332 E0.23796
G1 X101.477 Y88.071 E0.00828
G1 X101.575 Y87.813 E0.00863
G1 X101.871 Y87.462 E0.01440
G1 X102.406 Y87.193 E0.01877
G1 X102.979 Y87.114 E0.01814
G1 X146.596 Y87.116 E1.36758
G1 X147.044 Y87.167 E0.01415
G1 X147.380 Y87.283 E0.01113
G1 X147.751 Y87.548 E0.01431
G1 X147.905 Y87.746 E0.00784
G1 X148.054 Y88.082 E0.01155
G1 X148.091 Y88.284 E0.00643
G1 X148.099 Y93.450 E0.16196
G1 X147.723 Y93.752 F10800.000
G1 F1200.000
G1 X147.870 Y93.813 E0.00499
G1 X148.144 Y94.087 E0.01214
G1 X148.173 Y94.156 E0.00236
G1 X148.159 Y110.533 E0.51351
G1 X148.180 Y122.180 E0.36517
G1 X148.151 Y122.250 E0.00236
G1 X147.877 Y122.523 E0.01214
G1 X147.808 Y122.552 E0.00235
G1 X102.577 Y122.554 E1.41819
G1 X102.189 Y122.550 E0.01216
G1 X102.120 Y122.522 E0.00233
G1 X101.849 Y122.248 E0.01208
G1 X101.820 Y122.179 E0.00235
G1 X101.841 Y95.920 E0.82334
G1 X101.812 Y88.344 E0.23754
G1 X101.837 Y88.186 E0.00503
G1 X101.915 Y87.980 E0.00690
G1 X102.095 Y87.770 E0.00868
G1 X102.492 Y87.562 E0.01405
G1 X102.992 Y87.491 E0.01583
G1 X146.584 Y87.493 E1.36680
G1 X146.981 Y87.540 E0.01252
G1 X147.189 Y87.609 E0.00688
G1 X147.477 Y87.809 E0.01099
G1 X147.573 Y87.927 E0.00478
G1 X147.690 Y88.180 E0.00872
G1 X147.714 Y88.304 E0.00397
G1 X147.723 Y93.692 E0.16893
G1 X147.346 Y94.161 F10800.000
G1 F1200.000
G1 X147.685 Y94.161 E0.01062
G1 X147.795 Y94.272 E0.00488
G1 X147.782 Y110.534 E0.50989
G1 X147.802 Y122.065 E0.36155
G1 X147.692 Y122.175 E0.00488
G1 X102.580 Y122.177 E1.41448
G1 X102.307 Y122.175 E0.00854
G1 X102.197 Y122.064 E0.00488
G1 X102.218 Y95.920 E0.81975
G1 X102.190 Y88.355 E0.23718
G1 X102.253 Y88.152 E0.00668
G1 X102.343 Y88.055 E0.00414
G1 X102.627 Y87.915 E0.00992
G1 X103.002 Y87.868 E0.01186
G1 X146.573 Y87.870 E1.36612
G1 X146.919 Y87.912 E0.01094
G1 X147.005 Y87.939 E0.00281
G1 X147.213 Y88.078 E0.00784
G1 X147.246 Y88.116 E0.00160
G1 X147.337 Y88.329 E0.00724
G1 X147.346 Y94.101 E0.18101
G1 F8640.000
G1 X147.685 Y94.161 E-0.07945
G1 X147.795 Y94.272 E-0.03596
G1 X147.793 Y97.063 E-0.64458
G1 E-0.04000 F2100.00000
G1 Z0.800 F10800.000
G1 X146.371 Y95.137
G1 Z0.200
G1 E0.80000 F2100.00000
G1 F1200.000
G1 X146.820 Y95.137 E0.01409
G1 X146.806 Y110.535 E0.48278
G1 X146.826 Y121.199 E0.33438
G1 X103.174 Y121.202 E1.36870
G1 X103.194 Y95.917 E0.79277
G1 X103.167 Y88.844 E0.22179
M73 P6 R29
G1 X106.967 Y88.842 E0.11916
M73 Q6 S29
G1 X107.579 Y88.819 E0.01918
G1 X107.223 Y89.162 E0.01549
G1 X106.889 Y89.662 E0.01886
G1 X106.652 Y90.200 E0.01843
G1 X106.509 Y90.767 E0.01834
G1 X106.460 Y91.350 E0.01833
G1 X106.509 Y91.933 E0.01833
G1 X106.652 Y92.499 E0.01833
G1 X106.887 Y93.035 E0.01833
G1 X107.207 Y93.524 E0.01833
G1 X107.603 Y93.954 E0.01833
G1 X108.064 Y94.313 E0.01833
G1 X108.578 Y94.592 E0.01833
G1 X109.131 Y94.781 E0.01833
G1 X109.708 Y94.878 E0.01833
G1 X110.292 Y94.878 E0.01833
G1 X110.869 Y94.781 E0.01833
G1 X111.422 Y94.592 E0.01833
G1 X111.936 Y94.313 E0.01833
G1 X112.397 Y93.954 E0.01833
G1 X112.793 Y93.524 E0.01833
G1 X113.115 Y93.032 E0.01842
G1 X113.356 Y92.466 E0.01931
G1 X113.491 Y91.933 E0.01724
G1 X113.540 Y91.350 E0.01833
G1 X113.491 Y90.767 E0.01833
G1 X113.348 Y90.200 E0.01834
G1 X113.112 Y89.663 E0.01842
G1 X112.779 Y89.164 E0.01881
G1 X112.427 Y88.821 E0.01540
G1 X112.885 Y88.840 E0.01437
G1 X136.660 Y88.844 E0.74546
G1 X137.580 Y88.818 E0.02884
G1 X137.223 Y89.162 E0.01554
G1 X136.889 Y89.662 E0.01886
G1 X136.652 Y90.200 E0.01843
G1 X136.509 Y90.767 E0.01834
G1 X136.460 Y91.350 E0.01833
G1 X136.509 Y91.933 E0.01833
G1 X136.652 Y92.499 E0.01833
G1 X136.888 Y93.037 E0.01842
G1 X137.230 Y93.550 E0.01931
G1 X137.603 Y93.954 E0.01724
G1 X138.064 Y94.313 E0.01833
G1 X138.578 Y94.592 E0.01833
G1 X139.131 Y94.781 E0.01833
G1 X139.708 Y94.878 E0.01833
G1 X140.292 Y94.878 E0.01833
G1 X140.869 Y94.781 E0.01833
G1 X141.422 Y94.592 E0.01833
G1 X141.936 Y94.313 E0.01833
G1 X142.397 Y93.954 E0.01833
G1 X142.793 Y93.524 E0.01833
G1 X143.115 Y93.032 E0.01842
G1 X143.356 Y92.466 E0.01931
G1 X143.491 Y91.933 E0.01724
G1 X143.540 Y91.350 E0.01833
G1 X143.491 Y90.767 E0.01833
G1 X143.348 Y90.200 E0.01834
G1 X143.112 Y89.663 E0.01842
G1 X142.779 Y89.164 E0.01881
G1 X142.426 Y88.820 E0.01544
G1 X146.362 Y88.844 E0.12341
G1 X146.370 Y95.077 E0.19545
G1 F8640.000
G1 X146.820 Y95.137 E-0.10467
G1 X146.817 Y97.975 E-0.65533
