; generated by PrusaSlicer 2.2.0+win64 on 2020-07-08 at 15:28:35 UTC

; 

; external perimeters extrusion width = 0.45mm
; perimeters extrusion width = 0.45mm
; infill extrusion width = 0.45mm
; solid infill extrusion width = 0.45mm
; top infill extrusion width = 0.40mm
; first layer extrusion width = 0.42mm

M73 P0 R37
M73 Q0 S37
M201 X1000 Y1000 Z200 E5000 ; sets maximum accelerations, mm/sec^2
M203 X200 Y200 Z12 E120 ; sets maximum feedrates, mm/sec
M204 P1250 R1250 T1250 ; sets acceleration (P, T) and retract acceleration (R), mm/sec^2
M205 X8.00 Y8.00 Z0.40 E4.50 ; sets the jerk limits, mm/sec
M205 S0 T0 ; sets the minimum extruding and travel feed rate, mm/sec
M107
M862.3 P "MK3S" ; printer model check
M862.1 P0.4 ; nozzle diameter check
M115 U3.9.0 ; tell printer latest fw version
G90 ; use absolute coordinates
M83 ; extruder relative mode
M104 S215 ; set extruder temp
M140 S60 ; set bed temp
M190 S60 ; wait for bed temp
M109 S215 ; wait for extruder temp
G28 W ; home all without mesh bed level
G80 ; mesh bed leveling
G1 Y-3.0 F1000.0 ; go outside print area
G92 E0.0
G1 X60.0 E9.0 F1000.0 ; intro line
M73 Q0 S37
M73 P0 R37
G1 X100.0 E12.5 F1000.0 ; intro line
G92 E0.0
M221 S95
G21 ; set units to millimeters
G90 ; use absolute coordinates
M83 ; use relative distances for extrusion
M900 K0.06 ; Filament gcode LA 1.5
M900 K30 ; Filament gcode LA 1.0
;BEFORE_LAYER_CHANGE
G92 E0.0
;0.2


G1 E-0.80000 F2100.00000
G1 Z0.600 F10800.000
;AFTER_LAYER_CHANGE
;0.2
G1 X100.751 Y85.787
G1 Z0.200
G1 E0.80000 F2100.00000
M204 S1000
G1 F1200.000
G1 X101.537 Y85.642 E0.02508
G1 X148.538 Y85.644 E1.47365
G1 X149.347 Y85.825 E0.02602
G1 X149.957 Y86.196 E0.02237
G1 X150.572 Y86.850 E0.02814
G1 X150.988 Y87.559 E0.02577
G1 X151.170 Y88.206 E0.02107
G1 X151.184 Y121.217 E1.03506
G1 X151.105 Y121.876 E0.02080
G1 X150.857 Y122.565 E0.02296
G1 X150.575 Y123.016 E0.01668
G1 X150.057 Y123.576 E0.02392
G1 X149.143 Y124.120 E0.03335
G1 X148.070 Y124.330 E0.03429
G1 X101.940 Y124.330 E1.44635
G1 X101.106 Y124.199 E0.02649
G1 X100.510 Y123.962 E0.02010
G1 X99.901 Y123.540 E0.02325
G1 X99.450 Y123.048 E0.02092
G1 X99.005 Y122.230 E0.02919
G1 X98.815 Y121.188 E0.03324
G1 X98.810 Y88.480 E1.02553
G1 X98.888 Y87.912 E0.01799
G1 X99.099 Y87.382 E0.01787
G1 X99.461 Y86.808 E0.02129
G1 X100.060 Y86.182 E0.02714
G1 X100.699 Y85.817 E0.02308
G1 F8640.000
G1 X101.537 Y85.642 E-0.19782
G1 X103.972 Y85.642 E-0.56218
G1 E-0.04000 F2100.00000
G1 Z0.800 F10800.000
G1 X99.687 Y83.662
G1 Z0.200
G1 E0.80000 F2100.00000
G1 F1200.000
G1 X101.056 Y83.306 E0.04433
G1 X148.872 Y83.307 E1.49926
G1 X150.102 Y83.576 E0.03947
G1 X151.195 Y84.166 E0.03894
G1 X152.111 Y85.030 E0.03949
G1 X152.786 Y86.135 E0.04059
G1 X153.095 Y87.149 E0.03325
G1 X153.131 Y121.244 E1.06902
G1 X153.022 Y122.262 E0.03210
G1 X152.719 Y123.218 E0.03144
G1 X151.248 Y125.133 E0.07571
G1 X150.534 Y125.606 E0.02686
G1 X149.771 Y125.966 E0.02645
G1 X148.197 Y126.278 E0.05030
G1 X101.799 Y126.278 E1.45479
G1 X100.142 Y125.931 E0.05306
G1 X99.075 Y125.362 E0.03792
G1 X98.200 Y124.594 E0.03650
G1 X97.615 Y123.821 E0.03040
G1 X97.171 Y122.940 E0.03093
G1 X96.869 Y121.296 E0.05240
G1 X96.854 Y87.584 E1.05703
G1 X97.032 Y86.615 E0.03090
G1 X97.430 Y85.681 E0.03181
G1 X98.499 Y84.419 E0.05189
G1 X99.637 Y83.694 E0.04228
G1 X99.837 Y84.013 F10800.000
G1 F1200.000
G1 X101.079 Y83.683 E0.04029
G1 X148.852 Y83.684 E1.49787
G1 X149.947 Y83.920 E0.03512
G1 X150.993 Y84.486 E0.03729
G1 X151.832 Y85.285 E0.03633
G1 X152.450 Y86.309 E0.03750
G1 X152.726 Y87.231 E0.03017
G1 X152.754 Y121.235 E1.06618
G1 X152.657 Y122.166 E0.02938
G1 X152.369 Y123.072 E0.02980
G1 X151.013 Y124.836 E0.06976
G1 X150.360 Y125.271 E0.02459
G1 X149.631 Y125.615 E0.02528
G1 X148.179 Y125.901 E0.04641
G1 X101.818 Y125.901 E1.45362
G1 X100.294 Y125.585 E0.04877
G1 X99.306 Y125.063 E0.03505
G1 X98.489 Y124.350 E0.03399
G1 X97.926 Y123.607 E0.02923
G1 X97.520 Y122.796 E0.02844
G1 X97.246 Y121.280 E0.04832
G1 X97.231 Y87.602 E1.05595
G1 X97.399 Y86.705 E0.02859
G1 X97.764 Y85.857 E0.02895
G1 X98.766 Y84.686 E0.04833
G1 X99.786 Y84.045 E0.03778
G1 X99.983 Y84.356 F10800.000
G1 F1200.000
G1 X101.104 Y84.060 E0.03637
G1 X148.831 Y84.061 E1.49646
G1 X149.793 Y84.266 E0.03083
G1 X150.752 Y84.777 E0.03406
G1 X151.553 Y85.540 E0.03469
G1 X152.114 Y86.480 E0.03434
G1 X152.357 Y87.310 E0.02710
G1 X152.377 Y121.225 E1.06337
G1 X152.284 Y122.107 E0.02782
G1 X152.021 Y122.926 E0.02696
G1 X150.778 Y124.539 E0.06385
G1 X150.163 Y124.949 E0.02317
G1 X149.492 Y125.263 E0.02323
G1 X148.161 Y125.524 E0.04254
G1 X101.836 Y125.524 E1.45247
G1 X100.445 Y125.239 E0.04453
G1 X99.536 Y124.763 E0.03218
G1 X98.777 Y124.106 E0.03149
G1 X98.255 Y123.422 E0.02694
G1 X97.870 Y122.652 E0.02701
G1 X97.623 Y121.263 E0.04423
G1 X97.608 Y87.620 E1.05487
G1 X97.765 Y86.797 E0.02625
G1 X98.098 Y86.035 E0.02608
G1 X99.033 Y84.954 E0.04481
G1 X99.932 Y84.388 E0.03330
G1 F8640.000
G1 X101.104 Y84.060 E-0.28107
G1 X103.178 Y84.060 E-0.47893
G1 E-0.04000 F2100.00000
G1 Z0.800 F10800.000
G1 X98.432 Y86.213
G1 Z0.200
G1 E0.80000 F2100.00000
G1 F1200.000
G1 X99.297 Y85.224 E0.04120
G1 X100.160 Y84.689 E0.03184
G1 X101.128 Y84.437 E0.03135
G1 X148.812 Y84.438 E1.49509
G1 X149.640 Y84.611 E0.02653
G1 X150.551 Y85.097 E0.03236
G1 X151.272 Y85.793 E0.03142
G1 X151.776 Y86.650 E0.03119
G1 X151.987 Y87.388 E0.02405
G1 X152.000 Y121.216 E1.06065
G1 X151.919 Y122.011 E0.02506
G1 X151.672 Y122.779 E0.02531
G1 X150.544 Y124.242 E0.05793
G1 X149.966 Y124.627 E0.02175
G1 X149.354 Y124.912 E0.02116
G1 X148.143 Y125.147 E0.03870
G1 X101.855 Y125.147 E1.45132
G1 X100.594 Y124.892 E0.04033
G1 X99.764 Y124.462 E0.02930
G1 X99.064 Y123.861 E0.02894
G1 X98.566 Y123.208 E0.02573
G1 X98.220 Y122.509 E0.02445
G1 X98.000 Y121.247 E0.04018
G1 X97.985 Y87.637 E1.05382
G1 X98.119 Y86.929 E0.02260
G1 X98.408 Y86.268 E0.02260
G1 X98.752 Y86.421 F10800.000
G1 F1200.000
G1 X99.561 Y85.496 E0.03853
G1 X100.285 Y85.046 E0.02673
G1 X101.153 Y84.814 E0.02818
G1 X148.792 Y84.815 E1.49369
G1 X149.489 Y84.958 E0.02231
G1 X150.309 Y85.387 E0.02900
G1 X150.990 Y86.045 E0.02971
G1 X151.438 Y86.819 E0.02802
G1 X151.610 Y87.414 E0.01944
G1 X151.623 Y121.206 E1.05950
G1 X151.546 Y121.951 E0.02350
G1 X151.324 Y122.631 E0.02242
G1 X150.308 Y123.946 E0.05210
G1 X149.794 Y124.291 E0.01943
G1 X149.216 Y124.560 E0.01996
G1 X148.125 Y124.770 E0.03485
G1 X101.873 Y124.770 E1.45019
G1 X100.742 Y124.544 E0.03618
G1 X99.991 Y124.160 E0.02643
G1 X99.350 Y123.615 E0.02639
G1 X98.896 Y123.024 E0.02336
G1 X98.570 Y122.367 E0.02299
G1 X98.377 Y121.231 E0.03612
G1 X98.362 Y87.655 E1.05275
G1 X98.485 Y87.022 E0.02022
G1 X98.728 Y86.475 E0.01876
G1 F8640.000
G1 X99.561 Y85.496 E-0.29697
G1 X100.285 Y85.046 E-0.19681
G1 X101.153 Y84.814 E-0.20750
G1 X101.407 Y84.814 E-0.05871
G1 E-0.04000 F2100.00000
G1 Z0.800 F10800.000
G1 X145.010 Y85.182
G1 Z0.200
G1 E0.80000 F2100.00000
M73 Q2 S36
M73 P2 R36
G1 F1200.000
G1 X101.179 Y85.192 E1.37429
G1 X100.412 Y85.402 E0.02496
G1 X99.822 Y85.768 E0.02174
G1 X99.095 Y86.576 E0.03410
G1 X98.850 Y87.118 E0.01864
G1 X98.739 Y87.674 E0.01778
G1 X98.739 Y87.776 E0.00317
G1 F8640.000
G1 X98.739 Y87.674 E-0.02338
G1 X98.850 Y87.118 E-0.13097
G1 X99.095 Y86.576 E-0.13729
G1 X99.822 Y85.768 E-0.25109
G1 X100.412 Y85.402 E-0.16011
G1 X100.650 Y85.337 E-0.05717
G1 E-0.04000 F2100.00000
G1 Z0.800 F10800.000
G1 X145.010 Y85.182
G1 Z0.200
G1 E0.80000 F2100.00000
G1 F1200.000
G1 X148.773 Y85.192 E0.11800
G1 X149.339 Y85.305 E0.01807
G1 X150.108 Y85.708 E0.02725
G1 X150.707 Y86.295 E0.02628
G1 X151.099 Y86.984 E0.02485
G1 X151.240 Y87.490 E0.01648
G1 X151.240 Y87.757 E0.00838
G1 F8640.000
G1 X151.240 Y87.490 E-0.06172
G1 X151.099 Y86.984 E-0.12139
G1 X150.707 Y86.295 E-0.18298
G1 X150.108 Y85.708 E-0.19352
G1 X149.340 Y85.305 E-0.20038
G1 E-0.04000 F2100.00000
G1 Z0.800 F10800.000
G1 X99.117 Y87.848
G1 Z0.200
G1 E0.80000 F2100.00000
G1 F1200.000
G1 X99.131 Y121.202 E1.04579
G1 X99.272 Y122.086 E0.02808
G1 X99.535 Y122.624 E0.01877
G1 X99.921 Y123.120 E0.01971
G1 X100.406 Y123.531 E0.01993
G1 X101.034 Y123.846 E0.02203
G1 X101.909 Y124.015 E0.02796
G1 X148.090 Y124.015 E1.44798
G1 X148.943 Y123.855 E0.02722
G1 X149.424 Y123.634 E0.01660
G1 X149.837 Y123.355 E0.01562
G1 X150.628 Y122.333 E0.04052
G1 X150.808 Y121.795 E0.01779
G1 X150.869 Y121.187 E0.01914
G1 X150.869 Y87.832 E1.04583
G1 F8640.000
G1 X150.869 Y91.123 E-0.76000
G1 E-0.04000 F2100.00000
G1 Z0.800 F10800.000
G1 X149.666 Y86.319
G1 Z0.200
G1 E0.80000 F2100.00000
G1 F1200.000
G1 X150.135 Y86.790 E0.02083
G1 X150.414 Y87.303 E0.01830
G1 X150.498 Y87.632 E0.01065
G1 X150.492 Y121.179 E1.05185
G1 X150.443 Y121.696 E0.01629
G1 X150.281 Y122.183 E0.01609
G1 X149.601 Y123.059 E0.03476
G1 X149.226 Y123.312 E0.01418
G1 X148.809 Y123.502 E0.01439
G1 X148.073 Y123.638 E0.02345
G1 X101.926 Y123.638 E1.44690
G1 X101.177 Y123.497 E0.02392
G1 X100.630 Y123.226 E0.01913
G1 X100.204 Y122.871 E0.01739
G1 X99.865 Y122.440 E0.01720
G1 X99.624 Y121.947 E0.01720
G1 X99.508 Y121.188 E0.02407
G1 X99.494 Y87.715 E1.04953
G1 X99.579 Y87.318 E0.01271
G1 X99.752 Y86.950 E0.01276
G1 X100.341 Y86.318 E0.02709
G1 X100.673 Y86.111 E0.01225
G1 X101.234 Y85.946 E0.01837
G1 X148.739 Y85.946 E1.48947
G1 X149.046 Y86.002 E0.00978
G1 X149.613 Y86.292 E0.01997
G1 X148.906 Y86.353 F10800.000
G1 F1200.000
G1 X149.422 Y86.608 E0.01804
G1 X149.847 Y87.035 E0.01890
G1 X150.070 Y87.458 E0.01498
G1 X150.121 Y87.656 E0.00640
G1 X150.115 Y121.170 E1.05081
G1 X150.070 Y121.637 E0.01472
G1 X149.935 Y122.030 E0.01304
G1 X149.364 Y122.765 E0.02917
G1 X149.055 Y122.976 E0.01174
G1 X148.674 Y123.149 E0.01312
G1 X148.057 Y123.261 E0.01967
G1 X101.943 Y123.261 E1.44586
G1 X101.317 Y123.146 E0.01996
G1 X100.851 Y122.920 E0.01623
G1 X100.486 Y122.619 E0.01486
G1 X100.194 Y122.255 E0.01462
G1 X99.976 Y121.808 E0.01557
G1 X99.885 Y121.175 E0.02006
G1 X99.871 Y87.734 E1.04852
G1 X99.929 Y87.459 E0.00881
G1 X100.080 Y87.139 E0.01110
G1 X100.597 Y86.595 E0.02352
G1 X100.808 Y86.464 E0.00781
G1 X101.264 Y86.323 E0.01496
G1 X145.008 Y86.313 E1.37156
G1 X148.724 Y86.323 E0.11652
G1 X148.847 Y86.343 E0.00390
G1 F8640.000
G1 X149.422 Y86.608 E-0.14614
G1 X149.847 Y87.035 E-0.13918
G1 X150.070 Y87.458 E-0.11029
G1 X150.121 Y87.656 E-0.04716
G1 X150.120 Y89.030 E-0.31723
G1 E-0.04000 F2100.00000
G1 Z0.800 F10800.000
G1 X149.722 Y87.604
G1 Z0.200
G1 E0.80000 F2100.00000
G1 F1200.000
G1 X149.749 Y87.719 E0.00368
G1 X149.738 Y121.163 E1.04861
G1 X149.706 Y121.537 E0.01179
G1 X149.588 Y121.878 E0.01129
G1 X149.125 Y122.472 E0.02362
G1 X148.882 Y122.640 E0.00926
G1 X148.540 Y122.796 E0.01180
G1 X148.041 Y122.884 E0.01589
G1 X101.959 Y122.884 E1.44485
G1 X101.454 Y122.794 E0.01609
G1 X101.070 Y122.612 E0.01333
G1 X100.767 Y122.367 E0.01223
G1 X100.503 Y122.037 E0.01325
G1 X100.330 Y121.675 E0.01258
G1 X100.262 Y121.164 E0.01616
G1 X100.248 Y87.753 E1.04757
G1 X100.280 Y87.600 E0.00491
G1 X100.407 Y87.329 E0.00937
G1 X100.850 Y86.876 E0.01987
G1 X100.949 Y86.814 E0.00366
G1 X101.296 Y86.700 E0.01146
G1 X148.706 Y86.700 E1.48650
G1 X148.814 Y86.719 E0.00344
G1 X149.177 Y86.897 E0.01268
G1 X149.558 Y87.279 E0.01691
G1 X149.695 Y87.551 E0.00954
G1 X149.356 Y87.710 F10800.000
G1 F1200.000
G1 X149.375 Y87.770 E0.00198
G1 X149.361 Y121.154 E1.04672
G1 X149.332 Y121.478 E0.01020
G1 X149.245 Y121.720 E0.00806
G1 X148.884 Y122.181 E0.01835
G1 X148.709 Y122.305 E0.00673
G1 X148.406 Y122.443 E0.01042
G1 X148.026 Y122.507 E0.01211
G1 X101.975 Y122.507 E1.44390
G1 X101.591 Y122.442 E0.01219
G1 X101.252 Y122.281 E0.01178
G1 X101.049 Y122.116 E0.00821
G1 X100.812 Y121.820 E0.01188
G1 X100.685 Y121.546 E0.00946
G1 X100.639 Y121.154 E0.01238
G1 X100.625 Y87.770 E1.04672
G1 X100.734 Y87.520 E0.00855
G1 X101.076 Y87.177 E0.01521
G1 X101.331 Y87.077 E0.00858
G1 X148.684 Y87.077 E1.48472
G1 X148.934 Y87.187 E0.00855
G1 X149.266 Y87.520 E0.01476
G1 X149.330 Y87.656 E0.00471
G1 X148.969 Y87.757 F10800.000
G1 F1200.000
G1 X148.998 Y87.826 E0.00235
G1 X148.984 Y121.149 E1.04482
G1 X148.968 Y121.377 E0.00714
G1 X148.901 Y121.563 E0.00621
G1 X148.640 Y121.892 E0.01318
G1 X148.534 Y121.970 E0.00414
G1 X148.274 Y122.088 E0.00894
G1 X148.012 Y122.130 E0.00833
G1 X101.988 Y122.130 E1.44304
G1 X101.727 Y122.089 E0.00829
G1 X101.435 Y121.951 E0.01014
G1 X101.331 Y121.865 E0.00419
G1 X101.123 Y121.605 E0.01047
G1 X101.044 Y121.425 E0.00616
G1 X101.016 Y121.146 E0.00877
G1 X101.002 Y87.826 E1.04473
G1 X101.031 Y87.757 E0.00235
G1 X101.304 Y87.483 E0.01214
G1 X101.373 Y87.454 E0.00236
G1 X148.627 Y87.454 E1.48161
G1 X148.696 Y87.483 E0.00235
G1 X148.927 Y87.714 E0.01025
G1 X148.621 Y87.941 F10800.000
G1 F1200.000
G1 X148.607 Y121.142 E1.04099
G1 X148.594 Y121.317 E0.00549
G1 X148.564 Y121.393 E0.00257
G1 X148.355 Y121.637 E0.01008
G1 X148.145 Y121.733 E0.00724
G1 X148.001 Y121.753 E0.00456
G1 X101.999 Y121.753 E1.44235
G1 X101.855 Y121.733 E0.00456
G1 X101.645 Y121.637 E0.00724
G1 X101.436 Y121.393 E0.01008
G1 X101.406 Y121.317 E0.00257
G1 X101.393 Y121.142 E0.00549
G1 X101.379 Y87.941 E1.04099
G1 X101.489 Y87.831 E0.00489
G1 X145.005 Y87.822 E1.36441
M73 Q5 S35
M73 P5 R35
G1 X148.511 Y87.831 E0.10992
G1 X148.579 Y87.899 E0.00302
G1 F8640.000
G1 X148.581 Y91.190 E-0.76000
G1 E-0.04000 F2100.00000
G1 Z0.800 F10800.000
G1 X147.645 Y88.804
G1 Z0.200
G1 E0.80000 F2100.00000
G1 F1200.000
G1 X147.631 Y120.776 E1.00245
G1 X143.994 Y120.776 E0.11405
G1 X142.957 Y120.798 E0.03253
G1 X142.714 Y120.829 E0.00767
G1 X142.757 Y120.795 E0.00172
G1 X143.116 Y120.313 E0.01886
G1 X143.360 Y119.759 E0.01896
G1 X143.500 Y119.159 E0.01931
G1 X143.540 Y118.613 E0.01717
G1 X143.487 Y118.034 E0.01822
G1 X143.340 Y117.471 E0.01825
G1 X143.103 Y116.940 E0.01823
G1 X142.780 Y116.453 E0.01831
G1 X142.360 Y116.009 E0.01918
G1 X141.926 Y115.675 E0.01717
G1 X141.414 Y115.399 E0.01822
G1 X140.864 Y115.212 E0.01822
G1 X140.291 Y115.117 E0.01822
G1 X139.709 Y115.117 E0.01822
G1 X139.136 Y115.212 E0.01822
G1 X138.586 Y115.399 E0.01822
G1 X138.104 Y115.659 E0.01717
G1 X137.616 Y116.028 E0.01918
G1 X137.218 Y116.456 E0.01831
G1 X136.897 Y116.940 E0.01822
G1 X136.660 Y117.471 E0.01822
G1 X136.522 Y118.001 E0.01719
G1 X136.460 Y118.610 E0.01920
G1 X136.503 Y119.193 E0.01832
G1 X136.641 Y119.762 E0.01834
G1 X136.885 Y120.315 E0.01894
G1 X137.277 Y120.828 E0.02024
G1 X137.041 Y120.798 E0.00743
G1 X135.504 Y120.775 E0.04820
G1 X113.489 Y120.778 E0.69028
G1 X112.952 Y120.799 E0.01685
G1 X112.714 Y120.829 E0.00753
G1 X112.757 Y120.795 E0.00172
G1 X113.116 Y120.313 E0.01886
G1 X113.360 Y119.759 E0.01896
G1 X113.500 Y119.159 E0.01931
G1 X113.540 Y118.613 E0.01717
G1 X113.487 Y118.034 E0.01822
G1 X113.340 Y117.471 E0.01825
G1 X113.103 Y116.940 E0.01823
G1 X112.780 Y116.453 E0.01831
G1 X112.360 Y116.009 E0.01918
G1 X111.926 Y115.675 E0.01717
G1 X111.414 Y115.399 E0.01822
G1 X110.864 Y115.212 E0.01822
G1 X110.291 Y115.117 E0.01822
G1 X109.709 Y115.117 E0.01822
G1 X109.136 Y115.212 E0.01822
G1 X108.586 Y115.399 E0.01822
G1 X108.104 Y115.659 E0.01717
G1 X107.616 Y116.028 E0.01918
G1 X107.218 Y116.456 E0.01831
G1 X106.897 Y116.940 E0.01822
G1 X106.660 Y117.471 E0.01822
G1 X106.522 Y118.001 E0.01719
G1 X106.460 Y118.610 E0.01920
G1 X106.503 Y119.193 E0.01832
G1 X106.641 Y119.762 E0.01834
G1 X106.885 Y120.315 E0.01894
G1 X107.277 Y120.828 E0.02024
G1 X107.048 Y120.799 E0.00722
G1 X106.511 Y120.778 E0.01685
G1 X102.372 Y120.776 E0.12978
G1 X102.355 Y88.806 E1.00242
G1 X147.585 Y88.804 E1.41814
G1 X148.022 Y88.428 F10800.000
G1 F1200.000
G1 X147.997 Y121.142 E1.02573
G1 X143.998 Y121.153 E0.12541
G1 X142.984 Y121.175 E0.03178
G1 X142.463 Y121.241 E0.01647
G1 X141.976 Y121.352 E0.01566
G1 X141.191 Y121.352 E0.02463
G1 X142.068 Y120.851 E0.03168
G1 X142.486 Y120.528 E0.01655
G1 X142.788 Y120.122 E0.01589
G1 X143.001 Y119.639 E0.01653
G1 X143.126 Y119.102 E0.01729
G1 X143.161 Y118.617 E0.01527
G1 X143.114 Y118.100 E0.01628
G1 X142.983 Y117.596 E0.01630
G1 X142.771 Y117.123 E0.01628
G1 X142.484 Y116.689 E0.01631
G1 X142.106 Y116.290 E0.01723
G1 X141.720 Y115.992 E0.01528
G1 X141.263 Y115.746 E0.01628
